astoria-game/Assets/Environment/Maps/LUTs/Grade5.CUBE
#Created by: Adobe Photoshop Export Color Lookup Plugin
TITLE "Frame.psd"
#LUT size
LUT_3D_SIZE 32
#data domain
DOMAIN_MIN 0.0 0.0 0.0
DOMAIN_MAX 1.0 1.0 1.0
#LUT data points
0.015500 0.014850 0.013530
0.015769 0.014898 0.013550
0.016106 0.014957 0.013575
0.016571 0.015039 0.013610
0.017251 0.015159 0.013660
0.018258 0.015337 0.013735
0.019757 0.015601 0.013846
0.021968 0.015991 0.014011
0.025206 0.016562 0.014251
0.033685 0.017727 0.014632
0.063579 0.020967 0.015321
0.108139 0.025138 0.015754
0.176034 0.029544 0.014925
0.268730 0.030079 0.011354
0.377078 0.020568 0.004256
0.479604 0.001488 0.000000
0.553834 0.000000 0.000000
0.604774 0.000000 0.000000
0.643475 0.000000 0.000000
0.675613 0.000000 0.000000
0.696969 0.000000 0.000000
0.709055 0.000000 0.000000
0.718069 0.000000 0.000000
0.725542 0.000000 0.000000
0.731761 0.000000 0.000000
0.736689 0.000000 0.000000
0.740685 0.000000 0.000000
0.743802 0.000000 0.000000
0.746248 0.000000 0.000000
0.748268 0.000000 0.000000
0.749986 0.000000 0.000000
0.751530 0.000000 0.000000
0.015542 0.014991 0.013557
0.015713 0.015028 0.013569
0.016050 0.015087 0.013594
0.016515 0.015169 0.013629
0.017195 0.015289 0.013680
0.018202 0.015467 0.013754
0.019701 0.015731 0.013866
0.021912 0.016121 0.014030
0.025150 0.016693 0.014271
0.032940 0.017812 0.014643
0.062835 0.021052 0.015332
0.106739 0.025224 0.015788
0.174060 0.029721 0.015007
0.266313 0.030435 0.011500
0.374314 0.021204 0.004472
0.476969 0.002365 0.000092
0.551650 0.000716 0.000000
0.603159 0.000381 0.000000
0.642466 0.000000 0.000000
0.674699 0.000000 0.000000
0.696303 0.000000 0.000000
0.708710 0.000000 0.000000
0.718049 0.000000 0.000000
0.725718 0.000000 0.000000
0.731936 0.000000 0.000000
0.736943 0.000000 0.000000
0.740939 0.000000 0.000000
0.744133 0.000000 0.000000
0.746579 0.000000 0.000000
0.748599 0.000000 0.000000
0.750317 0.000000 0.000000
0.751861 0.000000 0.000000
0.015596 0.015167 0.013591
0.015767 0.015204 0.013604
0.015980 0.015250 0.013619
0.016445 0.015332 0.013653
0.017125 0.015452 0.013704
0.018132 0.015630 0.013779
0.019631 0.015894 0.013890
0.021842 0.016284 0.014054
0.025080 0.016856 0.014295
0.032010 0.017918 0.014656
0.061904 0.021158 0.015345
0.104989 0.025333 0.015829
0.171592 0.029943 0.015109
0.263291 0.030880 0.011681
0.370859 0.021998 0.004742
0.473676 0.003462 0.000207
0.548922 0.001611 0.000000
0.601140 0.000857 0.000000
0.641206 0.000000 0.000000
0.673557 0.000000 0.000000
0.695470 0.000000 0.000000
0.708279 0.000000 0.000000
0.718024 0.000000 0.000000
0.725936 0.000000 0.000000
0.732155 0.000000 0.000000
0.737259 0.000000 0.000000
0.741256 0.000000 0.000000
0.744547 0.000000 0.000000
0.746993 0.000000 0.000000
0.749013 0.000000 0.000000
0.750731 0.000000 0.000000
0.752275 0.000000 0.000000
0.015669 0.015410 0.013639
0.015840 0.015447 0.013651
0.016053 0.015493 0.013666
0.016349 0.015557 0.013687
0.017028 0.015677 0.013737
0.018036 0.015855 0.013812
0.019534 0.016119 0.013924
0.021746 0.016509 0.014088
0.024983 0.017080 0.014329
0.030724 0.018064 0.014675
0.060619 0.021304 0.015364
0.102572 0.025482 0.015886
0.168184 0.030250 0.015250
0.259119 0.031495 0.011931
0.366087 0.023095 0.005115
0.469128 0.004977 0.000366
0.545153 0.002846 0.000000
0.598352 0.001514 0.000000
0.639465 0.000000 0.000000
0.671979 0.000000 0.000000
0.694320 0.000000 0.000000
0.707685 0.000000 0.000000
0.717990 0.000000 0.000000
0.726239 0.000000 0.000000
0.732457 0.000000 0.000000
0.737697 0.000000 0.000000
0.741693 0.000000 0.000000
0.745118 0.000000 0.000000
0.747565 0.000000 0.000000
0.749585 0.000000 0.000000
0.751302 0.000000 0.000000
0.752847 0.000000 0.000000
0.015776 0.015765 0.013707
0.015947 0.015802 0.013720
0.016161 0.015848 0.013735
0.016456 0.015912 0.013756
0.016887 0.016005 0.013786
0.017894 0.016183 0.013861
0.019393 0.016448 0.013973
0.021604 0.016838 0.014137
0.024842 0.017409 0.014378
0.030555 0.018391 0.014723
0.058741 0.021518 0.015391
0.099040 0.025700 0.015970
0.163205 0.030698 0.015456
0.253021 0.032394 0.012297
0.359114 0.024697 0.005660
0.462467 0.007193 0.000605
0.539647 0.004652 0.000000
0.594278 0.002475 0.000000
0.636921 0.000000 0.000000
0.669673 0.000000 0.000000
0.692640 0.000000 0.000000
0.706816 0.000000 0.000000
0.717940 0.000000 0.000000
0.726681 0.000000 0.000000
0.732899 0.000000 0.000000
0.738336 0.000000 0.000000
0.742332 0.000000 0.000000
0.745954 0.000000 0.000000
0.748400 0.000000 0.000000
0.750420 0.000000 0.000000
0.752138 0.000000 0.000000
0.753682 0.000000 0.000000
0.015935 0.016291 0.013810
0.016106 0.016328 0.013822
0.016319 0.016375 0.013837
0.016615 0.016439 0.013858
0.017046 0.016532 0.013888
0.017685 0.016670 0.013934
0.019183 0.016935 0.014045
0.021395 0.017325 0.014210
0.024633 0.017896 0.014450
0.030346 0.018878 0.014796
0.055956 0.021835 0.015431
0.093804 0.026024 0.016094
0.157415 0.031110 0.015627
0.243981 0.033726 0.012839
0.348777 0.027073 0.006467
0.451763 0.010636 0.001282
0.531482 0.007329 0.000000
0.588238 0.003900 0.000000
0.632538 0.000409 0.000000
0.666255 0.000000 0.000000
0.690149 0.000000 0.000000
0.705528 0.000000 0.000000
0.717866 0.000000 0.000000
0.727336 0.000000 0.000000
0.733554 0.000000 0.000000
0.739284 0.000000 0.000000
0.743280 0.000000 0.000000
0.747059 0.000000 0.000000
0.749638 0.000000 0.000000
0.751658 0.000000 0.000000
0.753376 0.000000 0.000000
0.754920 0.000000 0.000000
0.016171 0.017074 0.013961
0.016342 0.017111 0.013974
0.016556 0.017158 0.013989
0.016851 0.017222 0.014010
0.017282 0.017315 0.014040
0.017921 0.017453 0.014086
0.018872 0.017659 0.014153
0.021083 0.018049 0.014318
0.024321 0.018621 0.014558
0.030034 0.019603 0.014904
0.051815 0.022306 0.015490
0.087951 0.026500 0.016212
0.149627 0.031591 0.015811
0.231468 0.035331 0.013513
0.333402 0.030607 0.007669
0.435843 0.015758 0.002288
0.519339 0.011311 0.000000
0.579254 0.006018 0.000000
0.625537 0.001338 0.000000
0.661171 0.000000 0.000000
0.686444 0.000000 0.000000
0.703612 0.000000 0.000000
0.717755 0.000000 0.000000
0.728310 0.000000 0.000000
0.734528 0.000000 0.000000
0.740694 0.000000 0.000000
0.744690 0.000000 0.000000
0.748469 0.000000 0.000000
0.751480 0.000000 0.000000
0.753500 0.000000 0.000000
0.755218 0.000000 0.000000
0.756762 0.000000 0.000000
0.016520 0.018230 0.014186
0.016691 0.018267 0.014198
0.016904 0.018313 0.014213
0.017199 0.018377 0.014234
0.017631 0.018470 0.014264
0.018270 0.018609 0.014310
0.019220 0.018815 0.014377
0.020623 0.019119 0.014477
0.023861 0.019690 0.014718
0.029574 0.020672 0.015063
0.045704 0.023002 0.015578
0.081840 0.027196 0.016300
0.138135 0.032302 0.016084
0.215265 0.036789 0.014183
0.310714 0.035822 0.009442
0.412352 0.023315 0.003774
0.501421 0.017186 0.000000
0.565998 0.009144 0.000000
0.615208 0.002710 0.000000
0.653668 0.000000 0.000000
0.680977 0.000000 0.000000
0.700784 0.000000 0.000000
0.717593 0.000000 0.000000
0.728527 0.000000 0.000000
0.735966 0.000000 0.000000
0.742636 0.000000 0.000000
0.746770 0.000000 0.000000
0.750549 0.000000 0.000000
0.754002 0.000000 0.000000
0.756217 0.000000 0.000000
0.757935 0.000000 0.000000
0.759480 0.000000 0.000000
0.017030 0.019922 0.014514
0.017201 0.019959 0.014526
0.017415 0.020005 0.014541
0.017710 0.020069 0.014562
0.018141 0.020162 0.014593
0.018780 0.020301 0.014638
0.019731 0.020507 0.014705
0.021134 0.020810 0.014805
0.023188 0.021255 0.014951
0.028901 0.022237 0.015297
0.041801 0.024354 0.015771
0.072892 0.028214 0.016429
0.121309 0.033342 0.016482
0.191540 0.038923 0.015165
0.279462 0.041874 0.011636
0.377956 0.034380 0.005950
0.475186 0.025789 0.000000
0.543788 0.015289 0.000000
0.600083 0.004717 0.000000
0.641840 0.000000 0.000000
0.672973 0.000000 0.000000
0.696645 0.000000 0.000000
0.715846 0.000000 0.000000
0.728289 0.000000 0.000000
0.738071 0.000000 0.000000
0.744741 0.000000 0.000000
0.749816 0.000000 0.000000
0.753595 0.000000 0.000000
0.757047 0.000000 0.000000
0.759897 0.000000 0.000000
0.761915 0.000000 0.000000
0.763459 0.000000 0.000000
0.017833 0.023597 0.015127
0.018094 0.023672 0.015139
0.018421 0.023765 0.015155
0.018871 0.023894 0.015176
0.019306 0.023989 0.015207
0.019945 0.024127 0.015252
0.020896 0.024333 0.015320
0.022299 0.024637 0.015419
0.024353 0.025082 0.015565
0.028946 0.026112 0.015785
0.041847 0.028229 0.016260
0.063433 0.031696 0.016781
0.102660 0.037081 0.017121
0.164897 0.044145 0.016435
0.246359 0.049813 0.013754
0.338764 0.050819 0.008500
0.440415 0.041717 0.000931
0.517783 0.028623 0.000000
0.583576 0.013532 0.000000
0.629383 0.006144 0.000000
0.661986 0.005831 0.000000
0.689412 0.005492 0.000000
0.712284 0.005127 0.000000
0.729575 0.004737 0.000000
0.741574 0.004737 0.000000
0.749441 0.004418 0.000000
0.754984 0.004418 0.000000
0.759441 0.004464 0.000000
0.762893 0.004464 0.000000
0.765743 0.004464 0.000000
0.768167 0.004464 0.000000
0.770346 0.004464 0.000000
0.019266 0.034581 0.016645
0.019527 0.034655 0.016657
0.019854 0.034749 0.016672
0.020304 0.034877 0.016694
0.020963 0.035066 0.016725
0.021940 0.035345 0.016771
0.023392 0.035760 0.016840
0.025535 0.036373 0.016941
0.028012 0.036994 0.017088
0.032606 0.038024 0.017308
0.046744 0.041304 0.017663
0.067740 0.045248 0.018139
0.105564 0.051689 0.018386
0.164990 0.060619 0.017574
0.242185 0.069238 0.014817
0.335908 0.073212 0.009276
0.433601 0.070963 0.001166
0.518374 0.063755 0.000000
0.583826 0.052526 0.000000
0.635684 0.044074 0.000000
0.668506 0.041661 0.000000
0.695892 0.039241 0.000000
0.718784 0.036634 0.000000
0.737767 0.034911 0.000000
0.751115 0.033848 0.000000
0.762606 0.032080 0.000000
0.769432 0.031567 0.000000
0.773996 0.031665 0.000000
0.777754 0.031815 0.000000
0.780775 0.031898 0.000000
0.783199 0.031898 0.000000
0.785378 0.031898 0.000000
0.020649 0.053650 0.018736
0.021059 0.053773 0.018746
0.021570 0.053926 0.018759
0.022277 0.054137 0.018776
0.023310 0.054446 0.018802
0.024841 0.054903 0.018840
0.026681 0.055443 0.018903
0.028824 0.056056 0.019004
0.031962 0.056953 0.019152
0.038154 0.058595 0.019342
0.053149 0.062111 0.019623
0.075525 0.067261 0.019853
0.111795 0.074956 0.019893
0.168719 0.085553 0.018746
0.243524 0.096141 0.015719
0.335987 0.105021 0.009616
0.430192 0.108489 0.001443
0.523072 0.107239 0.000000
0.587077 0.103427 0.000000
0.641879 0.097932 0.000000
0.679575 0.093414 0.000000
0.706811 0.090130 0.000000
0.729594 0.087300 0.000000
0.748531 0.085011 0.000000
0.764182 0.082133 0.000000
0.776427 0.081013 0.000000
0.785898 0.079443 0.000000
0.793385 0.078813 0.000000
0.797875 0.078893 0.000000
0.800978 0.079017 0.000000
0.803617 0.079122 0.000000
0.805989 0.079216 0.000000
0.021494 0.088352 0.021424
0.022120 0.088514 0.021425
0.022904 0.088717 0.021427
0.023985 0.088997 0.021429
0.025566 0.089406 0.021432
0.027307 0.089902 0.021461
0.029584 0.090583 0.021517
0.032944 0.091587 0.021600
0.037864 0.093058 0.021722
0.046232 0.095378 0.021829
0.062922 0.099349 0.021933
0.087512 0.105152 0.021868
0.124685 0.113591 0.021355
0.180580 0.124995 0.019552
0.253319 0.137427 0.015639
0.344468 0.149676 0.008349
0.436696 0.157648 0.000877
0.533333 0.162256 0.000000
0.599118 0.163396 0.000000
0.654240 0.162824 0.000000
0.697205 0.161886 0.000000
0.725531 0.161313 0.000000
0.748032 0.160907 0.000000
0.766741 0.160599 0.000000
0.782254 0.160197 0.000000
0.794785 0.160055 0.000000
0.805028 0.159787 0.000000
0.813135 0.159766 0.000000
0.819087 0.159709 0.000000
0.824000 0.159661 0.000000
0.828178 0.159621 0.000000
0.831935 0.159584 0.000000
0.024553 0.139385 0.023780
0.025364 0.139567 0.023766
0.026377 0.139794 0.023747
0.027776 0.140109 0.023722
0.029821 0.140568 0.023686
0.032853 0.141249 0.023631
0.036975 0.142219 0.023583
0.042118 0.143551 0.023593
0.049649 0.145500 0.023608
0.061368 0.148448 0.023519
0.080099 0.152842 0.023158
0.105790 0.158918 0.022486
0.143906 0.167884 0.021195
0.198765 0.180012 0.018107
0.269439 0.193738 0.012805
0.357515 0.208185 0.004745
0.448932 0.219745 0.000008
0.547018 0.228977 0.000000
0.615646 0.233464 0.000000
0.669310 0.236021 0.000000
0.715991 0.237540 0.000000
0.748173 0.238564 0.000000
0.770438 0.239343 0.000000
0.788814 0.240008 0.000000
0.804033 0.240368 0.000000
0.816314 0.240879 0.000000
0.826369 0.241107 0.000000
0.834424 0.241448 0.000000
0.840931 0.241691 0.000000
0.846318 0.241812 0.000000
0.850899 0.241915 0.000000
0.855018 0.242007 0.000000
0.035211 0.206084 0.023994
0.036171 0.206282 0.023958
0.037371 0.206530 0.023913
0.039028 0.206873 0.023850
0.041449 0.207373 0.023759
0.045039 0.208116 0.023624
0.050379 0.209219 0.023422
0.058258 0.210848 0.023125
0.068948 0.213140 0.022813
0.083249 0.216377 0.022423
0.104313 0.221270 0.021230
0.132261 0.227839 0.019845
0.170204 0.236840 0.017311
0.223938 0.249168 0.012621
0.291590 0.263547 0.005232
0.376912 0.279433 0.000367
0.466024 0.293515 0.000000
0.561556 0.305934 0.000000
0.635076 0.313416 0.000000
0.687152 0.318134 0.000000
0.732583 0.321624 0.000000
0.770822 0.324272 0.000000
0.794744 0.325924 0.000000
0.812873 0.327164 0.000000
0.827820 0.328152 0.000000
0.839973 0.329177 0.000000
0.849878 0.329859 0.000000
0.857849 0.330436 0.000000
0.864274 0.330991 0.000000
0.869586 0.331426 0.000000
0.874136 0.331698 0.000000
0.878227 0.331943 0.000000
0.065308 0.287550 0.020432
0.066269 0.287747 0.020347
0.067469 0.287993 0.020241
0.069127 0.288333 0.020095
0.071555 0.288830 0.019883
0.075399 0.289613 0.019649
0.081117 0.290778 0.019301
0.089554 0.292496 0.018788
0.101907 0.295012 0.018037
0.118942 0.298546 0.016842
0.139441 0.303208 0.015110
0.167218 0.309587 0.012503
0.203778 0.318141 0.009260
0.254883 0.329920 0.003984
0.319929 0.344181 0.000000
0.401845 0.360792 0.000000
0.487230 0.375910 0.000000
0.579008 0.390083 0.000000
0.655669 0.400371 0.000000
0.706241 0.406211 0.000000
0.750333 0.411077 0.000000
0.788391 0.415141 0.000000
0.816879 0.418103 0.000000
0.836790 0.420173 0.000000
0.851500 0.421690 0.000000
0.863422 0.422950 0.000000
0.873149 0.423945 0.000000
0.880939 0.424780 0.000000
0.887267 0.425427 0.000000
0.892491 0.425961 0.000000
0.896935 0.426415 0.000000
0.900929 0.426823 0.000000
0.121032 0.380554 0.012361
0.121906 0.380741 0.012263
0.122999 0.380974 0.012139
0.124508 0.381296 0.011969
0.126713 0.381767 0.011720
0.129983 0.382466 0.011351
0.134845 0.383504 0.010802
0.142021 0.385036 0.009992
0.152526 0.387280 0.008805
0.168152 0.390578 0.007212
0.186969 0.394857 0.004726
0.212356 0.400638 0.002246
0.245322 0.408267 0.000182
0.291841 0.419014 0.000000
0.354510 0.433155 0.000000
0.433422 0.449971 0.000000
0.511714 0.465276 0.000000
0.600024 0.480864 0.000000
0.676998 0.493120 0.000000
0.725895 0.500258 0.000000
0.768624 0.506179 0.000000
0.805534 0.511039 0.000000
0.837021 0.514992 0.000000
0.858777 0.517663 0.000000
0.873530 0.519486 0.000000
0.885176 0.520937 0.000000
0.894647 0.522115 0.000000
0.902320 0.523053 0.000000
0.908486 0.523846 0.000000
0.913576 0.524502 0.000000
0.917915 0.525050 0.000000
0.921857 0.525501 0.000000
0.186550 0.471076 0.014137
0.187217 0.471217 0.014033
0.188052 0.471392 0.013902
0.189205 0.471634 0.013722
0.190889 0.471989 0.013459
0.193386 0.472514 0.013069
0.197100 0.473294 0.012488
0.202580 0.474447 0.011631
0.211690 0.476387 0.010346
0.224822 0.479204 0.008478
0.239954 0.482491 0.005905
0.261554 0.487273 0.002576
0.291127 0.493887 0.000000
0.334834 0.503663 0.000000
0.394380 0.516804 0.000000
0.463917 0.531609 0.000000
0.537296 0.546211 0.000000
0.621475 0.561830 0.000000
0.694815 0.574328 0.000000
0.741637 0.581758 0.000000
0.782855 0.588015 0.000000
0.818449 0.593262 0.000000
0.848784 0.597612 0.000000
0.872147 0.600867 0.000000
0.888773 0.603161 0.000000
0.900204 0.604772 0.000000
0.909471 0.606046 0.000000
0.916910 0.607075 0.000000
0.922882 0.607913 0.000000
0.927846 0.608600 0.000000
0.932106 0.609177 0.000000
0.935935 0.609697 0.000000
0.243071 0.553158 0.025697
0.243647 0.553280 0.025585
0.244367 0.553432 0.025445
0.245362 0.553641 0.025251
0.246816 0.553947 0.024968
0.249090 0.554429 0.024550
0.252567 0.555167 0.023930
0.257697 0.556256 0.023015
0.265208 0.557850 0.021676
0.275770 0.560097 0.019731
0.289963 0.563167 0.016982
0.309602 0.567417 0.013082
0.337143 0.573361 0.007394
0.378523 0.582331 0.000736
0.432768 0.593978 0.000000
0.492367 0.606387 0.000000
0.562904 0.620450 0.000000
0.643952 0.635760 0.000000
0.711021 0.647650 0.000000
0.756311 0.655152 0.000000
0.796085 0.661551 0.000000
0.830540 0.666973 0.000000
0.859996 0.671525 0.000000
0.883354 0.675092 0.000000
0.901337 0.677785 0.000000
0.912669 0.679518 0.000000
0.921684 0.680872 0.000000
0.928898 0.681983 0.000000
0.934781 0.682866 0.000000
0.939638 0.683595 0.000000
0.943769 0.684214 0.000000
0.947482 0.684772 0.000000
0.296561 0.613242 0.054206
0.297097 0.613354 0.054111
0.297767 0.613494 0.053993
0.298693 0.613687 0.053830
0.300046 0.613969 0.053591
0.302051 0.614387 0.053237
0.305033 0.615009 0.052710
0.309435 0.615927 0.051933
0.316237 0.617357 0.050639
0.326016 0.619416 0.048732
0.338663 0.622081 0.046246
0.356948 0.625988 0.042388
0.382541 0.631481 0.036757
0.418957 0.639275 0.028348
0.464519 0.648921 0.017770
0.518695 0.660202 0.009959
0.585988 0.673766 0.000203
0.663760 0.688740 0.000000
0.723483 0.699668 0.000000
0.766973 0.707286 0.000000
0.805523 0.713852 0.000000
0.838950 0.719419 0.000000
0.867533 0.724071 0.000000
0.890718 0.727781 0.000000
0.908984 0.730670 0.000000
0.920032 0.732439 0.000000
0.928853 0.733846 0.000000
0.935937 0.734976 0.000000
0.941624 0.735885 0.000000
0.946358 0.736637 0.000000
0.950423 0.737279 0.000000
0.954077 0.737856 0.000000
0.343443 0.665532 0.087980
0.343945 0.665635 0.087909
0.344573 0.665764 0.087820
0.345441 0.665942 0.087697
0.346708 0.666202 0.087518
0.348587 0.666588 0.087253
0.351382 0.667162 0.086858
0.355506 0.668008 0.086275
0.361544 0.669248 0.085422
0.370644 0.671142 0.083877
0.382546 0.673608 0.082060
0.399042 0.677046 0.079215
0.421028 0.681627 0.075273
0.451264 0.687892 0.069625
0.490853 0.696025 0.061967
0.542644 0.706567 0.050558
0.607341 0.719387 0.034598
0.680647 0.733371 0.018438
0.734411 0.743167 0.011808
0.776586 0.750574 0.006319
0.813888 0.756986 0.002216
0.846416 0.762457 0.000000
0.874321 0.767054 0.000000
0.896961 0.770728 0.000000
0.914969 0.773627 0.000000
0.925824 0.775384 0.000000
0.934392 0.776770 0.000000
0.941344 0.777889 0.000414
0.946928 0.778790 0.001043
0.951538 0.779534 0.001562
0.955494 0.780169 0.001790
0.959083 0.780743 0.001790
0.384724 0.710218 0.117101
0.385155 0.710305 0.117052
0.385694 0.710413 0.116991
0.386438 0.710563 0.116906
0.387525 0.710782 0.116782
0.389137 0.711107 0.116598
0.391534 0.711589 0.116325
0.395072 0.712301 0.115921
0.400252 0.713344 0.115331
0.408268 0.714979 0.114260
0.416995 0.716727 0.113261
0.430715 0.719515 0.111462
0.449274 0.723274 0.109014
0.476377 0.728744 0.105382
0.514288 0.736375 0.100023
0.564183 0.746344 0.091917
0.626804 0.758567 0.080994
0.694486 0.771349 0.067675
0.744026 0.780315 0.059604
0.785073 0.787535 0.054483
0.821451 0.793808 0.050378
0.853214 0.799175 0.047231
0.880534 0.803715 0.045112
0.902537 0.807319 0.044696
0.920002 0.810156 0.044569
0.930649 0.811890 0.046414
0.939042 0.813256 0.047724
0.945863 0.814365 0.048567
0.951346 0.815259 0.049848
0.955871 0.815996 0.050906
0.959746 0.816625 0.051643
0.963271 0.817194 0.052039
0.414789 0.746828 0.142699
0.415135 0.746896 0.142669
0.415567 0.746981 0.142631
0.416165 0.747098 0.142578
0.417038 0.747269 0.142501
0.418332 0.747522 0.142387
0.420257 0.747899 0.142217
0.423098 0.748455 0.141966
0.427651 0.749358 0.141513
0.434781 0.750786 0.140731
0.443069 0.752414 0.139977
0.455051 0.754792 0.138722
0.472052 0.758164 0.136945
0.498123 0.763336 0.134162
0.534692 0.770571 0.130119
0.583134 0.780108 0.124030
0.644093 0.791857 0.115966
0.705854 0.803389 0.107688
0.752308 0.811747 0.102608
0.792385 0.818786 0.099451
0.828076 0.824943 0.096796
0.859236 0.830228 0.094889
0.885976 0.834694 0.093722
0.907310 0.838209 0.093123
0.924183 0.840963 0.093196
0.934602 0.842669 0.094582
0.942887 0.844023 0.096038
0.949583 0.845116 0.097291
0.954968 0.845996 0.098258
0.959420 0.846723 0.099075
0.963270 0.847350 0.099975
0.966730 0.847914 0.100783
0.438208 0.772750 0.165693
0.438532 0.772815 0.165670
0.438937 0.772895 0.165642
0.439496 0.773007 0.165603
0.440314 0.773169 0.165546
0.441526 0.773411 0.165461
0.443328 0.773770 0.165335
0.446126 0.774320 0.165100
0.450285 0.775134 0.164733
0.456193 0.776296 0.164232
0.464197 0.777885 0.163586
0.475582 0.780139 0.162628
0.491983 0.783380 0.161177
0.517082 0.788362 0.158962
0.552665 0.795400 0.155593
0.599600 0.804604 0.150873
0.659113 0.816075 0.144443
0.716012 0.826745 0.138784
0.759141 0.834557 0.135897
0.798457 0.841575 0.133775
0.833510 0.847696 0.132154
0.864135 0.852970 0.131096
0.890466 0.857438 0.130341
0.910874 0.860877 0.130246
0.927280 0.863563 0.130623
0.937490 0.865292 0.131675
0.945686 0.866635 0.132918
0.952253 0.867736 0.133818
0.957566 0.868633 0.134562
0.962012 0.869360 0.135360
0.965793 0.869978 0.136039
0.969192 0.870533 0.136649
0.457433 0.790542 0.185811
0.457757 0.790606 0.185789
0.458162 0.790687 0.185760
0.458721 0.790798 0.185721
0.459539 0.790961 0.185664
0.460750 0.791202 0.185579
0.462553 0.791561 0.185453
0.465212 0.792091 0.185267
0.469107 0.792866 0.184995
0.474764 0.793992 0.184584
0.482542 0.795550 0.184025
0.493541 0.797751 0.183214
0.509307 0.800908 0.182033
0.533686 0.805788 0.180154
0.568154 0.812666 0.177402
0.613800 0.821700 0.173540
0.671853 0.832992 0.168366
0.722635 0.842628 0.164716
0.764831 0.850466 0.162659
0.803463 0.857521 0.161189
0.837865 0.863702 0.160197
0.868016 0.869030 0.159583
0.894015 0.873531 0.159003
0.914196 0.876989 0.158963
0.929457 0.879598 0.159323
0.939628 0.881335 0.160280
0.947657 0.882714 0.161107
0.954178 0.883825 0.161893
0.959461 0.884728 0.162548
0.963823 0.885474 0.163089
0.967532 0.886109 0.163549
0.970883 0.886676 0.164011
0.473418 0.804619 0.201705
0.473722 0.804679 0.201688
0.474102 0.804754 0.201666
0.474627 0.804857 0.201636
0.475394 0.805007 0.201592
0.476530 0.805230 0.201527
0.478221 0.805562 0.201430
0.480752 0.806060 0.201278
0.484646 0.806836 0.201006
0.490184 0.807935 0.200633
0.497623 0.809404 0.200173
0.508330 0.811532 0.199456
0.523705 0.814589 0.198406
0.547376 0.819281 0.196781
0.581008 0.825927 0.194361
0.625755 0.834719 0.190928
0.680711 0.845318 0.186593
0.728005 0.854229 0.183775
0.769563 0.861919 0.181988
0.807505 0.868802 0.180752
0.841494 0.874887 0.179875
0.871252 0.880124 0.179360
0.896861 0.884557 0.179033
0.916162 0.887870 0.179176
0.931207 0.890441 0.179580
0.941079 0.892129 0.180496
0.949107 0.893507 0.181323
0.955530 0.894606 0.182037
0.960690 0.895486 0.182647
0.965044 0.896231 0.183185
0.968754 0.896866 0.183645
0.972089 0.897436 0.184058
0.486438 0.816033 0.214589
0.486742 0.816092 0.214572
0.487122 0.816167 0.214550
0.487647 0.816270 0.214520
0.488413 0.816420 0.214476
0.489550 0.816644 0.214411
0.491241 0.816976 0.214314
0.493737 0.817465 0.214171
0.497390 0.818182 0.213962
0.502808 0.819253 0.213621
0.510127 0.820691 0.213196
0.520587 0.822754 0.212552
0.535578 0.825707 0.211621
0.558813 0.830279 0.210141
0.591755 0.836732 0.207982
0.635662 0.845281 0.204907
0.688025 0.855281 0.201292
0.732637 0.863634 0.199020
0.773544 0.871151 0.197473
0.811040 0.877915 0.196382
0.844518 0.883865 0.195634
0.873934 0.889013 0.195185
0.899330 0.893399 0.194963
0.918459 0.896678 0.195213
0.932558 0.899085 0.195813
0.942430 0.900773 0.196729
0.950262 0.902111 0.197520
0.956685 0.903210 0.198234
0.961845 0.904090 0.198844
0.966105 0.904817 0.199348
0.969728 0.905435 0.199776
0.973056 0.906004 0.200187
0.497048 0.825138 0.224624
0.497334 0.825193 0.224611
0.497692 0.825262 0.224594
0.498185 0.825357 0.224572
0.498906 0.825497 0.224538
0.500006 0.825711 0.224482
0.501697 0.826043 0.224385
0.504192 0.826532 0.224242
0.507846 0.827249 0.224033
0.513046 0.828267 0.223748
0.520288 0.829687 0.223343
0.530460 0.831676 0.222777
0.545152 0.834551 0.221938
0.568007 0.839020 0.220578
0.600553 0.845367 0.218561
0.643420 0.853648 0.215828
0.693839 0.863239 0.212574
0.736389 0.871149 0.210800
