astoria-game/Assets/Environment/Maps/LUTs/Grade6.CUBE
#Created by: Adobe Photoshop Export Color Lookup Plugin
TITLE "Frame.psd"
#LUT size
LUT_3D_SIZE 32
#data domain
DOMAIN_MIN 0.0 0.0 0.0
DOMAIN_MAX 1.0 1.0 1.0
#LUT data points
0.005274 0.003298 0.003178
0.005354 0.003307 0.003185
0.005455 0.003318 0.003194
0.005600 0.003334 0.003207
0.005810 0.003358 0.003225
0.006129 0.003393 0.003253
0.006609 0.003447 0.003296
0.007327 0.003527 0.003359
0.008396 0.003647 0.003453
0.018845 0.004377 0.003812
0.040384 0.005561 0.004299
0.106535 0.007384 0.004443
0.220770 0.005741 0.002884
0.375611 0.000265 0.000000
0.507528 0.000087 0.000000
0.583383 0.000100 0.000000
0.632835 0.000108 0.000000
0.662166 0.000113 0.000000
0.685176 0.000117 0.000000
0.705410 0.000121 0.000000
0.716769 0.000123 0.000000
0.724804 0.000124 0.000000
0.731200 0.000125 0.000000
0.736469 0.000126 0.000000
0.740661 0.000127 0.000000
0.744370 0.000127 0.000000
0.747532 0.000128 0.000000
0.750001 0.000128 0.000000
0.751933 0.000129 0.000000
0.753477 0.000129 0.000000
0.754749 0.000129 0.000000
0.755851 0.000129 0.000000
0.005270 0.003389 0.003191
0.005335 0.003391 0.003195
0.005436 0.003403 0.003204
0.005581 0.003419 0.003217
0.005791 0.003443 0.003235
0.006110 0.003478 0.003264
0.006590 0.003532 0.003306
0.007308 0.003612 0.003369
0.008377 0.003732 0.003463
0.018582 0.004466 0.003817
0.039383 0.005678 0.004308
0.105196 0.007599 0.004465
0.218707 0.006157 0.002934
0.373351 0.000692 0.000000
0.505778 0.000124 0.000000
0.582756 0.000100 0.000000
0.632895 0.000108 0.000000
0.662608 0.000113 0.000000
0.685723 0.000117 0.000000
0.706020 0.000121 0.000000
0.717618 0.000123 0.000000
0.725846 0.000124 0.000000
0.732286 0.000125 0.000000
0.737556 0.000126 0.000000
0.741747 0.000127 0.000000
0.745451 0.000128 0.000000
0.748613 0.000128 0.000000
0.751082 0.000129 0.000000
0.753013 0.000129 0.000000
0.754558 0.000129 0.000000
0.755830 0.000129 0.000000
0.756932 0.000130 0.000000
0.005266 0.003503 0.003208
0.005331 0.003506 0.003212
0.005413 0.003509 0.003217
0.005557 0.003526 0.003230
0.005768 0.003549 0.003248
0.006087 0.003585 0.003276
0.006566 0.003639 0.003319
0.007285 0.003719 0.003382
0.008353 0.003839 0.003476
0.018250 0.004579 0.003822
0.038125 0.005826 0.004320
0.103571 0.007852 0.004491
0.216117 0.006679 0.002998
0.370513 0.001229 0.000000
0.503579 0.000171 0.000000
0.581968 0.000100 0.000000
0.632971 0.000108 0.000000
0.663164 0.000114 0.000000
0.686411 0.000118 0.000000
0.706786 0.000121 0.000000
0.718685 0.000123 0.000000
0.727154 0.000124 0.000000
0.733604 0.000126 0.000000
0.738921 0.000126 0.000000
0.743112 0.000127 0.000000
0.746809 0.000128 0.000000
0.749971 0.000128 0.000000
0.752440 0.000129 0.000000
0.754371 0.000129 0.000000
0.755916 0.000129 0.000000
0.757188 0.000130 0.000000
0.758290 0.000130 0.000000
0.005260 0.003666 0.003232
0.005325 0.003669 0.003236
0.005406 0.003673 0.003241
0.005523 0.003678 0.003248
0.005734 0.003701 0.003266
0.006053 0.003737 0.003295
0.006532 0.003791 0.003337
0.007251 0.003871 0.003400
0.008319 0.003991 0.003494
0.017778 0.004739 0.003830
0.036330 0.006038 0.004336
0.101776 0.008063 0.004507
0.212418 0.007425 0.003088
0.366461 0.001994 0.000000
0.500441 0.000237 0.000000
0.580843 0.000099 0.000000
0.633080 0.000108 0.000000
0.663957 0.000114 0.000000
0.687393 0.000118 0.000000
0.707879 0.000121 0.000000
0.720207 0.000123 0.000000
0.729023 0.000125 0.000000
0.735472 0.000126 0.000000
0.740869 0.000127 0.000000
0.745061 0.000128 0.000000
0.748747 0.000128 0.000000
0.751909 0.000129 0.000000
0.754378 0.000129 0.000000
0.756310 0.000129 0.000000
0.757854 0.000130 0.000000
0.759126 0.000130 0.000000
0.760228 0.000130 0.000000
0.005251 0.003904 0.003267
0.005316 0.003907 0.003271
0.005397 0.003910 0.003276
0.005514 0.003915 0.003283
0.005684 0.003923 0.003293
0.006003 0.003959 0.003321
0.006482 0.004012 0.003363
0.007201 0.004093 0.003427
0.008270 0.004213 0.003521
0.017089 0.004973 0.003841
0.035285 0.006285 0.004349
0.099162 0.008370 0.004531
0.207033 0.008511 0.003220
0.360561 0.003110 0.000000
0.495871 0.000334 0.000000
0.579205 0.000099 0.000000
0.633238 0.000108 0.000000
0.665111 0.000114 0.000000
0.688823 0.000118 0.000000
0.709471 0.000121 0.000000
0.722424 0.000124 0.000000
0.731744 0.000125 0.000000
0.738193 0.000126 0.000000
0.743706 0.000127 0.000000
0.747898 0.000128 0.000000
0.751570 0.000129 0.000000
0.754732 0.000129 0.000000
0.757200 0.000130 0.000000
0.759132 0.000130 0.000000
0.760677 0.000130 0.000000
0.761949 0.000130 0.000000
0.763051 0.000131 0.000000
0.005237 0.004264 0.003320
0.005302 0.004267 0.003324
0.005384 0.004270 0.003329
0.005500 0.004276 0.003336
0.005670 0.004283 0.003346
0.005928 0.004295 0.003361
0.006407 0.004349 0.003404
0.007126 0.004429 0.003467
0.008195 0.004549 0.003561
0.016046 0.005328 0.003859
0.034241 0.006640 0.004367
0.095198 0.008837 0.004566
0.198867 0.010157 0.003420
0.351615 0.004801 0.000000
0.488942 0.000482 0.000000
0.576722 0.000099 0.000000
0.633478 0.000108 0.000000
0.666862 0.000114 0.000000
0.690991 0.000118 0.000000
0.711884 0.000122 0.000000
0.725786 0.000124 0.000000
0.735869 0.000126 0.000000
0.742319 0.000127 0.000000
0.748009 0.000128 0.000000
0.752200 0.000129 0.000000
0.755872 0.000129 0.000000
0.759012 0.000130 0.000000
0.761480 0.000130 0.000000
0.763412 0.000131 0.000000
0.764956 0.000131 0.000000
0.766228 0.000131 0.000000
0.767331 0.000131 0.000000
0.005216 0.004805 0.003399
0.005282 0.004808 0.003403
0.005363 0.004811 0.003408
0.005480 0.004817 0.003415
0.005650 0.004824 0.003425
0.005908 0.004836 0.003441
0.006294 0.004853 0.003464
0.007013 0.004934 0.003527
0.008082 0.005053 0.003622
0.014479 0.005860 0.003884
0.032674 0.007172 0.004393
0.089246 0.009537 0.004620
0.189916 0.011709 0.003593
0.338182 0.007340 0.000000
0.478538 0.000703 0.000000
0.572993 0.000098 0.000000
0.633837 0.000109 0.000000
0.669491 0.000115 0.000000
0.694247 0.000119 0.000000
0.715508 0.000122 0.000000
0.730834 0.000125 0.000000
0.742064 0.000127 0.000000
0.748514 0.000128 0.000000
0.754469 0.000129 0.000000
0.758660 0.000130 0.000000
0.762332 0.000131 0.000000
0.765441 0.000131 0.000000
0.767907 0.000131 0.000000
0.769839 0.000132 0.000000
0.771383 0.000132 0.000000
0.772655 0.000132 0.000000
0.773757 0.000132 0.000000
0.005186 0.005616 0.003518
0.005251 0.005619 0.003522
0.005333 0.005623 0.003527
0.005449 0.005628 0.003534
0.005619 0.005636 0.003544
0.005877 0.005647 0.003560
0.006264 0.005665 0.003583
0.006844 0.005691 0.003618
0.007913 0.005811 0.003712
0.014105 0.006621 0.003970
0.030323 0.007971 0.004431
0.080317 0.010588 0.004700
0.177975 0.013623 0.003794
0.318030 0.011149 0.000393
0.462930 0.001034 0.000000
0.567398 0.000097 0.000000
0.634377 0.000109 0.000000
0.672701 0.000115 0.000000
0.699130 0.000120 0.000000
0.720945 0.000123 0.000000
0.738407 0.000126 0.000000
0.749959 0.000128 0.000000
0.757807 0.000130 0.000000
0.763928 0.000131 0.000000
0.768351 0.000132 0.000000
0.772023 0.000132 0.000000
0.775132 0.000133 0.000000
0.777559 0.000133 0.000000
0.779479 0.000133 0.000000
0.781024 0.000134 0.000000
0.782296 0.000134 0.000000
0.783398 0.000134 0.000000
0.005140 0.006823 0.003695
0.005205 0.006826 0.003699
0.005287 0.006830 0.003704
0.005404 0.006835 0.003711
0.005573 0.006842 0.003721
0.005831 0.006854 0.003737
0.006218 0.006871 0.003760
0.006798 0.006897 0.003795
0.007661 0.006936 0.003847
0.013854 0.007747 0.004105
0.026828 0.009158 0.004489
0.067042 0.012150 0.004819
0.160221 0.016469 0.004094
0.288668 0.016778 0.001056
0.436231 0.003311 0.000000
0.558100 0.000096 0.000000
0.632799 0.000108 0.000000
0.677297 0.000116 0.000000
0.705569 0.000121 0.000000
0.728754 0.000125 0.000000
0.747487 0.000128 0.000000
0.761217 0.000130 0.000000
0.771622 0.000132 0.000000
0.777744 0.000133 0.000000
0.782614 0.000134 0.000000
0.786430 0.000135 0.000000
0.789539 0.000135 0.000000
0.791966 0.000136 0.000000
0.793866 0.000136 0.000000
0.795384 0.000136 0.000000
0.796635 0.000136 0.000000
0.797730 0.000137 0.000000
0.003196 0.014402 0.004017
0.003287 0.014380 0.004020
0.003402 0.014353 0.004025
0.003567 0.014315 0.004032
0.003806 0.014260 0.004041
0.004168 0.014175 0.004056
0.004712 0.014049 0.004077
0.005315 0.014054 0.004112
0.006178 0.014093 0.004164
0.013440 0.015667 0.004340
0.025844 0.017444 0.004681
0.064096 0.021763 0.004919
0.154542 0.030130 0.004008
0.277989 0.035186 0.000916
0.430943 0.029198 0.000000
0.564433 0.019476 0.000000
0.641445 0.012851 0.000000
0.694026 0.006430 0.000000
0.722349 0.005152 0.000000
0.745506 0.004142 0.000000
0.764085 0.003429 0.000000
0.778913 0.003027 0.000000
0.789864 0.003055 0.000000
0.797954 0.003413 0.000000
0.802824 0.003414 0.000000
0.806572 0.004201 0.000000
0.809455 0.005309 0.000000
0.811850 0.005465 0.000000
0.813750 0.005466 0.000000
0.815268 0.005466 0.000000
0.816519 0.005466 0.000000
0.817603 0.005466 0.000000
0.000618 0.027676 0.004379
0.000618 0.027663 0.004383
0.000618 0.027648 0.004388
0.000619 0.027625 0.004396
0.000814 0.027574 0.004405
0.001176 0.027489 0.004420
0.001720 0.027363 0.004442
0.002537 0.027173 0.004474
0.003751 0.026890 0.004523
0.010593 0.028746 0.004672
0.024737 0.031973 0.004873
0.062801 0.038335 0.004932
0.150798 0.050228 0.003739
0.270056 0.063150 0.000328
0.429299 0.068198 0.000000
0.572712 0.055884 0.000000
0.656432 0.041528 0.000000
0.714271 0.029661 0.000000
0.747263 0.024025 0.000000
0.770047 0.021515 0.000000
0.788253 0.020103 0.000000
0.802841 0.019366 0.000000
0.814616 0.018866 0.000000
0.823178 0.019280 0.000000
0.829895 0.019616 0.000000
0.834628 0.020237 0.000000
0.837511 0.021345 0.000000
0.839761 0.022210 0.000000
0.841523 0.022887 0.000000
0.842930 0.023428 0.000000
0.844090 0.023874 0.000000
0.845095 0.024260 0.000000
0.000862 0.056294 0.004059
0.000862 0.056320 0.004063
0.000863 0.056346 0.004067
0.000863 0.056324 0.004074
0.000864 0.056291 0.004084
0.000865 0.056242 0.004100
0.000866 0.056167 0.004124
0.000868 0.056056 0.004160
0.000871 0.055890 0.004212
0.005544 0.058788 0.004272
0.017224 0.063788 0.004312
0.057686 0.073488 0.004025
0.148679 0.089699 0.002263
0.267751 0.108167 0.000000
0.431689 0.124277 0.000000
0.578980 0.128199 0.000000
0.676286 0.125068 0.000000
0.736482 0.121287 0.000000
0.775861 0.118767 0.000000
0.799028 0.118142 0.000000
0.816705 0.118099 0.000000
0.830816 0.118293 0.000000
0.842154 0.118535 0.000000
0.851277 0.118925 0.000000
0.858534 0.119220 0.000000
0.863765 0.119679 0.000000
0.867353 0.120200 0.000000
0.870154 0.120607 0.000000
0.872346 0.120925 0.000000
0.874099 0.121180 0.000000
0.875542 0.121389 0.000000
0.876793 0.121571 0.000000
0.001160 0.101290 0.002507
0.001160 0.101371 0.002506
0.001161 0.101472 0.002506
0.001163 0.101617 0.002504
0.001164 0.101828 0.002503
0.001167 0.102148 0.002500
0.001171 0.102378 0.002514
0.001175 0.102612 0.002543
0.001182 0.102959 0.002587
0.001205 0.106991 0.002405
0.004021 0.113126 0.002163
0.041724 0.124143 0.001263
0.142897 0.143716 0.000000
0.265776 0.166672 0.000000
0.429329 0.191125 0.000000
0.581180 0.205440 0.000000
0.696190 0.210747 0.000000
0.756725 0.212038 0.000000
0.803685 0.212399 0.000000
0.830655 0.212963 0.000000
0.848175 0.213667 0.000000
0.862185 0.214385 0.000000
0.873394 0.215076 0.000000
0.882369 0.215691 0.000000
0.889632 0.216292 0.000000
0.895200 0.216697 0.000000
0.899465 0.217051 0.000000
0.902791 0.217410 0.000000
0.905394 0.217690 0.000000
0.907474 0.217914 0.000000
0.909188 0.218099 0.000000
0.910673 0.218259 0.000000
0.001380 0.152623 0.000000
0.001380 0.152733 0.000000
0.001381 0.152871 0.000000
0.001382 0.153069 0.000000
0.001383 0.153357 0.000000
0.001386 0.153793 0.000000
0.001389 0.154448 0.000000
0.001394 0.155431 0.000000
0.001402 0.156804 0.000000
0.001412 0.161222 0.000000
0.001741 0.168343 0.000000
0.011947 0.180537 0.000000
0.128306 0.201663 0.000000
0.258630 0.228106 0.000000
0.418204 0.257481 0.000000
0.577975 0.279795 0.000000
0.707293 0.292139 0.000000
0.770236 0.296246 0.000000
0.818033 0.298870 0.000000
0.854834 0.300586 0.000000
0.873742 0.301654 0.000000
0.887813 0.302599 0.000000
0.899083 0.303408 0.000000
0.907923 0.304168 0.000000
0.914955 0.304772 0.000000
0.920443 0.305207 0.000000
0.924708 0.305618 0.000000
0.928038 0.305938 0.000000
0.930643 0.306189 0.000000
0.932726 0.306390 0.000000
0.934442 0.306529 0.000000
0.935930 0.306624 0.000000
0.001792 0.226284 0.000000
0.001794 0.226552 0.000000
0.001797 0.226888 0.000000
0.001800 0.227369 0.000000
0.001806 0.228068 0.000000
0.001814 0.229129 0.000000
0.001827 0.230722 0.000000
0.001846 0.233111 0.000000
0.001869 0.236089 0.000000
0.001917 0.242160 0.000000
0.001989 0.251213 0.000000
0.004593 0.266180 0.000000
0.093785 0.290653 0.000000
0.250288 0.321683 0.000000
0.413078 0.357603 0.000000
0.583972 0.389764 0.000000
0.716300 0.409543 0.000000
0.793355 0.418981 0.000000
0.841607 0.424270 0.000000
0.880098 0.428153 0.000000
0.909085 0.430996 0.000000
0.925028 0.432516 0.000000
0.936327 0.433624 0.000000
0.945093 0.434556 0.000000
0.952069 0.435280 0.000000
0.957498 0.435853 0.000000
0.961710 0.436325 0.000000
0.964998 0.436694 0.000000
0.967572 0.436983 0.000000
0.969634 0.437205 0.000000
0.971336 0.437382 0.000000
0.972810 0.437536 0.000000
0.002393 0.302171 0.000000
0.002395 0.302525 0.000000
0.002399 0.302970 0.000000
0.002404 0.303605 0.000000
0.002411 0.304530 0.000000
0.002422 0.305932 0.000000
0.002439 0.308037 0.000000
0.002464 0.311195 0.000000
0.002500 0.315719 0.000000
0.002555 0.322652 0.000000
0.002636 0.332936 0.000000
0.002772 0.350028 0.000000
0.049964 0.376120 0.000000
0.238100 0.409324 0.000000
0.407288 0.449359 0.000000
0.584704 0.488690 0.000000
0.715484 0.513436 0.000000
0.808441 0.528656 0.000000
0.856338 0.535704 0.000000
0.894908 0.541073 0.000000
0.925710 0.545311 0.000000
0.947782 0.548291 0.000000
0.963114 0.550354 0.000000
0.972136 0.551666 0.000000
0.979309 0.552700 0.000000
0.984827 0.553453 0.000000
0.989107 0.554085 0.000000
0.992449 0.554578 0.000000
0.995064 0.554964 0.000000
0.997154 0.555272 0.000000
0.998881 0.555509 0.000000
1.000000 0.555709 0.000000
0.002928 0.369825 0.000000
0.002931 0.370193 0.000000
0.002935 0.370657 0.000000
0.002940 0.371318 0.000000
0.002948 0.372281 0.000000
0.002959 0.373741 0.000000
0.002977 0.375934 0.000000
0.003003 0.379223 0.000000
0.003042 0.384140 0.000000
0.003106 0.392252 0.000000
0.003198 0.403908 0.000000
0.003331 0.420630 0.000000
0.042449 0.446381 0.000000
0.229180 0.478938 0.000000
0.404697 0.519994 0.000000
0.584296 0.562022 0.000000
0.712756 0.589044 0.000000
0.811419 0.607626 0.000000
0.863399 0.616648 0.000000
0.901835 0.623021 0.000000
0.932518 0.627945 0.000000
0.957104 0.631783 0.000000
0.976303 0.634736 0.000000
0.986550 0.636324 0.000000
0.994572 0.637564 0.000000
1.000000 0.638415 0.000000
1.000000 0.639083 0.000000
1.000000 0.639605 0.000000
1.000000 0.640014 0.000000
1.000000 0.640340 0.000000
1.000000 0.640601 0.000000
1.000000 0.640828 0.000000
0.003373 0.425977 0.000000
0.003377 0.426418 0.000000
0.003381 0.426972 0.000000
0.003387 0.427764 0.000000
0.003396 0.428916 0.000000
0.003410 0.430663 0.000000
0.003431 0.433287 0.000000
0.003460 0.437025 0.000000
0.003504 0.442535 0.000000
0.003567 0.450449 0.000000
0.003658 0.461997 0.000000
0.003790 0.478576 0.000000
0.038647 0.503592 0.000000
0.224302 0.535496 0.000000
0.406435 0.577460 0.000000
0.586448 0.621043 0.000000
0.713415 0.649246 0.000000
0.813970 0.669697 0.000000
0.869051 0.679951 0.000000
0.906955 0.686724 0.000000
0.937442 0.692033 0.000000
0.961795 0.696262 0.000000
0.981274 0.699466 0.000000
0.994753 0.701864 0.000000
1.000000 0.703400 0.000000
1.000000 0.704505 0.000000
1.000000 0.705307 0.000000
1.000000 0.705865 0.000000
1.000000 0.706285 0.000000
1.000000 0.706620 0.000000
1.000000 0.706896 0.000000
1.000000 0.707136 0.000000
0.003695 0.466665 0.000000
0.003698 0.467078 0.000000
0.003703 0.467598 0.000000
0.003708 0.468339 0.000000
0.003717 0.469419 0.000000
0.003730 0.471057 0.000000
0.003749 0.473516 0.000000
0.003779 0.477205 0.000000
0.003824 0.482905 0.000000
0.003885 0.490612 0.000000
0.003973 0.501760 0.000000
0.004100 0.517837 0.000000
0.040806 0.541744 0.000000
0.227436 0.572315 0.000000
0.411044 0.614648 0.000000
0.588748 0.658705 0.000000
0.713768 0.687889 0.000000
0.814191 0.709499 0.000000
0.871775 0.721362 0.000000
0.909367 0.728891 0.000000
0.939829 0.734920 0.000000
0.964103 0.739542 0.000000
0.983528 0.743198 0.000000
0.998554 0.746088 0.000000
1.000000 0.748286 0.000000
1.000000 0.749596 0.000000
1.000000 0.750474 0.000000
1.000000 0.751159 0.000000
1.000000 0.751696 0.000000
1.000000 0.752102 0.000000
1.000000 0.752424 0.000000
1.000000 0.752704 0.000000
0.003950 0.498889 0.000000
0.003953 0.499283 0.000000
0.003957 0.499777 0.000000
0.003963 0.500482 0.000000
0.003971 0.501509 0.000000
0.003983 0.503066 0.000000
0.004002 0.505404 0.000000
0.004030 0.508912 0.000000
0.004072 0.514216 0.000000
0.004130 0.521572 0.000000
0.004214 0.532193 0.000000
0.004334 0.547361 0.000000
0.044042 0.569352 0.000000
0.235164 0.598617 0.000000
0.417597 0.640281 0.000000
0.591322 0.683505 0.000000
0.714380 0.712973 0.000000
0.814458 0.735318 0.000000
0.873084 0.747877 0.000000
0.910216 0.755647 0.000000
0.940464 0.761824 0.000000
0.964564 0.766667 0.000000
0.983839 0.770499 0.000000
0.999211 0.773501 0.000000
1.000000 0.775883 0.000000
1.000000 0.777358 0.000000
1.000000 0.778305 0.000000
1.000000 0.779045 0.000000
1.000000 0.779623 0.000000
1.000000 0.780086 0.000000
1.000000 0.780443 0.000000
1.000000 0.780749 0.000000
0.004160 0.525381 0.000000
0.004163 0.525759 0.000000
0.004167 0.526233 0.000000
0.004172 0.526909 0.000000
0.004180 0.527895 0.000000
0.004192 0.529389 0.000000
0.004210 0.531632 0.000000
0.004236 0.534998 0.000000
0.004277 0.540146 0.000000
0.004332 0.547115 0.000000
0.004413 0.557299 0.000000
0.004527 0.571764 0.000000
0.048223 0.591918 0.000000
0.246243 0.620998 0.000000
0.424406 0.661761 0.000000
0.594380 0.704224 0.000000
0.715798 0.733471 0.000000
0.815379 0.755949 0.000000
0.874243 0.768715 0.000000
0.911006 0.776496 0.000000
0.940948 0.782713 0.000000
0.964868 0.787575 0.000000
0.983989 0.791426 0.000000
0.999203 0.794451 0.000000
1.000000 0.796851 0.000000
1.000000 0.798429 0.000000
1.000000 0.799478 0.000000
1.000000 0.800297 0.000000
1.000000 0.800937 0.000000
1.000000 0.801405 0.000000
1.000000 0.801786 0.000000
1.000000 0.802116 0.000000
0.004334 0.547351 0.000000
0.004337 0.547711 0.000000
0.004341 0.548163 0.000000
0.004346 0.548809 0.000000
0.004353 0.549750 0.000000
0.004364 0.551176 0.000000
0.004381 0.553318 0.000000
0.004408 0.556655 0.000000
0.004447 0.561659 0.000000
0.004500 0.568308 0.000000
0.004577 0.578072 0.000000
0.004685 0.591731 0.000000
0.052402 0.610924 0.000000
0.257710 0.640219 0.000000
0.430934 0.679810 0.000000
0.597453 0.721378 0.000000
0.717477 0.750378 0.000000
0.816452 0.772858 0.000000
0.875375 0.785711 0.000000
0.911793 0.793491 0.000000
0.941499 0.799706 0.000000
0.965217 0.804600 0.000000
0.984243 0.808459 0.000000
0.999315 0.811493 0.000000
1.000000 0.813899 0.000000
1.000000 0.815552 0.000000
1.000000 0.816695 0.000000
1.000000 0.817535 0.000000
1.000000 0.818176 0.000000
1.000000 0.818688 0.000000
1.000000 0.819109 0.000000
1.000000 0.819475 0.000000
0.004477 0.565338 0.000000
0.004479 0.565677 0.000000
0.004483 0.566125 0.000000
0.004488 0.566771 0.000000
0.004495 0.567711 0.000000
0.004507 0.569138 0.000000
0.004524 0.571279 0.000000
0.004549 0.574492 0.000000
0.004587 0.579268 0.000000
0.004639 0.585849 0.000000
0.004713 0.595194 0.000000
0.005094 0.607913 0.000000
0.053006 0.626680 0.000000
0.267322 0.656124 0.000000
0.436588 0.694704 0.000000
0.600278 0.735403 0.000000
0.719050 0.764110 0.000000
0.817375 0.786518 0.000000
0.876365 0.799477 0.000000
0.912499 0.807258 0.000000
0.942020 0.813475 0.000000
0.965626 0.818370 0.000000
0.984506 0.822255 0.000000
0.999560 0.825290 0.000000
1.000000 0.827704 0.000000
1.000000 0.829374 0.000000
1.000000 0.830517 0.000000
1.000000 0.831409 0.000000
1.000000 0.832107 0.000000
1.000000 0.832666 0.000000
1.000000 0.833125 0.000000
1.000000 0.833524 0.000000
0.004594 0.580163 0.000000
0.004597 0.580501 0.000000
0.004600 0.580926 0.000000
0.004605 0.581533 0.000000
0.004612 0.582417 0.000000
0.004622 0.583757 0.000000
0.004638 0.585769 0.000000
0.004663 0.588900 0.000000
0.004701 0.593676 0.000000
0.004749 0.599796 0.000000
0.004822 0.608926 0.000000
0.005406 0.621003 0.000000
0.059378 0.639371 0.000000
0.273711 0.668550 0.000000
0.441662 0.706665 0.000000
0.602503 0.746554 0.000000
0.720519 0.775103 0.000000
0.818378 0.797482 0.000000
0.877155 0.810432 0.000000
0.913096 0.818208 0.000000
0.942435 0.824430 0.000000
0.965928 0.829337 0.000000
0.984794 0.833223 0.000000
0.999713 0.836319 0.000000
1.000000 0.838733 0.000000
1.000000 0.840472 0.000000
1.000000 0.841732 0.000000
1.000000 0.842677 0.000000
1.000000 0.843376 0.000000
1.000000 0.843934 0.000000
1.000000 0.844394 0.000000
1.000000 0.844792 0.000000
0.004687 0.591956 0.000000
0.004690 0.592294 0.000000
0.004693 0.592719 0.000000
0.004698 0.593326 0.000000
0.004705 0.594210 0.000000
0.004716 0.595550 0.000000
0.004732 0.597562 0.000000
0.004756 0.600580 0.000000
0.004792 0.605138 0.000000
0.004840 0.611258 0.000000
0.004909 0.619956 0.000000
0.005488 0.631426 0.000000
0.063021 0.649586 0.000000
0.278793 0.678434 0.000000
0.445821 0.716233 0.000000
0.604348 0.755446 0.000000
0.721726 0.783854 0.000000
0.819240 0.806182 0.000000
0.877831 0.819150 0.000000
0.913583 0.826919 0.000000
0.942820 0.833143 0.000000
0.966258 0.838051 0.000000
0.985023 0.841949 0.000000
0.999942 0.845045 0.000000
1.000000 0.847507 0.000000
1.000000 0.849246 0.000000
1.000000 0.850506 0.000000
1.000000 0.851490 0.000000
1.000000 0.852260 0.000000
1.000000 0.852876 0.000000
1.000000 0.853358 0.000000
1.000000 0.853756 0.000000
0.004761 0.601237 0.000000
0.004763 0.601552 0.000000
0.004766 0.601947 0.000000
0.004771 0.602511 0.000000
0.004777 0.603333 0.000000
0.004788 0.604673 0.000000
0.004804 0.606685 0.000000
0.004828 0.609703 0.000000
0.004863 0.614191 0.000000
0.004909 0.619940 0.000000
0.004976 0.628431 0.000000
0.007592 0.639635 0.000000
0.068214 0.657693 0.000000
0.283493 0.686293 0.000000
0.449282 0.723796 0.000000
0.606318 0.762562 0.000000
0.722868 0.790757 0.000000
0.819914 0.813016 0.000000
0.878409 0.826003 0.000000
0.914042 0.833785 0.000000
0.943169 0.840027 0.000000
0.966516 0.844961 0.000000
0.985238 0.848865 0.000000
1.000000 0.851969 0.000000
1.000000 0.854431 0.000000
1.000000 0.856239 0.000000
1.000000 0.857499 0.000000
1.000000 0.858483 0.000000
1.000000 0.859253 0.000000
1.000000 0.859869 0.000000
1.000000 0.860376 0.000000
1.000000 0.860815 0.000000
0.004818 0.608509 0.000000
0.004821 0.608824 0.000000
0.004824 0.609219 0.000000
0.004828 0.609784 0.000000
0.004835 0.610605 0.000000
0.004845 0.611851 0.000000
0.004860 0.613734 0.000000
0.004884 0.616752 0.000000
0.004919 0.621239 0.000000
0.004961 0.626531 0.000000
0.005028 0.635021 0.000000
0.007644 0.646108 0.000000
0.075355 0.664066 0.000000
0.287101 0.692444 0.000000
0.451963 0.729680 0.000000
0.607570 0.768047 0.000000
0.723755 0.796152 0.000000
0.820438 0.818364 0.000000
0.878837 0.831364 0.000000
0.914380 0.839169 0.000000
0.943426 0.845439 0.000000
0.966719 0.850407 0.000000
0.985440 0.854311 0.000000
1.000000 0.857428 0.000000
1.000000 0.859891 0.000000
1.000000 0.861699 0.000000
1.000000 0.863033 0.000000
1.000000 0.864017 0.000000
1.000000 0.864787 0.000000
1.000000 0.865403 0.000000
1.000000 0.865910 0.000000
1.000000 0.866349 0.000000
0.004863 0.614186 0.000000
0.004866 0.614501 0.000000
0.004869 0.614896 0.000000
0.004873 0.615460 0.000000
0.004880 0.616282 0.000000
0.004890 0.617528 0.000000
0.004905 0.619399 0.000000
0.004927 0.622254 0.000000
0.004963 0.626742 0.000000
0.005004 0.631969 0.000000
0.005069 0.640166 0.000000
0.007684 0.651161 0.000000
0.082572 0.669022 0.000000
0.289917 0.697246 0.000000
0.454056 0.734273 0.000000
0.608546 0.772329 0.000000
0.724447 0.800364 0.000000
0.820951 0.822549 0.000000
