astoria-game/Assets/Environment/Maps/LUTs/Grade2.CUBE
#Created by: Adobe Photoshop Export Color Lookup Plugin
TITLE "Grade2"
#LUT size
LUT_3D_SIZE 8
#data domain
#LUT data points
DOMAIN_MIN 0.000000 0.000000 0.000000
DOMAIN_MAX 0.903226 0.903226 0.903226
0.000000 0.000000 0.000000
0.003220 0.000000 0.000000
0.022773 0.000000 0.000000
0.399335 0.000000 0.000000
0.788433 0.000000 0.000000
0.988593 0.000000 0.000000
1.000000 0.000000 0.000000
1.000000 0.000000 0.000000
0.000000 0.003220 0.000000
0.003220 0.003220 0.000000
0.022773 0.003220 0.000000
0.399335 0.003220 0.000000
0.788433 0.003220 0.000000
0.988593 0.003220 0.000000
1.000000 0.003220 0.000000
1.000000 0.003220 0.000000
0.000000 0.022773 0.000000
0.003220 0.022773 0.000000
0.022773 0.022773 0.000000
0.399335 0.022773 0.000000
0.788433 0.022773 0.000000
0.988593 0.022773 0.000000
1.000000 0.022773 0.000000
1.000000 0.022773 0.000000
0.000000 0.399335 0.000000
0.003220 0.399335 0.000000
0.022773 0.399335 0.000000
0.399335 0.399335 0.000000
0.788433 0.399335 0.000000
0.988593 0.399335 0.000000
1.000000 0.399335 0.000000
1.000000 0.399335 0.000000
0.000000 0.788433 0.000000
0.003220 0.788433 0.000000
0.022773 0.788433 0.000000
0.399335 0.788433 0.000000
0.788433 0.788433 0.000000
0.988593 0.788433 0.000000
1.000000 0.788433 0.000000
1.000000 0.788433 0.000000
0.000000 0.988593 0.000000
0.003220 0.988593 0.000000
0.022773 0.988593 0.000000
0.399335 0.988593 0.000000
0.788433 0.988593 0.000000
0.988593 0.988593 0.000000
1.000000 0.988593 0.000000
1.000000 0.988593 0.000000
0.000000 1.000000 0.000000
0.003220 1.000000 0.000000
0.022773 1.000000 0.000000
0.399335 1.000000 0.000000
0.788433 1.000000 0.000000
0.988593 1.000000 0.000000
1.000000 1.000000 0.000000
1.000000 1.000000 0.000000
0.000000 1.000000 0.000000
0.003220 1.000000 0.000000
0.022773 1.000000 0.000000
0.399335 1.000000 0.000000
0.788433 1.000000 0.000000
0.988593 1.000000 0.000000
1.000000 1.000000 0.000000
1.000000 1.000000 0.000000
0.000000 0.000000 0.003220
0.003220 0.000000 0.003220
0.022773 0.000000 0.003220
0.399335 0.000000 0.003220
0.788433 0.000000 0.003220
0.988593 0.000000 0.003220
1.000000 0.000000 0.003220
1.000000 0.000000 0.003220
0.000000 0.003220 0.003220
0.003220 0.003220 0.003220
0.022773 0.003220 0.003220
0.399335 0.003220 0.003220
0.788433 0.003220 0.003220
0.988593 0.003220 0.003220
1.000000 0.003220 0.003220
1.000000 0.003220 0.003220
0.000000 0.022773 0.003220
0.003220 0.022773 0.003220
0.022773 0.022773 0.003220
0.399335 0.022773 0.003220
0.788433 0.022773 0.003220
0.988593 0.022773 0.003220
1.000000 0.022773 0.003220
1.000000 0.022773 0.003220
0.000000 0.399335 0.003220
0.003220 0.399335 0.003220
0.022773 0.399335 0.003220
0.399335 0.399335 0.003220
0.788433 0.399335 0.003220
0.988593 0.399335 0.003220
1.000000 0.399335 0.003220
1.000000 0.399335 0.003220
0.000000 0.788433 0.003220
0.003220 0.788433 0.003220
0.022773 0.788433 0.003220
0.399335 0.788433 0.003220
0.788433 0.788433 0.003220
0.988593 0.788433 0.003220
1.000000 0.788433 0.003220
1.000000 0.788433 0.003220
0.000000 0.988593 0.003220
0.003220 0.988593 0.003220
0.022773 0.988593 0.003220
0.399335 0.988593 0.003220
0.788433 0.988593 0.003220
0.988593 0.988593 0.003220
1.000000 0.988593 0.003220
1.000000 0.988593 0.003220
0.000000 1.000000 0.003220
0.003220 1.000000 0.003220
0.022773 1.000000 0.003220
0.399335 1.000000 0.003220
0.788433 1.000000 0.003220
0.988593 1.000000 0.003220
1.000000 1.000000 0.003220
1.000000 1.000000 0.003220
0.000000 1.000000 0.003220
0.003220 1.000000 0.003220
0.022773 1.000000 0.003220
0.399335 1.000000 0.003220
0.788433 1.000000 0.003220
0.988593 1.000000 0.003220
1.000000 1.000000 0.003220
1.000000 1.000000 0.003220
0.000000 0.000000 0.022773
0.003220 0.000000 0.022773
0.022773 0.000000 0.022773
0.399335 0.000000 0.022773
0.788433 0.000000 0.022773
0.988593 0.000000 0.022773
1.000000 0.000000 0.022773
1.000000 0.000000 0.022773
0.000000 0.003220 0.022773
0.003220 0.003220 0.022773
0.022773 0.003220 0.022773
0.399335 0.003220 0.022773
0.788433 0.003220 0.022773
0.988593 0.003220 0.022773
1.000000 0.003220 0.022773
1.000000 0.003220 0.022773
0.000000 0.022773 0.022773
0.003220 0.022773 0.022773
0.022773 0.022773 0.022773
0.399335 0.022773 0.022773
0.788433 0.022773 0.022773
0.988593 0.022773 0.022773
1.000000 0.022773 0.022773
1.000000 0.022773 0.022773
0.000000 0.399335 0.022773
0.003220 0.399335 0.022773
0.022773 0.399335 0.022773
0.399335 0.399335 0.022773
0.788433 0.399335 0.022773
0.988593 0.399335 0.022773
1.000000 0.399335 0.022773
1.000000 0.399335 0.022773
0.000000 0.788433 0.022773
0.003220 0.788433 0.022773
0.022773 0.788433 0.022773
0.399335 0.788433 0.022773
0.788433 0.788433 0.022773
0.988593 0.788433 0.022773
1.000000 0.788433 0.022773
1.000000 0.788433 0.022773
0.000000 0.988593 0.022773
0.003220 0.988593 0.022773
0.022773 0.988593 0.022773
0.399335 0.988593 0.022773
0.788433 0.988593 0.022773
0.988593 0.988593 0.022773
1.000000 0.988593 0.022773
1.000000 0.988593 0.022773
0.000000 1.000000 0.022773
0.003220 1.000000 0.022773
0.022773 1.000000 0.022773
0.399335 1.000000 0.022773
0.788433 1.000000 0.022773
0.988593 1.000000 0.022773
1.000000 1.000000 0.022773
1.000000 1.000000 0.022773
0.000000 1.000000 0.022773
0.003220 1.000000 0.022773
0.022773 1.000000 0.022773
0.399335 1.000000 0.022773
0.788433 1.000000 0.022773
0.988593 1.000000 0.022773
1.000000 1.000000 0.022773
1.000000 1.000000 0.022773
0.000000 0.000000 0.399335
0.003220 0.000000 0.399335
0.022773 0.000000 0.399335
0.399335 0.000000 0.399335
0.788433 0.000000 0.399335
0.988593 0.000000 0.399335
1.000000 0.000000 0.399335
1.000000 0.000000 0.399335
0.000000 0.003220 0.399335
0.003220 0.003220 0.399335
0.022773 0.003220 0.399335
0.399335 0.003220 0.399335
0.788433 0.003220 0.399335
0.988593 0.003220 0.399335
1.000000 0.003220 0.399335
1.000000 0.003220 0.399335
0.000000 0.022773 0.399335
0.003220 0.022773 0.399335
0.022773 0.022773 0.399335
0.399335 0.022773 0.399335
0.788433 0.022773 0.399335
0.988593 0.022773 0.399335
1.000000 0.022773 0.399335
1.000000 0.022773 0.399335
0.000000 0.399335 0.399335
0.003220 0.399335 0.399335
0.022773 0.399335 0.399335
0.399335 0.399335 0.399335
0.788433 0.399335 0.399335
0.988593 0.399335 0.399335
1.000000 0.399335 0.399335
1.000000 0.399335 0.399335
0.000000 0.788433 0.399335
0.003220 0.788433 0.399335
0.022773 0.788433 0.399335
0.399335 0.788433 0.399335
0.788433 0.788433 0.399335
0.988593 0.788433 0.399335
1.000000 0.788433 0.399335
1.000000 0.788433 0.399335
0.000000 0.988593 0.399335
0.003220 0.988593 0.399335
0.022773 0.988593 0.399335
0.399335 0.988593 0.399335
0.788433 0.988593 0.399335
0.988593 0.988593 0.399335
1.000000 0.988593 0.399335
1.000000 0.988593 0.399335
0.000000 1.000000 0.399335
0.003220 1.000000 0.399335
0.022773 1.000000 0.399335
0.399335 1.000000 0.399335
0.788433 1.000000 0.399335
0.988593 1.000000 0.399335
1.000000 1.000000 0.399335
1.000000 1.000000 0.399335
0.000000 1.000000 0.399335
0.003220 1.000000 0.399335
0.022773 1.000000 0.399335
0.399335 1.000000 0.399335
0.788433 1.000000 0.399335
0.988593 1.000000 0.399335
1.000000 1.000000 0.399335
1.000000 1.000000 0.399335
0.000000 0.000000 0.788433
0.003220 0.000000 0.788433
0.022773 0.000000 0.788433
0.399335 0.000000 0.788433
0.788433 0.000000 0.788433
0.988593 0.000000 0.788433
1.000000 0.000000 0.788433
1.000000 0.000000 0.788433
0.000000 0.003220 0.788433
0.003220 0.003220 0.788433
0.022773 0.003220 0.788433
0.399335 0.003220 0.788433
0.788433 0.003220 0.788433
0.988593 0.003220 0.788433
1.000000 0.003220 0.788433
1.000000 0.003220 0.788433
0.000000 0.022773 0.788433
0.003220 0.022773 0.788433
0.022773 0.022773 0.788433
0.399335 0.022773 0.788433
0.788433 0.022773 0.788433
0.988593 0.022773 0.788433
1.000000 0.022773 0.788433
1.000000 0.022773 0.788433
0.000000 0.399335 0.788433
0.003220 0.399335 0.788433
0.022773 0.399335 0.788433
0.399335 0.399335 0.788433
0.788433 0.399335 0.788433
0.988593 0.399335 0.788433
1.000000 0.399335 0.788433
1.000000 0.399335 0.788433
0.000000 0.788433 0.788433
0.003220 0.788433 0.788433
0.022773 0.788433 0.788433
0.399335 0.788433 0.788433
0.788433 0.788433 0.788433
0.988593 0.788433 0.788433
1.000000 0.788433 0.788433
1.000000 0.788433 0.788433
0.000000 0.988593 0.788433
0.003220 0.988593 0.788433
0.022773 0.988593 0.788433
0.399335 0.988593 0.788433
0.788433 0.988593 0.788433
0.988593 0.988593 0.788433
1.000000 0.988593 0.788433
1.000000 0.988593 0.788433
0.000000 1.000000 0.788433
0.003220 1.000000 0.788433
0.022773 1.000000 0.788433
0.399335 1.000000 0.788433
0.788433 1.000000 0.788433
0.988593 1.000000 0.788433
1.000000 1.000000 0.788433
1.000000 1.000000 0.788433
0.000000 1.000000 0.788433
0.003220 1.000000 0.788433
0.022773 1.000000 0.788433
0.399335 1.000000 0.788433
0.788433 1.000000 0.788433
0.988593 1.000000 0.788433
1.000000 1.000000 0.788433
1.000000 1.000000 0.788433
0.000000 0.000000 0.988593
0.003220 0.000000 0.988593
0.022773 0.000000 0.988593
0.399335 0.000000 0.988593
0.788433 0.000000 0.988593
0.988593 0.000000 0.988593
1.000000 0.000000 0.988593
1.000000 0.000000 0.988593
0.000000 0.003220 0.988593
0.003220 0.003220 0.988593
0.022773 0.003220 0.988593
0.399335 0.003220 0.988593
0.788433 0.003220 0.988593
0.988593 0.003220 0.988593
1.000000 0.003220 0.988593
1.000000 0.003220 0.988593
0.000000 0.022773 0.988593
0.003220 0.022773 0.988593
0.022773 0.022773 0.988593
0.399335 0.022773 0.988593
0.788433 0.022773 0.988593
0.988593 0.022773 0.988593
1.000000 0.022773 0.988593
1.000000 0.022773 0.988593
0.000000 0.399335 0.988593
0.003220 0.399335 0.988593
0.022773 0.399335 0.988593
0.399335 0.399335 0.988593
0.788433 0.399335 0.988593
0.988593 0.399335 0.988593
1.000000 0.399335 0.988593
1.000000 0.399335 0.988593
0.000000 0.788433 0.988593
0.003220 0.788433 0.988593
0.022773 0.788433 0.988593
0.399335 0.788433 0.988593
0.788433 0.788433 0.988593
0.988593 0.788433 0.988593
1.000000 0.788433 0.988593
1.000000 0.788433 0.988593
0.000000 0.988593 0.988593
0.003220 0.988593 0.988593
0.022773 0.988593 0.988593
0.399335 0.988593 0.988593
0.788433 0.988593 0.988593
0.988593 0.988593 0.988593
1.000000 0.988593 0.988593
1.000000 0.988593 0.988593
0.000000 1.000000 0.988593
0.003220 1.000000 0.988593
0.022773 1.000000 0.988593
0.399335 1.000000 0.988593
0.788433 1.000000 0.988593
0.988593 1.000000 0.988593
1.000000 1.000000 0.988593
1.000000 1.000000 0.988593
0.000000 1.000000 0.988593
0.003220 1.000000 0.988593
0.022773 1.000000 0.988593
0.399335 1.000000 0.988593
0.788433 1.000000 0.988593
0.988593 1.000000 0.988593
1.000000 1.000000 0.988593
1.000000 1.000000 0.988593
0.000000 0.000000 1.000000
0.003220 0.000000 1.000000
0.022773 0.000000 1.000000
0.399335 0.000000 1.000000
0.788433 0.000000 1.000000
0.988593 0.000000 1.000000
1.000000 0.000000 1.000000
1.000000 0.000000 1.000000
0.000000 0.003220 1.000000
0.003220 0.003220 1.000000
0.022773 0.003220 1.000000
0.399335 0.003220 1.000000
0.788433 0.003220 1.000000
0.988593 0.003220 1.000000
1.000000 0.003220 1.000000
1.000000 0.003220 1.000000
0.000000 0.022773 1.000000
0.003220 0.022773 1.000000
0.022773 0.022773 1.000000
0.399335 0.022773 1.000000
0.788433 0.022773 1.000000
0.988593 0.022773 1.000000
1.000000 0.022773 1.000000
1.000000 0.022773 1.000000
0.000000 0.399335 1.000000
0.003220 0.399335 1.000000
0.022773 0.399335 1.000000
0.399335 0.399335 1.000000
0.788433 0.399335 1.000000
0.988593 0.399335 1.000000
1.000000 0.399335 1.000000
1.000000 0.399335 1.000000
0.000000 0.788433 1.000000
0.003220 0.788433 1.000000
0.022773 0.788433 1.000000
0.399335 0.788433 1.000000
0.788433 0.788433 1.000000
0.988593 0.788433 1.000000
1.000000 0.788433 1.000000
1.000000 0.788433 1.000000
0.000000 0.988593 1.000000
0.003220 0.988593 1.000000
0.022773 0.988593 1.000000
0.399335 0.988593 1.000000
0.788433 0.988593 1.000000
0.988593 0.988593 1.000000
1.000000 0.988593 1.000000
1.000000 0.988593 1.000000
0.000000 1.000000 1.000000
0.003220 1.000000 1.000000
0.022773 1.000000 1.000000
0.399335 1.000000 1.000000
0.788433 1.000000 1.000000
0.988593 1.000000 1.000000
1.000000 1.000000 1.000000
1.000000 1.000000 1.000000
0.000000 1.000000 1.000000
0.003220 1.000000 1.000000
0.022773 1.000000 1.000000
0.399335 1.000000 1.000000
0.788433 1.000000 1.000000
0.988593 1.000000 1.000000
1.000000 1.000000 1.000000
1.000000 1.000000 1.000000
0.000000 0.000000 1.000000
0.003220 0.000000 1.000000
0.022773 0.000000 1.000000
0.399335 0.000000 1.000000
0.788433 0.000000 1.000000
0.988593 0.000000 1.000000
1.000000 0.000000 1.000000
1.000000 0.000000 1.000000
0.000000 0.003220 1.000000
0.003220 0.003220 1.000000
0.022773 0.003220 1.000000
0.399335 0.003220 1.000000
0.788433 0.003220 1.000000
0.988593 0.003220 1.000000
1.000000 0.003220 1.000000
1.000000 0.003220 1.000000
0.000000 0.022773 1.000000
0.003220 0.022773 1.000000
0.022773 0.022773 1.000000
0.399335 0.022773 1.000000
0.788433 0.022773 1.000000
0.988593 0.022773 1.000000
1.000000 0.022773 1.000000
1.000000 0.022773 1.000000
0.000000 0.399335 1.000000
0.003220 0.399335 1.000000
0.022773 0.399335 1.000000
0.399335 0.399335 1.000000
0.788433 0.399335 1.000000
0.988593 0.399335 1.000000
1.000000 0.399335 1.000000
1.000000 0.399335 1.000000
0.000000 0.788433 1.000000
0.003220 0.788433 1.000000
0.022773 0.788433 1.000000
0.399335 0.788433 1.000000
0.788433 0.788433 1.000000
0.988593 0.788433 1.000000
1.000000 0.788433 1.000000
1.000000 0.788433 1.000000
0.000000 0.988593 1.000000
0.003220 0.988593 1.000000
0.022773 0.988593 1.000000
0.399335 0.988593 1.000000
0.788433 0.988593 1.000000
0.988593 0.988593 1.000000
1.000000 0.988593 1.000000
1.000000 0.988593 1.000000
0.000000 1.000000 1.000000
0.003220 1.000000 1.000000
0.022773 1.000000 1.000000
0.399335 1.000000 1.000000
0.788433 1.000000 1.000000
0.988593 1.000000 1.000000
1.000000 1.000000 1.000000
1.000000 1.000000 1.000000
0.000000 1.000000 1.000000
0.003220 1.000000 1.000000
0.022773 1.000000 1.000000
0.399335 1.000000 1.000000
0.788433 1.000000 1.000000
0.988593 1.000000 1.000000
1.000000 1.000000 1.000000
1.000000 1.000000 1.000000
