astoria-game/Assets/Environment/Maps/LUTs/Grade6.CUBE
#Created by: Adobe Photoshop Export Color Lookup Plugin
TITLE "Frame.psd"
#LUT size
LUT_3D_SIZE 8
#data domain
#LUT data points
DOMAIN_MIN 0.000000 0.000000 0.000000
DOMAIN_MAX 0.903226 0.903226 0.903226
0.005274 0.003298 0.003178
0.005810 0.003358 0.003225
0.008396 0.003647 0.003453
0.220770 0.005741 0.002884
0.632835 0.000108 0.000000
0.716769 0.000123 0.000000
0.740661 0.000127 0.000000
0.751933 0.000129 0.000000
0.005251 0.003904 0.003267
0.005684 0.003923 0.003293
0.008270 0.004213 0.003521
0.207033 0.008511 0.003220
0.633238 0.000108 0.000000
0.722424 0.000124 0.000000
0.747898 0.000128 0.000000
0.759132 0.000130 0.000000
0.005140 0.006823 0.003695
0.005573 0.006842 0.003721
0.007661 0.006936 0.003847
0.160221 0.016469 0.004094
0.632799 0.000108 0.000000
0.747487 0.000128 0.000000
0.782614 0.000134 0.000000
0.793866 0.000136 0.000000
0.001160 0.101290 0.002507
0.001164 0.101828 0.002503
0.001182 0.102959 0.002587
0.142897 0.143716 0.000000
0.696190 0.210747 0.000000
0.848175 0.213667 0.000000
0.889632 0.216292 0.000000
0.905394 0.217690 0.000000
0.002928 0.369825 0.000000
0.002948 0.372281 0.000000
0.003042 0.384140 0.000000
0.042449 0.446381 0.000000
0.712756 0.589044 0.000000
0.932518 0.627945 0.000000
0.994572 0.637564 0.000000
1.000000 0.640014 0.000000
0.004160 0.525381 0.000000
0.004180 0.527895 0.000000
0.004277 0.540146 0.000000
0.048223 0.591918 0.000000
0.715798 0.733471 0.000000
0.940948 0.782713 0.000000
1.000000 0.796851 0.000000
1.000000 0.800937 0.000000
0.004687 0.591956 0.000000
0.004705 0.594210 0.000000
0.004792 0.605138 0.000000
0.063021 0.649586 0.000000
0.721726 0.783854 0.000000
0.942820 0.833143 0.000000
1.000000 0.847507 0.000000
1.000000 0.852260 0.000000
0.004898 0.618628 0.000000
0.004915 0.620724 0.000000
0.004997 0.631047 0.000000
0.088219 0.672899 0.000000
0.724988 0.803660 0.000000
0.943784 0.852969 0.000000
1.000000 0.867488 0.000000
1.000000 0.872487 0.000000
0.005226 0.003339 0.003515
0.005716 0.003408 0.003729
0.008302 0.003698 0.003957
0.214586 0.006243 0.004933
0.632469 0.000104 0.000000
0.718036 0.000115 0.000000
0.742088 0.000114 0.000000
0.753250 0.000111 0.000411
0.005231 0.003723 0.003426
0.005561 0.003744 0.003509
0.008147 0.004033 0.003737
0.201228 0.007880 0.004098
0.630369 0.000108 0.000000
0.721863 0.000124 0.000000
0.748323 0.000128 0.000000
0.759647 0.000127 0.000000
0.005120 0.006643 0.003854
0.005451 0.006663 0.003938
0.007538 0.006757 0.004064
0.154416 0.015837 0.004972
0.629930 0.000108 0.000000
0.746926 0.000128 0.000000
0.783039 0.000133 0.000000
0.794381 0.000133 0.000000
0.001183 0.099827 0.002961
0.001193 0.100326 0.003027
0.001211 0.101457 0.003111
0.139677 0.141593 0.000000
0.694331 0.209140 0.000000
0.847948 0.212536 0.000000
0.889617 0.215321 0.000000
0.905471 0.216796 0.000000
0.002928 0.369782 0.000000
0.002947 0.372180 0.000000
0.003041 0.384038 0.000000
0.038888 0.446157 0.000000
0.711788 0.588783 0.000000
0.932324 0.627894 0.000000
0.994700 0.637655 0.000000
1.000000 0.640167 0.000000
0.004167 0.526218 0.000000
0.004187 0.528725 0.000000
0.004284 0.540976 0.000000
0.043152 0.592770 0.000000
0.715133 0.734175 0.000000
0.940760 0.783442 0.000000
1.000000 0.797606 0.000000
1.000000 0.801733 0.000000
0.004694 0.592828 0.000000
0.004712 0.595063 0.000000
0.004798 0.605991 0.000000
0.059030 0.650383 0.000000
0.721062 0.784558 0.000000
0.942590 0.833957 0.000000
1.000000 0.848344 0.000000
1.000000 0.853109 0.000000
0.004905 0.619462 0.000000
0.004922 0.621556 0.000000
0.005003 0.631879 0.000000
0.084520 0.673631 0.000000
0.724325 0.804428 0.000000
0.943523 0.853791 0.000000
1.000000 0.868305 0.000000
1.000000 0.873315 0.000000
0.004999 0.003540 0.005140
0.005489 0.003609 0.005354
0.007849 0.003940 0.006385
0.195233 0.006983 0.012553
0.629612 0.000081 0.002139
0.722896 0.000078 0.004638
0.748945 0.000052 0.009176
0.759754 0.000032 0.012359
0.005003 0.003924 0.005051
0.005334 0.003945 0.005134
0.007694 0.004276 0.006166
0.181875 0.008619 0.011717
0.627512 0.000085 0.001464
0.726722 0.000087 0.003401
0.755181 0.000066 0.007244
0.766151 0.000048 0.010139
0.005025 0.005773 0.004621
0.005355 0.005794 0.004704
0.006947 0.005894 0.005106
0.128432 0.012856 0.008180
0.615913 0.000105 0.000000
0.743902 0.000127 0.000000
0.784885 0.000131 0.000000
0.796732 0.000121 0.000000
0.001247 0.089541 0.004934
0.001257 0.090039 0.005000
0.001299 0.091051 0.005404
0.124366 0.127794 0.004413
0.681191 0.197237 0.000000
0.844533 0.202857 0.000000
0.887971 0.206797 0.000000
0.904545 0.208610 0.000000
0.002926 0.369463 0.000000
0.002944 0.371860 0.000000
0.003036 0.383448 0.000000
0.036031 0.444868 0.000000
0.706996 0.587401 0.000000
0.931250 0.627494 0.000000
0.995286 0.637969 0.000000
1.000000 0.640720 0.000000
0.004197 0.530066 0.000000
0.004217 0.532573 0.000000
0.004314 0.544784 0.000000
0.039122 0.596659 0.000000
0.711868 0.737617 0.000000
0.939874 0.786983 0.000000
1.000000 0.801225 0.000000
1.000000 0.805489 0.000000
0.004728 0.597053 0.000000
0.004745 0.599288 0.000000
0.004831 0.610119 0.000000
0.050354 0.654324 0.000000
0.717803 0.787949 0.000000
0.941450 0.837826 0.000000
1.000000 0.852346 0.000000
1.000000 0.857158 0.000000
0.004937 0.623533 0.000000
0.004954 0.625627 0.000000
0.005035 0.635917 0.000000
0.058524 0.677426 0.000000
0.721070 0.808033 0.000000
0.942269 0.857714 0.000000
1.000000 0.872269 0.000000
1.000000 0.877318 0.000000
0.007631 0.002147 0.093386
0.008645 0.001917 0.096274
0.013222 0.001285 0.108942
0.191143 0.000000 0.165443
0.651906 0.000000 0.201617
0.755041 0.000000 0.210892
0.784501 0.000000 0.216475
0.794565 0.000000 0.219199
0.007218 0.003199 0.088191
0.007367 0.003171 0.090029
0.011944 0.002538 0.102697
0.182171 0.000256 0.158147
0.649316 0.000000 0.197464
0.757788 0.000000 0.208482
0.789928 0.000000 0.214727
0.800274 0.000000 0.217720
0.005054 0.007116 0.061183
0.005203 0.007087 0.063022
0.006273 0.007210 0.071066
0.132077 0.009064 0.117470
0.634837 0.000000 0.176976
0.770945 0.000000 0.198140
0.816343 0.000000 0.208588
0.828494 0.000000 0.212906
0.005562 0.094474 0.057311
0.005706 0.095413 0.058966
0.006215 0.098051 0.064912
0.104437 0.130342 0.098222
0.687064 0.190018 0.151481
0.864496 0.193200 0.176246
0.909538 0.196898 0.188587
0.926631 0.198664 0.193604
0.008302 0.386363 0.057147
0.008403 0.388712 0.058116
0.008772 0.399975 0.061336
0.010386 0.458375 0.074386
0.700657 0.596708 0.083255
0.937330 0.637140 0.098693
1.000000 0.647478 0.109446
1.000000 0.650152 0.115287
0.011006 0.553786 0.070952
0.011075 0.556196 0.071519
0.011299 0.568051 0.072895
0.012153 0.618442 0.077541
0.703576 0.755723 0.072774
0.941732 0.804132 0.079908
1.000000 0.817527 0.088460
1.000000 0.821579 0.092870
0.012661 0.619363 0.083664
0.012705 0.621486 0.083954
0.012884 0.632032 0.084937
0.013594 0.675026 0.088667
0.710400 0.804671 0.083022
0.942825 0.852603 0.087074
1.000000 0.866083 0.094864
1.000000 0.870652 0.098722
0.013357 0.645241 0.089207
0.013396 0.647243 0.089449
0.013566 0.657317 0.090371
0.014242 0.697557 0.094018
0.714127 0.823769 0.086714
0.943670 0.871429 0.090919
1.000000 0.884942 0.098758
1.000000 0.889737 0.102392
0.037232 0.000000 0.285080
0.041729 0.000000 0.288550
0.062975 0.000000 0.305370
0.228934 0.000000 0.368803
0.662781 0.000000 0.447534
0.790006 0.000000 0.472561
0.831468 0.000000 0.482886
0.842621 0.000000 0.486610
0.034885 0.000000 0.286096
0.038188 0.000000 0.289581
0.059434 0.000000 0.306400
0.226619 0.000000 0.370277
0.664147 0.000000 0.450387
0.794199 0.000000 0.476066
0.836241 0.000000 0.486591
0.848377 0.000000 0.490466
0.024114 0.000000 0.289883
0.027417 0.000000 0.293368
0.042315 0.000000 0.309999
0.209237 0.000000 0.374653
0.669791 0.000000 0.463560
0.814125 0.000000 0.492707
0.859031 0.000000 0.504253
0.874777 0.000000 0.508691
0.027616 0.123614 0.324532
0.027866 0.124475 0.327492
0.029065 0.127157 0.341899
0.147773 0.144321 0.404665
0.716338 0.166353 0.512275
0.895942 0.160155 0.544588
0.939451 0.162456 0.554332
0.955879 0.163745 0.558040
0.033894 0.452733 0.363468
0.034094 0.454831 0.365682
0.035065 0.464989 0.376417
0.039086 0.509604 0.420587
0.709647 0.616429 0.504752
0.954234 0.648926 0.534629
1.000000 0.657390 0.544846
1.000000 0.659469 0.548464
0.037070 0.624696 0.382540
0.037201 0.626658 0.383909
0.037839 0.636290 0.390628
0.040442 0.676875 0.417867
0.701040 0.792511 0.488550
0.953383 0.834497 0.515565
1.000000 0.846021 0.525501
1.000000 0.849652 0.528952
0.038335 0.683438 0.391260
0.038443 0.685221 0.392378
0.038964 0.693911 0.397764
0.041054 0.729205 0.419318
0.705160 0.840133 0.482827
0.951934 0.882480 0.508950
1.000000 0.894235 0.518461
1.000000 0.898375 0.522022
0.038850 0.706897 0.394862
0.038939 0.708380 0.395776
0.039389 0.716020 0.400419
0.041344 0.750108 0.420464
0.708124 0.858878 0.480815
0.951848 0.901205 0.506985
1.000000 0.913019 0.516326
1.000000 0.917366 0.519818
0.102436 0.000000 0.391262
0.109216 0.000000 0.394086
0.142157 0.000000 0.408079
0.285730 0.000000 0.455942
0.685795 0.000000 0.532345
0.817930 0.000000 0.560745
0.861404 0.000000 0.573092
0.876346 0.000000 0.577833
0.097737 0.000000 0.394001
0.105852 0.000000 0.396897
0.138793 0.000000 0.410891
0.285100 0.000000 0.459741
0.688531 0.000000 0.537164
0.822187 0.000000 0.565300
0.865622 0.000000 0.577462
0.880952 0.000000 0.582140
0.075331 0.000000 0.406884
0.083446 0.000000 0.409780
0.122001 0.000000 0.424000
0.279446 0.000000 0.475825
0.701117 0.000000 0.560041
0.843123 0.000000 0.587745
0.886203 0.000000 0.598783
0.902812 0.000000 0.603182
0.038514 0.141917 0.456132
0.038743 0.142654 0.458856
0.039881 0.144956 0.472549
0.243154 0.157287 0.524305
0.740704 0.170600 0.617119
0.911922 0.164328 0.646003
0.953710 0.166223 0.655110
0.969602 0.167434 0.658553
0.046554 0.487840 0.514743
0.046734 0.489495 0.516752
0.047608 0.497501 0.526557
0.051183 0.531984 0.566427
0.732520 0.619604 0.650180
0.963732 0.647356 0.677893
1.000000 0.654826 0.686629
1.000000 0.656659 0.689435
0.049807 0.662579 0.534431
0.049926 0.664145 0.535713
0.050523 0.671947 0.542134
0.052914 0.703992 0.567753
0.717923 0.802925 0.639553
0.960604 0.839860 0.670045
1.000000 0.850209 0.679188
1.000000 0.853387 0.682228
0.050859 0.717306 0.541000
0.050952 0.718618 0.541992
0.051407 0.725062 0.546834
0.053458 0.754933 0.568537
0.720001 0.850829 0.632263
0.958174 0.888762 0.662706
1.000000 0.899646 0.672763
1.000000 0.903306 0.675768
0.051256 0.738672 0.543400
0.051343 0.739947 0.544316
0.051770 0.746204 0.548835
0.053709 0.775289 0.569256
0.722185 0.869585 0.629916
0.957661 0.907456 0.659470
1.000000 0.918467 0.670135
1.000000 0.922388 0.673823
0.147433 0.000000 0.436364
0.153926 0.000000 0.438776
0.185247 0.000000 0.450467
0.315001 0.000000 0.490570
0.702346 0.000000 0.567218
0.834686 0.000000 0.596152
0.876912 0.000000 0.607746
0.892800 0.000000 0.612306
0.143845 0.000000 0.440287
0.151408 0.000000 0.442710
0.182729 0.000000 0.454401
0.314200 0.000000 0.494696
0.704881 0.000000 0.571659
0.838614 0.000000 0.600407
0.880832 0.000000 0.611862
0.896806 0.000000 0.616360
0.126223 0.000000 0.458968
0.133786 0.000000 0.461391
0.170421 0.000000 0.473213
0.311892 0.000000 0.514984
0.717044 0.000000 0.593214
0.857632 0.000000 0.621076
0.899790 0.000000 0.631791
0.916048 0.000000 0.636043
0.042724 0.153385 0.506455
0.042931 0.154064 0.508918
0.054007 0.156202 0.521044
0.285005 0.167068 0.566876
0.754145 0.178742 0.654253
0.920060 0.174332 0.679536
0.960905 0.176688 0.687261
0.976525 0.178019 0.690202
0.051091 0.502412 0.568721
0.051245 0.503896 0.570432
0.051994 0.511022 0.578796
0.054970 0.540954 0.611851
0.747050 0.621256 0.688550
0.968905 0.647182 0.717084
1.000000 0.654291 0.726249
1.000000 0.656061 0.729183
0.054662 0.678154 0.592195
0.054770 0.679456 0.593365
0.055303 0.685957 0.599160
0.057500 0.715053 0.622748
0.731059 0.805880 0.684927
0.965103 0.840235 0.710446
1.000000 0.850198 0.719043
1.000000 0.853188 0.722009
0.055502 0.730566 0.596440
0.055596 0.731802 0.597449
0.056052 0.737792 0.602342
0.058111 0.765331 0.624428
0.732110 0.854539 0.681613
0.962413 0.889710 0.705499
1.000000 0.900073 0.713630
1.000000 0.903537 0.716570
0.055854 0.751511 0.598326
0.055941 0.752715 0.599261
0.056372 0.758579 0.603869
0.058338 0.785619 0.624862
0.733927 0.873348 0.680463
0.961790 0.908467 0.703794
1.000000 0.918891 0.711773
1.000000 0.922533 0.714672
0.166214 0.000000 0.455193
0.172644 0.000000 0.457450
0.203707 0.000000 0.468545
0.328440 0.000000 0.505990
0.709817 0.000000 0.581369
0.841381 0.000000 0.609802
0.883184 0.000000 0.621144
0.899310 0.000000 0.625610
0.163165 0.000000 0.458894
0.170419 0.000000 0.461167
0.201482 0.000000 0.472262
0.327587 0.000000 0.509857
0.712267 0.000000 0.585624
0.845166 0.000000 0.613911
0.886973 0.000000 0.625136
0.903090 0.000000 0.629544
0.147701 0.000000 0.477042
0.154955 0.000000 0.479314
0.190343 0.000000 0.490478
0.325320 0.000000 0.529333
0.724072 0.000000 0.606414
0.863622 0.000000 0.634006
0.905413 0.000000 0.644578
0.921501 0.000000 0.648755
0.044382 0.158380 0.526222
0.044579 0.159030 0.528566
0.075647 0.161134 0.540154
0.301570 0.171347 0.583362
0.759480 0.183312 0.665105
0.923195 0.179569 0.689961
0.963752 0.181965 0.697671
0.979249 0.183304 0.700604
0.052539 0.507948 0.585840
0.052687 0.509372 0.587500
0.053417 0.516262 0.595656
0.056260 0.544393 0.627278
0.753567 0.622251 0.703501
0.971274 0.647417 0.732228
1.000000 0.654387 0.741506
1.000000 0.656116 0.744482
0.056143 0.683370 0.609767
0.056238 0.684612 0.610780
0.056716 0.690809 0.615933
0.058773 0.718524 0.637963
0.737175 0.807049 0.699553
0.967189 0.840553 0.725436
1.000000 0.850413 0.734182
1.000000 0.853302 0.737192
0.057109 0.735575 0.615578
0.057192 0.736760 0.616455
0.057610 0.742557 0.620908
0.059477 0.769034 0.640753
0.737973 0.855688 0.695958
0.964388 0.890025 0.720240
1.000000 0.900292 0.728556
1.000000 0.903647 0.731557
0.057518 0.756449 0.618172
0.057595 0.757605 0.618988
0.057992 0.763287 0.623198
0.059781 0.789400 0.642132
0.739664 0.874438 0.694793
0.963709 0.908728 0.718392
1.000000 0.919054 0.726554
1.000000 0.922588 0.729528
