astoria-game/Assets/Environment/Maps/LUTs/Grade6.CUBE
#Created by: Adobe Photoshop Export Color Lookup Plugin
TITLE "Frame.psd"
#LUT size
LUT_3D_SIZE 5
#data domain
#LUT data points
DOMAIN_MIN 0.000000 0.000000 0.000000
DOMAIN_MAX 0.903226 0.903226 0.903226
0.005274 0.003298 0.003178
0.007327 0.003527 0.003359
0.507528 0.000087 0.000000
0.724804 0.000124 0.000000
0.751933 0.000129 0.000000
0.005186 0.005616 0.003518
0.006844 0.005691 0.003618
0.462930 0.001034 0.000000
0.749959 0.000128 0.000000
0.779479 0.000133 0.000000
0.001792 0.226284 0.000000
0.001846 0.233111 0.000000
0.413078 0.357603 0.000000
0.925028 0.432516 0.000000
0.967572 0.436983 0.000000
0.004334 0.547351 0.000000
0.004408 0.556655 0.000000
0.430934 0.679810 0.000000
0.965217 0.804600 0.000000
1.000000 0.818176 0.000000
0.004898 0.618628 0.000000
0.004962 0.626648 0.000000
0.455693 0.737868 0.000000
0.967064 0.857945 0.000000
1.000000 0.872487 0.000000
0.005093 0.003457 0.004468
0.006968 0.003720 0.005288
0.489624 0.000045 0.004250
0.730007 0.000087 0.003443
0.756974 0.000061 0.008001
0.005110 0.004926 0.004127
0.006374 0.005005 0.004446
0.439166 0.001462 0.002109
0.749375 0.000128 0.000000
0.781449 0.000121 0.000000
0.001760 0.222140 0.000000
0.001811 0.228768 0.000000
0.402644 0.350094 0.000000
0.924352 0.427970 0.000000
0.967667 0.433301 0.000000
0.004361 0.550771 0.000000
0.004434 0.560001 0.000000
0.425371 0.682537 0.000000
0.964563 0.807523 0.000000
1.000000 0.821319 0.000000
0.004924 0.621817 0.000000
0.004987 0.629830 0.000000
0.450931 0.740688 0.000000
0.966167 0.861090 0.000000
1.000000 0.875657 0.000000
0.015979 0.000000 0.196210
0.024767 0.000000 0.208299
0.453071 0.000000 0.328434
0.786378 0.000000 0.370975
0.819475 0.000000 0.379919
0.015262 0.000141 0.187237
0.016159 0.000000 0.198418
0.432570 0.000000 0.320967
0.801290 0.000000 0.375574
0.841325 0.000000 0.386062
0.017548 0.248668 0.186532
0.018332 0.254893 0.195421
0.379059 0.349861 0.292432
0.949751 0.416841 0.371843
0.997329 0.422481 0.385841
0.023186 0.605450 0.214408
0.023579 0.613756 0.218271
0.362041 0.724569 0.263256
0.974212 0.841677 0.317244
1.000000 0.854377 0.329779
0.024853 0.671717 0.227200
0.025170 0.678866 0.230259
0.395924 0.780019 0.268117
0.974184 0.892437 0.317568
1.000000 0.905759 0.329283
0.117344 0.000000 0.407147
0.142747 0.000000 0.417216
0.495546 0.000000 0.510321
0.838103 0.000000 0.576820
0.881803 0.000000 0.589548
0.100502 0.000000 0.419658
0.131174 0.000000 0.430286
0.497704 0.000000 0.527504
0.853909 0.000000 0.593639
0.898579 0.000000 0.605702
0.044131 0.303180 0.506378
0.044885 0.307734 0.515103
0.467675 0.364692 0.610533
0.971356 0.405655 0.684770
1.000000 0.409828 0.693333
0.051767 0.686002 0.555764
0.052172 0.691294 0.560119
0.387919 0.772217 0.621326
0.986151 0.860994 0.686317
1.000000 0.871110 0.694520
0.052805 0.742951 0.561906
0.053138 0.747733 0.565443
0.416412 0.824987 0.618167
0.983643 0.911661 0.680061
1.000000 0.922571 0.689533
0.166214 0.000000 0.455193
0.190816 0.000000 0.463828
0.520739 0.000000 0.547510
0.855583 0.000000 0.613610
0.899310 0.000000 0.625610
0.154547 0.000000 0.469355
0.182302 0.000000 0.478050
0.523332 0.000000 0.563401
0.870061 0.000000 0.629172
0.913775 0.000000 0.640662
0.048290 0.316968 0.555812
0.048976 0.321065 0.563752
0.504999 0.371683 0.652329
0.977796 0.408505 0.725511
1.000000 0.412550 0.732949
0.056464 0.700955 0.611663
0.056808 0.705634 0.615344
0.430649 0.780191 0.669004
0.990941 0.861728 0.726621
1.000000 0.871413 0.735301
0.057518 0.756449 0.618172
0.057814 0.760871 0.621297
0.452892 0.832680 0.668864
0.988111 0.912266 0.721189
1.000000 0.922588 0.729528
