astoria-game/Assets/Environment/Maps/LUTs/Grade2.CUBE
#Created by: Adobe Photoshop Export Color Lookup Plugin
TITLE "Grade2"
#LUT size
LUT_3D_SIZE 5
#data domain
#LUT data points
DOMAIN_MIN 0.000000 0.000000 0.000000
DOMAIN_MAX 0.903226 0.903226 0.903226
0.000000 0.000000 0.000000
0.011078 0.000000 0.000000
0.613693 0.000000 0.000000
1.000000 0.000000 0.000000
1.000000 0.000000 0.000000
0.000000 0.011078 0.000000
0.011078 0.011078 0.000000
0.613693 0.011078 0.000000
1.000000 0.011078 0.000000
1.000000 0.011078 0.000000
0.000000 0.613693 0.000000
0.011078 0.613693 0.000000
0.613693 0.613693 0.000000
1.000000 0.613693 0.000000
1.000000 0.613693 0.000000
0.000000 1.000000 0.000000
0.011078 1.000000 0.000000
0.613693 1.000000 0.000000
1.000000 1.000000 0.000000
1.000000 1.000000 0.000000
0.000000 1.000000 0.000000
0.011078 1.000000 0.000000
0.613693 1.000000 0.000000
1.000000 1.000000 0.000000
1.000000 1.000000 0.000000
0.000000 0.000000 0.011078
0.011078 0.000000 0.011078
0.613693 0.000000 0.011078
1.000000 0.000000 0.011078
1.000000 0.000000 0.011078
0.000000 0.011078 0.011078
0.011078 0.011078 0.011078
0.613693 0.011078 0.011078
1.000000 0.011078 0.011078
1.000000 0.011078 0.011078
0.000000 0.613693 0.011078
0.011078 0.613693 0.011078
0.613693 0.613693 0.011078
1.000000 0.613693 0.011078
1.000000 0.613693 0.011078
0.000000 1.000000 0.011078
0.011078 1.000000 0.011078
0.613693 1.000000 0.011078
1.000000 1.000000 0.011078
1.000000 1.000000 0.011078
0.000000 1.000000 0.011078
0.011078 1.000000 0.011078
0.613693 1.000000 0.011078
1.000000 1.000000 0.011078
1.000000 1.000000 0.011078
0.000000 0.000000 0.613693
0.011078 0.000000 0.613693
0.613693 0.000000 0.613693
1.000000 0.000000 0.613693
1.000000 0.000000 0.613693
0.000000 0.011078 0.613693
0.011078 0.011078 0.613693
0.613693 0.011078 0.613693
1.000000 0.011078 0.613693
1.000000 0.011078 0.613693
0.000000 0.613693 0.613693
0.011078 0.613693 0.613693
0.613693 0.613693 0.613693
1.000000 0.613693 0.613693
1.000000 0.613693 0.613693
0.000000 1.000000 0.613693
0.011078 1.000000 0.613693
0.613693 1.000000 0.613693
1.000000 1.000000 0.613693
1.000000 1.000000 0.613693
0.000000 1.000000 0.613693
0.011078 1.000000 0.613693
0.613693 1.000000 0.613693
1.000000 1.000000 0.613693
1.000000 1.000000 0.613693
0.000000 0.000000 1.000000
0.011078 0.000000 1.000000
0.613693 0.000000 1.000000
1.000000 0.000000 1.000000
1.000000 0.000000 1.000000
0.000000 0.011078 1.000000
0.011078 0.011078 1.000000
0.613693 0.011078 1.000000
1.000000 0.011078 1.000000
1.000000 0.011078 1.000000
0.000000 0.613693 1.000000
0.011078 0.613693 1.000000
0.613693 0.613693 1.000000
1.000000 0.613693 1.000000
1.000000 0.613693 1.000000
0.000000 1.000000 1.000000
0.011078 1.000000 1.000000
0.613693 1.000000 1.000000
1.000000 1.000000 1.000000
1.000000 1.000000 1.000000
0.000000 1.000000 1.000000
0.011078 1.000000 1.000000
0.613693 1.000000 1.000000
1.000000 1.000000 1.000000
1.000000 1.000000 1.000000
0.000000 0.000000 1.000000
0.011078 0.000000 1.000000
0.613693 0.000000 1.000000
1.000000 0.000000 1.000000
1.000000 0.000000 1.000000
0.000000 0.011078 1.000000
0.011078 0.011078 1.000000
0.613693 0.011078 1.000000
1.000000 0.011078 1.000000
1.000000 0.011078 1.000000
0.000000 0.613693 1.000000
0.011078 0.613693 1.000000
0.613693 0.613693 1.000000
1.000000 0.613693 1.000000
1.000000 0.613693 1.000000
0.000000 1.000000 1.000000
0.011078 1.000000 1.000000
0.613693 1.000000 1.000000
1.000000 1.000000 1.000000
1.000000 1.000000 1.000000
0.000000 1.000000 1.000000
0.011078 1.000000 1.000000
0.613693 1.000000 1.000000
1.000000 1.000000 1.000000
1.000000 1.000000 1.000000
