astoria-game/Assets/Environment/Maps/LUTs/Grade4.CUBE
#Created by: Adobe Photoshop Export Color Lookup Plugin
TITLE "Frame2.psd"
#LUT size
LUT_3D_SIZE 5
#data domain
#LUT data points
DOMAIN_MIN 0.000000 0.000000 0.000000
DOMAIN_MAX 0.903226 0.903226 0.903226
0.000000 0.000000 0.000000
0.009877 0.000000 0.000000
0.542047 0.000000 0.000000
0.870021 0.000000 0.000000
0.972349 0.000000 0.000000
0.000000 0.009877 0.000000
0.009877 0.009877 0.000000
0.542047 0.009877 0.000000
0.870021 0.009877 0.000000
0.972349 0.009877 0.000000
0.000000 0.542047 0.000000
0.009877 0.542047 0.000000
0.542047 0.542047 0.000000
0.870021 0.542047 0.000000
0.972349 0.542047 0.000000
0.000000 0.870021 0.000000
0.009877 0.870021 0.000000
0.542047 0.870021 0.000000
0.870021 0.870021 0.000000
0.972349 0.870021 0.000000
0.000000 0.972349 0.000000
0.009877 0.972349 0.000000
0.542047 0.972349 0.000000
0.870021 0.972349 0.000000
0.972349 0.972349 0.000000
0.000000 0.000000 0.009877
0.009877 0.000000 0.009877
0.542047 0.000000 0.009877
0.870021 0.000000 0.009877
0.972349 0.000000 0.009877
0.000000 0.009877 0.009877
0.009877 0.009877 0.009877
0.542047 0.009877 0.009877
0.870021 0.009877 0.009877
0.972349 0.009877 0.009877
0.000000 0.542047 0.009877
0.009877 0.542047 0.009877
0.542047 0.542047 0.009877
0.870021 0.542047 0.009877
0.972349 0.542047 0.009877
0.000000 0.870021 0.009877
0.009877 0.870021 0.009877
0.542047 0.870021 0.009877
0.870021 0.870021 0.009877
0.972349 0.870021 0.009877
0.000000 0.972349 0.009877
0.009877 0.972349 0.009877
0.542047 0.972349 0.009877
0.870021 0.972349 0.009877
0.972349 0.972349 0.009877
0.000000 0.000000 0.542047
0.009877 0.000000 0.542047
0.542047 0.000000 0.542047
0.870021 0.000000 0.542047
0.972349 0.000000 0.542047
0.000000 0.009877 0.542047
0.009877 0.009877 0.542047
0.542047 0.009877 0.542047
0.870021 0.009877 0.542047
0.972349 0.009877 0.542047
0.000000 0.542047 0.542047
0.009877 0.542047 0.542047
0.542047 0.542047 0.542047
0.870021 0.542047 0.542047
0.972349 0.542047 0.542047
0.000000 0.870021 0.542047
0.009877 0.870021 0.542047
0.542047 0.870021 0.542047
0.870021 0.870021 0.542047
0.972349 0.870021 0.542047
0.000000 0.972349 0.542047
0.009877 0.972349 0.542047
0.542047 0.972349 0.542047
0.870021 0.972349 0.542047
0.972349 0.972349 0.542047
0.000000 0.000000 0.870021
0.009877 0.000000 0.870021
0.542047 0.000000 0.870021
0.870021 0.000000 0.870021
0.972349 0.000000 0.870021
0.000000 0.009877 0.870021
0.009877 0.009877 0.870021
0.542047 0.009877 0.870021
0.870021 0.009877 0.870021
0.972349 0.009877 0.870021
0.000000 0.542047 0.870021
0.009877 0.542047 0.870021
0.542047 0.542047 0.870021
0.870021 0.542047 0.870021
0.972349 0.542047 0.870021
0.000000 0.870021 0.870021
0.009877 0.870021 0.870021
0.542047 0.870021 0.870021
0.870021 0.870021 0.870021
0.972349 0.870021 0.870021
0.000000 0.972349 0.870021
0.009877 0.972349 0.870021
0.542047 0.972349 0.870021
0.870021 0.972349 0.870021
0.972349 0.972349 0.870021
0.000000 0.000000 0.972349
0.009877 0.000000 0.972349
0.542047 0.000000 0.972349
0.870021 0.000000 0.972349
0.972349 0.000000 0.972349
0.000000 0.009877 0.972349
0.009877 0.009877 0.972349
0.542047 0.009877 0.972349
0.870021 0.009877 0.972349
0.972349 0.009877 0.972349
0.000000 0.542047 0.972349
0.009877 0.542047 0.972349
0.542047 0.542047 0.972349
0.870021 0.542047 0.972349
0.972349 0.542047 0.972349
0.000000 0.870021 0.972349
0.009877 0.870021 0.972349
0.542047 0.870021 0.972349
0.870021 0.870021 0.972349
0.972349 0.870021 0.972349
0.000000 0.972349 0.972349
0.009877 0.972349 0.972349
0.542047 0.972349 0.972349
0.870021 0.972349 0.972349
0.972349 0.972349 0.972349
