astoria-game/Assets/Environment/Maps/LUTs/Grade4.CUBE
#Created by: Adobe Photoshop Export Color Lookup Plugin
TITLE "Frame2.psd"
#LUT size
LUT_3D_SIZE 8
#data domain
#LUT data points
DOMAIN_MIN 0.000000 0.000000 0.000000
DOMAIN_MAX 0.903226 0.903226 0.903226
0.000000 0.000000 0.000000
0.003635 0.000000 0.000000
0.014964 0.000000 0.000000
0.201056 0.000000 0.000000
0.694088 0.000000 0.000000
0.845811 0.000000 0.000000
0.924064 0.000000 0.000000
0.972349 0.000000 0.000000
0.000000 0.003635 0.000000
0.003635 0.003635 0.000000
0.014964 0.003635 0.000000
0.201056 0.003635 0.000000
0.694088 0.003635 0.000000
0.845811 0.003635 0.000000
0.924064 0.003635 0.000000
0.972349 0.003635 0.000000
0.000000 0.014964 0.000000
0.003635 0.014964 0.000000
0.014964 0.014964 0.000000
0.201056 0.014964 0.000000
0.694088 0.014964 0.000000
0.845811 0.014964 0.000000
0.924064 0.014964 0.000000
0.972349 0.014964 0.000000
0.000000 0.201056 0.000000
0.003635 0.201056 0.000000
0.014964 0.201056 0.000000
0.201056 0.201056 0.000000
0.694088 0.201056 0.000000
0.845811 0.201056 0.000000
0.924064 0.201056 0.000000
0.972349 0.201056 0.000000
0.000000 0.694088 0.000000
0.003635 0.694088 0.000000
0.014964 0.694088 0.000000
0.201056 0.694088 0.000000
0.694088 0.694088 0.000000
0.845811 0.694088 0.000000
0.924064 0.694088 0.000000
0.972349 0.694088 0.000000
0.000000 0.845811 0.000000
0.003635 0.845811 0.000000
0.014964 0.845811 0.000000
0.201056 0.845811 0.000000
0.694088 0.845811 0.000000
0.845811 0.845811 0.000000
0.924064 0.845811 0.000000
0.972349 0.845811 0.000000
0.000000 0.924064 0.000000
0.003635 0.924064 0.000000
0.014964 0.924064 0.000000
0.201056 0.924064 0.000000
0.694088 0.924064 0.000000
0.845811 0.924064 0.000000
0.924064 0.924064 0.000000
0.972349 0.924064 0.000000
0.000000 0.972349 0.000000
0.003635 0.972349 0.000000
0.014964 0.972349 0.000000
0.201056 0.972349 0.000000
0.694088 0.972349 0.000000
0.845811 0.972349 0.000000
0.924064 0.972349 0.000000
0.972349 0.972349 0.000000
0.000000 0.000000 0.003635
0.003635 0.000000 0.003635
0.014964 0.000000 0.003635
0.201056 0.000000 0.003635
0.694088 0.000000 0.003635
0.845811 0.000000 0.003635
0.924064 0.000000 0.003635
0.972349 0.000000 0.003635
0.000000 0.003635 0.003635
0.003635 0.003635 0.003635
0.014964 0.003635 0.003635
0.201056 0.003635 0.003635
0.694088 0.003635 0.003635
0.845811 0.003635 0.003635
0.924064 0.003635 0.003635
0.972349 0.003635 0.003635
0.000000 0.014964 0.003635
0.003635 0.014964 0.003635
0.014964 0.014964 0.003635
0.201056 0.014964 0.003635
0.694088 0.014964 0.003635
0.845811 0.014964 0.003635
0.924064 0.014964 0.003635
0.972349 0.014964 0.003635
0.000000 0.201056 0.003635
0.003635 0.201056 0.003635
0.014964 0.201056 0.003635
0.201056 0.201056 0.003635
0.694088 0.201056 0.003635
0.845811 0.201056 0.003635
0.924064 0.201056 0.003635
0.972349 0.201056 0.003635
0.000000 0.694088 0.003635
0.003635 0.694088 0.003635
0.014964 0.694088 0.003635
0.201056 0.694088 0.003635
0.694088 0.694088 0.003635
0.845811 0.694088 0.003635
0.924064 0.694088 0.003635
0.972349 0.694088 0.003635
0.000000 0.845811 0.003635
0.003635 0.845811 0.003635
0.014964 0.845811 0.003635
0.201056 0.845811 0.003635
0.694088 0.845811 0.003635
0.845811 0.845811 0.003635
0.924064 0.845811 0.003635
0.972349 0.845811 0.003635
0.000000 0.924064 0.003635
0.003635 0.924064 0.003635
0.014964 0.924064 0.003635
0.201056 0.924064 0.003635
0.694088 0.924064 0.003635
0.845811 0.924064 0.003635
0.924064 0.924064 0.003635
0.972349 0.924064 0.003635
0.000000 0.972349 0.003635
0.003635 0.972349 0.003635
0.014964 0.972349 0.003635
0.201056 0.972349 0.003635
0.694088 0.972349 0.003635
0.845811 0.972349 0.003635
0.924064 0.972349 0.003635
0.972349 0.972349 0.003635
0.000000 0.000000 0.014964
0.003635 0.000000 0.014964
0.014964 0.000000 0.014964
0.201056 0.000000 0.014964
0.694088 0.000000 0.014964
0.845811 0.000000 0.014964
0.924064 0.000000 0.014964
0.972349 0.000000 0.014964
0.000000 0.003635 0.014964
0.003635 0.003635 0.014964
0.014964 0.003635 0.014964
0.201056 0.003635 0.014964
0.694088 0.003635 0.014964
0.845811 0.003635 0.014964
0.924064 0.003635 0.014964
0.972349 0.003635 0.014964
0.000000 0.014964 0.014964
0.003635 0.014964 0.014964
0.014964 0.014964 0.014964
0.201056 0.014964 0.014964
0.694088 0.014964 0.014964
0.845811 0.014964 0.014964
0.924064 0.014964 0.014964
0.972349 0.014964 0.014964
0.000000 0.201056 0.014964
0.003635 0.201056 0.014964
0.014964 0.201056 0.014964
0.201056 0.201056 0.014964
0.694088 0.201056 0.014964
0.845811 0.201056 0.014964
0.924064 0.201056 0.014964
0.972349 0.201056 0.014964
0.000000 0.694088 0.014964
0.003635 0.694088 0.014964
0.014964 0.694088 0.014964
0.201056 0.694088 0.014964
0.694088 0.694088 0.014964
0.845811 0.694088 0.014964
0.924064 0.694088 0.014964
0.972349 0.694088 0.014964
0.000000 0.845811 0.014964
0.003635 0.845811 0.014964
0.014964 0.845811 0.014964
0.201056 0.845811 0.014964
0.694088 0.845811 0.014964
0.845811 0.845811 0.014964
0.924064 0.845811 0.014964
0.972349 0.845811 0.014964
0.000000 0.924064 0.014964
0.003635 0.924064 0.014964
0.014964 0.924064 0.014964
0.201056 0.924064 0.014964
0.694088 0.924064 0.014964
0.845811 0.924064 0.014964
0.924064 0.924064 0.014964
0.972349 0.924064 0.014964
0.000000 0.972349 0.014964
0.003635 0.972349 0.014964
0.014964 0.972349 0.014964
0.201056 0.972349 0.014964
0.694088 0.972349 0.014964
0.845811 0.972349 0.014964
0.924064 0.972349 0.014964
0.972349 0.972349 0.014964
0.000000 0.000000 0.201056
0.003635 0.000000 0.201056
0.014964 0.000000 0.201056
0.201056 0.000000 0.201056
0.694088 0.000000 0.201056
0.845811 0.000000 0.201056
0.924064 0.000000 0.201056
0.972349 0.000000 0.201056
0.000000 0.003635 0.201056
0.003635 0.003635 0.201056
0.014964 0.003635 0.201056
0.201056 0.003635 0.201056
0.694088 0.003635 0.201056
0.845811 0.003635 0.201056
0.924064 0.003635 0.201056
0.972349 0.003635 0.201056
0.000000 0.014964 0.201056
0.003635 0.014964 0.201056
0.014964 0.014964 0.201056
0.201056 0.014964 0.201056
0.694088 0.014964 0.201056
0.845811 0.014964 0.201056
0.924064 0.014964 0.201056
0.972349 0.014964 0.201056
0.000000 0.201056 0.201056
0.003635 0.201056 0.201056
0.014964 0.201056 0.201056
0.201056 0.201056 0.201056
0.694088 0.201056 0.201056
0.845811 0.201056 0.201056
0.924064 0.201056 0.201056
0.972349 0.201056 0.201056
0.000000 0.694088 0.201056
0.003635 0.694088 0.201056
0.014964 0.694088 0.201056
0.201056 0.694088 0.201056
0.694088 0.694088 0.201056
0.845811 0.694088 0.201056
0.924064 0.694088 0.201056
0.972349 0.694088 0.201056
0.000000 0.845811 0.201056
0.003635 0.845811 0.201056
0.014964 0.845811 0.201056
0.201056 0.845811 0.201056
0.694088 0.845811 0.201056
0.845811 0.845811 0.201056
0.924064 0.845811 0.201056
0.972349 0.845811 0.201056
0.000000 0.924064 0.201056
0.003635 0.924064 0.201056
0.014964 0.924064 0.201056
0.201056 0.924064 0.201056
0.694088 0.924064 0.201056
0.845811 0.924064 0.201056
0.924064 0.924064 0.201056
0.972349 0.924064 0.201056
0.000000 0.972349 0.201056
0.003635 0.972349 0.201056
0.014964 0.972349 0.201056
0.201056 0.972349 0.201056
0.694088 0.972349 0.201056
0.845811 0.972349 0.201056
0.924064 0.972349 0.201056
0.972349 0.972349 0.201056
0.000000 0.000000 0.694088
0.003635 0.000000 0.694088
0.014964 0.000000 0.694088
0.201056 0.000000 0.694088
0.694088 0.000000 0.694088
0.845811 0.000000 0.694088
0.924064 0.000000 0.694088
0.972349 0.000000 0.694088
0.000000 0.003635 0.694088
0.003635 0.003635 0.694088
0.014964 0.003635 0.694088
0.201056 0.003635 0.694088
0.694088 0.003635 0.694088
0.845811 0.003635 0.694088
0.924064 0.003635 0.694088
0.972349 0.003635 0.694088
0.000000 0.014964 0.694088
0.003635 0.014964 0.694088
0.014964 0.014964 0.694088
0.201056 0.014964 0.694088
0.694088 0.014964 0.694088
0.845811 0.014964 0.694088
0.924064 0.014964 0.694088
0.972349 0.014964 0.694088
0.000000 0.201056 0.694088
0.003635 0.201056 0.694088
0.014964 0.201056 0.694088
0.201056 0.201056 0.694088
0.694088 0.201056 0.694088
0.845811 0.201056 0.694088
0.924064 0.201056 0.694088
0.972349 0.201056 0.694088
0.000000 0.694088 0.694088
0.003635 0.694088 0.694088
0.014964 0.694088 0.694088
0.201056 0.694088 0.694088
0.694088 0.694088 0.694088
0.845811 0.694088 0.694088
0.924064 0.694088 0.694088
0.972349 0.694088 0.694088
0.000000 0.845811 0.694088
0.003635 0.845811 0.694088
0.014964 0.845811 0.694088
0.201056 0.845811 0.694088
0.694088 0.845811 0.694088
0.845811 0.845811 0.694088
0.924064 0.845811 0.694088
0.972349 0.845811 0.694088
0.000000 0.924064 0.694088
0.003635 0.924064 0.694088
0.014964 0.924064 0.694088
0.201056 0.924064 0.694088
0.694088 0.924064 0.694088
0.845811 0.924064 0.694088
0.924064 0.924064 0.694088
0.972349 0.924064 0.694088
0.000000 0.972349 0.694088
0.003635 0.972349 0.694088
0.014964 0.972349 0.694088
0.201056 0.972349 0.694088
0.694088 0.972349 0.694088
0.845811 0.972349 0.694088
0.924064 0.972349 0.694088
0.972349 0.972349 0.694088
0.000000 0.000000 0.845811
0.003635 0.000000 0.845811
0.014964 0.000000 0.845811
0.201056 0.000000 0.845811
0.694088 0.000000 0.845811
0.845811 0.000000 0.845811
0.924064 0.000000 0.845811
0.972349 0.000000 0.845811
0.000000 0.003635 0.845811
0.003635 0.003635 0.845811
0.014964 0.003635 0.845811
0.201056 0.003635 0.845811
0.694088 0.003635 0.845811
0.845811 0.003635 0.845811
0.924064 0.003635 0.845811
0.972349 0.003635 0.845811
0.000000 0.014964 0.845811
0.003635 0.014964 0.845811
0.014964 0.014964 0.845811
0.201056 0.014964 0.845811
0.694088 0.014964 0.845811
0.845811 0.014964 0.845811
0.924064 0.014964 0.845811
0.972349 0.014964 0.845811
0.000000 0.201056 0.845811
0.003635 0.201056 0.845811
0.014964 0.201056 0.845811
0.201056 0.201056 0.845811
0.694088 0.201056 0.845811
0.845811 0.201056 0.845811
0.924064 0.201056 0.845811
0.972349 0.201056 0.845811
0.000000 0.694088 0.845811
0.003635 0.694088 0.845811
0.014964 0.694088 0.845811
0.201056 0.694088 0.845811
0.694088 0.694088 0.845811
0.845811 0.694088 0.845811
0.924064 0.694088 0.845811
0.972349 0.694088 0.845811
0.000000 0.845811 0.845811
0.003635 0.845811 0.845811
0.014964 0.845811 0.845811
0.201056 0.845811 0.845811
0.694088 0.845811 0.845811
0.845811 0.845811 0.845811
0.924064 0.845811 0.845811
0.972349 0.845811 0.845811
0.000000 0.924064 0.845811
0.003635 0.924064 0.845811
0.014964 0.924064 0.845811
0.201056 0.924064 0.845811
0.694088 0.924064 0.845811
0.845811 0.924064 0.845811
0.924064 0.924064 0.845811
0.972349 0.924064 0.845811
0.000000 0.972349 0.845811
0.003635 0.972349 0.845811
0.014964 0.972349 0.845811
0.201056 0.972349 0.845811
0.694088 0.972349 0.845811
0.845811 0.972349 0.845811
0.924064 0.972349 0.845811
0.972349 0.972349 0.845811
0.000000 0.000000 0.924064
0.003635 0.000000 0.924064
0.014964 0.000000 0.924064
0.201056 0.000000 0.924064
0.694088 0.000000 0.924064
0.845811 0.000000 0.924064
0.924064 0.000000 0.924064
0.972349 0.000000 0.924064
0.000000 0.003635 0.924064
0.003635 0.003635 0.924064
0.014964 0.003635 0.924064
0.201056 0.003635 0.924064
0.694088 0.003635 0.924064
0.845811 0.003635 0.924064
0.924064 0.003635 0.924064
0.972349 0.003635 0.924064
0.000000 0.014964 0.924064
0.003635 0.014964 0.924064
0.014964 0.014964 0.924064
0.201056 0.014964 0.924064
0.694088 0.014964 0.924064
0.845811 0.014964 0.924064
0.924064 0.014964 0.924064
0.972349 0.014964 0.924064
0.000000 0.201056 0.924064
0.003635 0.201056 0.924064
0.014964 0.201056 0.924064
0.201056 0.201056 0.924064
0.694088 0.201056 0.924064
0.845811 0.201056 0.924064
0.924064 0.201056 0.924064
0.972349 0.201056 0.924064
0.000000 0.694088 0.924064
0.003635 0.694088 0.924064
0.014964 0.694088 0.924064
0.201056 0.694088 0.924064
0.694088 0.694088 0.924064
0.845811 0.694088 0.924064
0.924064 0.694088 0.924064
0.972349 0.694088 0.924064
0.000000 0.845811 0.924064
0.003635 0.845811 0.924064
0.014964 0.845811 0.924064
0.201056 0.845811 0.924064
0.694088 0.845811 0.924064
0.845811 0.845811 0.924064
0.924064 0.845811 0.924064
0.972349 0.845811 0.924064
0.000000 0.924064 0.924064
0.003635 0.924064 0.924064
0.014964 0.924064 0.924064
0.201056 0.924064 0.924064
0.694088 0.924064 0.924064
0.845811 0.924064 0.924064
0.924064 0.924064 0.924064
0.972349 0.924064 0.924064
0.000000 0.972349 0.924064
0.003635 0.972349 0.924064
0.014964 0.972349 0.924064
0.201056 0.972349 0.924064
0.694088 0.972349 0.924064
0.845811 0.972349 0.924064
0.924064 0.972349 0.924064
0.972349 0.972349 0.924064
0.000000 0.000000 0.972349
0.003635 0.000000 0.972349
0.014964 0.000000 0.972349
0.201056 0.000000 0.972349
0.694088 0.000000 0.972349
0.845811 0.000000 0.972349
0.924064 0.000000 0.972349
0.972349 0.000000 0.972349
0.000000 0.003635 0.972349
0.003635 0.003635 0.972349
0.014964 0.003635 0.972349
0.201056 0.003635 0.972349
0.694088 0.003635 0.972349
0.845811 0.003635 0.972349
0.924064 0.003635 0.972349
0.972349 0.003635 0.972349
0.000000 0.014964 0.972349
0.003635 0.014964 0.972349
0.014964 0.014964 0.972349
0.201056 0.014964 0.972349
0.694088 0.014964 0.972349
0.845811 0.014964 0.972349
0.924064 0.014964 0.972349
0.972349 0.014964 0.972349
0.000000 0.201056 0.972349
0.003635 0.201056 0.972349
0.014964 0.201056 0.972349
0.201056 0.201056 0.972349
0.694088 0.201056 0.972349
0.845811 0.201056 0.972349
0.924064 0.201056 0.972349
0.972349 0.201056 0.972349
0.000000 0.694088 0.972349
0.003635 0.694088 0.972349
0.014964 0.694088 0.972349
0.201056 0.694088 0.972349
0.694088 0.694088 0.972349
0.845811 0.694088 0.972349
0.924064 0.694088 0.972349
0.972349 0.694088 0.972349
0.000000 0.845811 0.972349
0.003635 0.845811 0.972349
0.014964 0.845811 0.972349
0.201056 0.845811 0.972349
0.694088 0.845811 0.972349
0.845811 0.845811 0.972349
0.924064 0.845811 0.972349
0.972349 0.845811 0.972349
0.000000 0.924064 0.972349
0.003635 0.924064 0.972349
0.014964 0.924064 0.972349
0.201056 0.924064 0.972349
0.694088 0.924064 0.972349
0.845811 0.924064 0.972349
0.924064 0.924064 0.972349
0.972349 0.924064 0.972349
0.000000 0.972349 0.972349
0.003635 0.972349 0.972349
0.014964 0.972349 0.972349
0.201056 0.972349 0.972349
0.694088 0.972349 0.972349
0.845811 0.972349 0.972349
0.924064 0.972349 0.972349
0.972349 0.972349 0.972349
