astoria-game/Assets/Environment/Maps/LUTs/Grade5.CUBE
#Created by: Adobe Photoshop Export Color Lookup Plugin
TITLE "Frame.psd"
#LUT size
LUT_3D_SIZE 5
#data domain
#LUT data points
DOMAIN_MIN 0.000000 0.000000 0.000000
DOMAIN_MAX 0.903226 0.903226 0.903226
0.015500 0.014850 0.013530
0.021968 0.015991 0.014011
0.377078 0.020568 0.004256
0.709055 0.000000 0.000000
0.746248 0.000000 0.000000
0.016520 0.018230 0.014186
0.020623 0.019119 0.014477
0.310714 0.035822 0.009442
0.700784 0.000000 0.000000
0.754002 0.000000 0.000000
0.035211 0.206084 0.023994
0.058258 0.210848 0.023125
0.291590 0.263547 0.005232
0.770822 0.324272 0.000000
0.864274 0.330991 0.000000
0.384724 0.710218 0.117101
0.395072 0.712301 0.115921
0.514288 0.736375 0.100023
0.853214 0.799175 0.047231
0.951346 0.815259 0.049848
0.505713 0.832435 0.232493
0.512621 0.833772 0.232166
0.607643 0.852264 0.226880
0.878129 0.901948 0.217215
0.963436 0.916533 0.221289
0.015073 0.015321 0.017517
0.024338 0.016749 0.017570
0.384576 0.019388 0.008699
0.711002 0.000000 0.000000
0.748923 0.000000 0.000000
0.016083 0.018312 0.017629
0.021337 0.019366 0.017745
0.317532 0.035622 0.013502
0.703970 0.000000 0.000000
0.756932 0.000000 0.000000
0.033341 0.206696 0.035834
0.058384 0.211557 0.035280
0.293965 0.263863 0.019621
0.773395 0.324685 0.000000
0.866672 0.331661 0.000000
0.382131 0.713341 0.146015
0.392348 0.715322 0.145364
0.512768 0.739308 0.132594
0.853082 0.801705 0.092151
0.951237 0.817618 0.094572
0.503952 0.834907 0.252067
0.510964 0.836239 0.251847
0.606581 0.854682 0.247291
0.877727 0.904116 0.239253
0.963029 0.918585 0.243338
0.003350 0.012799 0.229510
0.011605 0.014722 0.223814
0.327046 0.019489 0.253083
0.728315 0.000000 0.255042
0.773414 0.000000 0.259460
0.002082 0.021661 0.220507
0.010333 0.023254 0.219735
0.304091 0.038200 0.247654
0.726859 0.000000 0.255494
0.783968 0.000000 0.261200
0.000000 0.237939 0.261105
0.008294 0.242683 0.263655
0.297905 0.289822 0.282940
0.792161 0.343051 0.293837
0.886411 0.349871 0.299680
0.346874 0.746775 0.411669
0.357432 0.748446 0.411824
0.491956 0.771082 0.413098
0.849173 0.829227 0.416472
0.947691 0.843390 0.420996
0.480011 0.863702 0.470966
0.487657 0.864995 0.471040
0.591374 0.882865 0.471780
0.871672 0.929254 0.474614
0.957058 0.942297 0.477995
0.000000 0.000862 0.546866
0.019600 0.000318 0.557748
0.305703 0.000000 0.648573
0.758138 0.000000 0.704462
0.840753 0.000000 0.712221
0.000000 0.032388 0.559453
0.011529 0.033432 0.568990
0.305053 0.040986 0.656659
0.764261 0.027666 0.712694
0.851225 0.025146 0.720395
0.000000 0.304904 0.676103
0.000000 0.308678 0.681566
0.315980 0.346808 0.733399
0.815067 0.393385 0.783229
0.910510 0.400177 0.788840
0.301609 0.796994 0.829754
0.314624 0.798543 0.830526
0.471409 0.818982 0.840379
0.844175 0.870176 0.860860
0.940050 0.881871 0.864720
0.453529 0.910187 0.856743
0.462143 0.911406 0.857221
0.578455 0.928226 0.863657
0.864006 0.969185 0.876812
0.946138 0.980052 0.879852
0.000000 0.063431 0.632469
0.023936 0.064287 0.643066
0.320339 0.074296 0.730218
0.779479 0.038528 0.795375
0.870976 0.030060 0.804573
0.000000 0.090085 0.643421
0.017066 0.092295 0.653222
0.320659 0.107122 0.737695
0.784046 0.086906 0.802508
0.878059 0.080714 0.811500
0.000000 0.336648 0.753788
0.000000 0.340146 0.759117
0.333208 0.375983 0.811367
0.822950 0.422180 0.866638
0.918200 0.429204 0.873010
0.312710 0.808924 0.906360
0.325517 0.810416 0.907251
0.481253 0.830244 0.918363
0.847595 0.879272 0.941454
0.940959 0.890401 0.945577
0.462898 0.920086 0.932644
0.471471 0.921271 0.933209
0.584665 0.937235 0.940410
0.866148 0.976682 0.955491
0.946362 0.987056 0.958728
