astoria-game/Assets/Environment/Maps/LUTs/Grade5.CUBE
#Created by: Adobe Photoshop Export Color Lookup Plugin
TITLE "Frame.psd"
#LUT size
LUT_3D_SIZE 8
#data domain
#LUT data points
DOMAIN_MIN 0.000000 0.000000 0.000000
DOMAIN_MAX 0.903226 0.903226 0.903226
0.015500 0.014850 0.013530
0.017251 0.015159 0.013660
0.025206 0.016562 0.014251
0.176034 0.029544 0.014925
0.553834 0.000000 0.000000
0.696969 0.000000 0.000000
0.731761 0.000000 0.000000
0.746248 0.000000 0.000000
0.015776 0.015765 0.013707
0.016887 0.016005 0.013786
0.024842 0.017409 0.014378
0.163205 0.030698 0.015456
0.539647 0.004652 0.000000
0.692640 0.000000 0.000000
0.732899 0.000000 0.000000
0.748400 0.000000 0.000000
0.017030 0.019922 0.014514
0.018141 0.020162 0.014593
0.023188 0.021255 0.014951
0.121309 0.033342 0.016482
0.475186 0.025789 0.000000
0.672973 0.000000 0.000000
0.738071 0.000000 0.000000
0.757047 0.000000 0.000000
0.021494 0.088352 0.021424
0.025566 0.089406 0.021432
0.037864 0.093058 0.021722
0.124685 0.113591 0.021355
0.436696 0.157648 0.000877
0.697205 0.161886 0.000000
0.782254 0.160197 0.000000
0.819087 0.159709 0.000000
0.121032 0.380554 0.012361
0.126713 0.381767 0.011720
0.152526 0.387280 0.008805
0.245322 0.408267 0.000182
0.511714 0.465276 0.000000
0.768624 0.506179 0.000000
0.873530 0.519486 0.000000
0.908486 0.523846 0.000000
0.343443 0.665532 0.087980
0.346708 0.666202 0.087518
0.361544 0.669248 0.085422
0.421028 0.681627 0.075273
0.607341 0.719387 0.034598
0.813888 0.756986 0.002216
0.914969 0.773627 0.000000
0.946928 0.778790 0.001043
0.457433 0.790542 0.185811
0.459539 0.790961 0.185664
0.469107 0.792866 0.184995
0.509307 0.800908 0.182033
0.671853 0.832992 0.168366
0.837865 0.863702 0.160197
0.929457 0.879598 0.159323
0.959461 0.884728 0.162548
0.505713 0.832435 0.232493
0.507571 0.832794 0.232407
0.516275 0.834489 0.231957
0.553133 0.841681 0.229975
0.697315 0.869374 0.221558
0.849192 0.896908 0.217476
0.934733 0.911642 0.218312
0.963436 0.916533 0.221289
0.015384 0.014978 0.014609
0.017892 0.015364 0.014624
0.025848 0.016767 0.015215
0.179576 0.029546 0.015995
0.553255 0.000000 0.000000
0.697444 0.000000 0.000000
0.732418 0.000000 0.000000
0.746975 0.000000 0.000000
0.015658 0.015787 0.014639
0.017080 0.016072 0.014671
0.025035 0.017476 0.015262
0.164652 0.030806 0.016506
0.540791 0.004381 0.001140
0.693476 0.000000 0.000000
0.733658 0.000000 0.000000
0.749195 0.000000 0.000000
0.016912 0.019944 0.015446
0.018334 0.020229 0.015477
0.023381 0.021322 0.015836
0.122756 0.033450 0.017532
0.476330 0.025518 0.001140
0.673809 0.000000 0.000000
0.738830 0.000000 0.000000
0.757843 0.000000 0.000000
0.021412 0.088126 0.023066
0.025875 0.089217 0.023095
0.038173 0.092869 0.023385
0.125508 0.113393 0.023186
0.437674 0.157325 0.002210
0.697907 0.161681 0.000000
0.782980 0.160114 0.000000
0.819884 0.159714 0.000000
0.119810 0.381359 0.019498
0.125935 0.382552 0.019045
0.151748 0.388065 0.016131
0.245122 0.408980 0.006663
0.512045 0.465859 0.000768
0.769092 0.506666 0.000000
0.873934 0.519959 0.000000
0.908916 0.524337 0.000000
0.342636 0.666419 0.096458
0.346006 0.667084 0.096214
0.360842 0.670130 0.094117
0.420458 0.682469 0.084708
0.607172 0.720186 0.046693
0.813868 0.757699 0.017414
0.914956 0.774297 0.015303
0.946947 0.779443 0.016827
0.456791 0.791324 0.192164
0.458941 0.791741 0.192065
0.468509 0.793646 0.191397
0.508840 0.801676 0.188604
0.671664 0.833727 0.175475
0.837760 0.864356 0.167633
0.929356 0.880214 0.166890
0.959389 0.885332 0.170041
0.505243 0.833100 0.237753
0.507128 0.833458 0.237695
0.515832 0.835153 0.237245
0.552776 0.842338 0.235356
0.697027 0.869993 0.227202
0.849057 0.897498 0.223340
0.934596 0.912206 0.224241
0.963325 0.917085 0.227184
0.014859 0.015557 0.019513
0.017367 0.015943 0.019527
0.028762 0.017699 0.019593
0.191576 0.030465 0.020926
0.550627 0.000000 0.000000
0.699607 0.000000 0.000000
0.735404 0.000000 0.000000
0.750219 0.000000 0.000000
0.015132 0.016367 0.019543
0.016554 0.016652 0.019574
0.027950 0.018408 0.019640
0.176652 0.031725 0.021437
0.538164 0.004381 0.001140
0.695638 0.000000 0.000000
0.736644 0.000000 0.000000
0.752439 0.000000 0.000000
0.016374 0.020046 0.019680
0.017797 0.020331 0.019712
0.024259 0.021627 0.019855
0.128350 0.034084 0.022085
0.481532 0.024287 0.006318
0.677607 0.000000 0.000000
0.742276 0.000000 0.000000
0.761412 0.000000 0.000000
0.020840 0.086492 0.028804
0.025302 0.087583 0.028833
0.039807 0.091708 0.029299
0.129021 0.112283 0.029657
0.442741 0.155370 0.009277
0.700825 0.160114 0.000000
0.786438 0.159166 0.000000
0.823181 0.159125 0.000000
0.114255 0.385014 0.051922
0.120381 0.386207 0.051470
0.148213 0.391630 0.049416
0.243394 0.412304 0.039302
0.513551 0.468511 0.004256
0.771218 0.508882 0.000000
0.875767 0.522109 0.000000
0.910842 0.526553 0.000000
0.338969 0.670450 0.134981
0.342339 0.671115 0.134736
0.357653 0.674137 0.133625
0.417537 0.686314 0.126446
0.606408 0.723817 0.101646
0.813779 0.760942 0.086468
0.914896 0.777343 0.084835
0.946998 0.782429 0.088277
0.453877 0.794878 0.221029
0.456026 0.795294 0.220930
0.465791 0.797188 0.220483
0.506506 0.805187 0.218166
0.670804 0.837065 0.207774
0.837282 0.867331 0.201420
0.928896 0.883015 0.201274
0.959031 0.888088 0.204181
0.502975 0.836208 0.262461
0.504860 0.836565 0.262403
0.513701 0.838252 0.262102
0.550919 0.845421 0.260519
0.695716 0.872880 0.254054
0.848474 0.900244 0.251407
0.934011 0.914824 0.252701
0.962832 0.919664 0.255521
0.008049 0.018526 0.110046
0.010548 0.018960 0.108167
0.022976 0.020758 0.100811
0.175859 0.032594 0.108296
0.533458 0.000000 0.100978
0.707409 0.000000 0.095580
0.746674 0.000000 0.101604
0.762148 0.000000 0.105871
0.008282 0.019978 0.107233
0.010130 0.020314 0.106647
0.022558 0.022112 0.099290
0.167760 0.034578 0.106376
0.525684 0.005009 0.100129
0.704450 0.000000 0.095439
0.748675 0.000000 0.101613
0.764740 0.000000 0.106041
0.009801 0.025052 0.096116
0.011649 0.025388 0.095529
0.019498 0.026750 0.092998
0.132327 0.039270 0.098564
0.483482 0.026771 0.098408
0.689285 0.000000 0.095551
0.756263 0.000000 0.101124
0.775163 0.000000 0.106015
0.007412 0.096550 0.104057
0.011738 0.097652 0.104489
0.028227 0.101698 0.105230
0.131598 0.121514 0.111125
0.455726 0.160896 0.112256
0.713900 0.164285 0.106536
0.799438 0.163735 0.110762
0.836073 0.163925 0.114277
0.077866 0.401080 0.170977
0.086701 0.402228 0.171090
0.120961 0.407523 0.171020
0.231970 0.427255 0.170567
0.515701 0.481250 0.161131
0.777129 0.519774 0.149000
0.881324 0.532430 0.149257
0.916775 0.536722 0.152368
0.322780 0.685937 0.260228
0.326488 0.686589 0.260204
0.342776 0.689568 0.259848
0.405794 0.701237 0.258446
0.602442 0.737821 0.252218
0.812750 0.773396 0.246706
0.914290 0.788941 0.247113
0.946769 0.793737 0.249635
0.442047 0.808252 0.323268
0.444335 0.808662 0.323257
0.454491 0.810537 0.323087
0.497141 0.818421 0.322405
0.666781 0.849840 0.318753
0.834707 0.879055 0.318005
0.926626 0.894150 0.319926
0.957103 0.899039 0.322452
0.493129 0.848623 0.357209
0.495106 0.848975 0.357208
0.504233 0.850643 0.357106
0.542907 0.857716 0.356691
0.690276 0.884538 0.354735
0.845557 0.911300 0.355640
0.931306 0.925380 0.358298
0.960452 0.930068 0.360875
0.003827 0.000000 0.355286
0.006502 0.000000 0.356000
0.018656 0.000000 0.359243
0.139065 0.000610 0.392778
0.495566 0.000000 0.430434
0.704859 0.000000 0.435687
0.770129 0.000000 0.437904
0.789568 0.000000 0.439501
0.003302 0.003169 0.355798
0.005578 0.003553 0.356794
0.017732 0.003553 0.360037
0.137210 0.005474 0.392753
0.494086 0.003397 0.430936
0.705271 0.000000 0.436599
0.773084 0.000000 0.439061
0.792641 0.000000 0.440690
0.000913 0.017569 0.358121
0.003189 0.017953 0.359117
0.013534 0.019697 0.363644
0.130378 0.025429 0.393003
0.487361 0.018830 0.433218
0.707140 0.000000 0.440744
0.786510 0.000000 0.444317
0.806525 0.000000 0.446040
0.000000 0.127018 0.385891
0.000000 0.127990 0.387125
0.000000 0.131999 0.393519
0.129171 0.149398 0.417866
0.476148 0.182864 0.454949
0.738652 0.186435 0.466126
0.825144 0.186632 0.470003
0.862176 0.187169 0.472199
0.000000 0.445059 0.485101
0.003732 0.446116 0.485665
0.020688 0.450918 0.488227
0.185406 0.468471 0.496933
0.512600 0.517190 0.515292
0.783094 0.551129 0.523456
0.887151 0.561858 0.526252
0.923676 0.565545 0.527651
0.273717 0.725415 0.560776
0.278239 0.726039 0.560936
0.298785 0.728876 0.561665
0.369521 0.739038 0.564002
0.589360 0.773447 0.570492
0.806273 0.805472 0.574859
0.908498 0.819173 0.577135
0.942114 0.823417 0.578316
0.405172 0.844522 0.599489
0.407778 0.844917 0.599556
0.419622 0.846715 0.599860
0.468190 0.854273 0.601064
0.650211 0.883644 0.605210
0.825402 0.910657 0.608452
0.917723 0.924102 0.610610
0.949288 0.928487 0.611777
0.463939 0.882240 0.617904
0.466110 0.882579 0.617958
0.476411 0.884179 0.618214
0.519383 0.890984 0.619239
0.673361 0.915695 0.622412
0.836266 0.940735 0.625384
0.922049 0.953283 0.627505
0.952223 0.957520 0.628653
0.000000 0.000000 0.521591
0.005123 0.000000 0.524436
0.028397 0.000000 0.537367
0.153678 0.000000 0.585384
0.496418 0.000000 0.652983
0.724274 0.000000 0.674802
0.810750 0.000000 0.682475
0.831982 0.000000 0.684950
0.000000 0.006848 0.524941
0.002964 0.007051 0.527553
0.026239 0.007051 0.540483
0.153499 0.008173 0.587799
0.496069 0.008389 0.655198
0.726042 0.003832 0.677162
0.812463 0.002262 0.684745
0.835012 0.002416 0.687252
0.000000 0.037965 0.540165
0.002964 0.038167 0.542777
0.016432 0.039087 0.554644
0.151624 0.043392 0.599504
0.494487 0.046505 0.665261
0.734075 0.021241 0.687882
0.820245 0.012541 0.695059
0.848634 0.012308 0.697760
0.000000 0.163968 0.594055
0.000000 0.164941 0.596136
0.000000 0.168655 0.606446
0.147611 0.183550 0.641221
0.495783 0.214485 0.699875
0.760406 0.222062 0.723573
0.847234 0.223945 0.729235
0.885452 0.225030 0.731801
0.000000 0.479218 0.719139
0.000000 0.480081 0.719927
0.000000 0.484005 0.723511
0.174922 0.499831 0.737553
0.518372 0.544165 0.771067
0.788608 0.575585 0.790016
0.891394 0.585625 0.795120
0.928403 0.589160 0.796804
0.254285 0.754190 0.796624
0.258251 0.754643 0.796858
0.276270 0.756697 0.797921
0.352965 0.765933 0.802586
0.587818 0.798861 0.817631
0.803653 0.828219 0.828679
0.904409 0.840781 0.832828
0.938647 0.844797 0.834103
0.387802 0.871056 0.824210
0.390635 0.871437 0.824369
0.403506 0.873169 0.825091
0.456162 0.880477 0.827982
0.640820 0.907654 0.837928
0.820645 0.933449 0.845833
0.911179 0.945735 0.849240
0.943451 0.949905 0.850380
0.451752 0.907385 0.834064
0.454056 0.907715 0.834189
0.465052 0.909270 0.834792
0.510908 0.915858 0.837210
0.663084 0.938324 0.844864
0.831616 0.962561 0.851987
0.915261 0.973977 0.855045
0.946186 0.978024 0.856126
0.000000 0.030947 0.601522
0.005751 0.030775 0.604414
0.031880 0.029992 0.617553
0.167435 0.029081 0.664108
0.503995 0.017776 0.734999
0.743031 0.000000 0.759779
0.829591 0.000000 0.767400
0.858998 0.000000 0.770177
0.000000 0.039616 0.604660
0.003708 0.040046 0.607372
0.029838 0.039263 0.620511
0.167353 0.039856 0.666422
0.504007 0.031880 0.737001
0.744546 0.015224 0.761864
0.831066 0.014894 0.769414
0.861493 0.015065 0.772220
0.000000 0.079005 0.618916
0.003708 0.079434 0.621628
0.020557 0.081387 0.633949
0.166001 0.086710 0.677650
0.504061 0.095965 0.746097
0.751433 0.084398 0.771336
0.837767 0.082569 0.778563
0.871614 0.082957 0.781460
0.000000 0.196618 0.669538
0.000000 0.197541 0.671557
0.000780 0.201393 0.682042
0.163677 0.215981 0.716566
0.506633 0.247357 0.776512
0.771149 0.258571 0.802017
0.858226 0.261771 0.808199
0.896362 0.263435 0.810857
0.000000 0.497692 0.790708
0.001105 0.498512 0.791511
0.006128 0.502239 0.795160
0.191776 0.517166 0.809652
0.527064 0.559283 0.844875
0.793196 0.589685 0.865752
0.894727 0.599533 0.871487
0.931720 0.603053 0.873313
0.265251 0.765179 0.867551
0.269184 0.765616 0.867802
0.287054 0.767605 0.868942
0.360592 0.776268 0.873915
0.595596 0.808366 0.890665
0.806486 0.836330 0.902934
0.905223 0.848392 0.907580
0.939521 0.852351 0.908968
0.394753 0.880231 0.893966
0.397585 0.880604 0.894138
0.410449 0.882300 0.894921
0.463163 0.889432 0.898170
0.642993 0.915228 0.909028
0.822890 0.940490 0.918090
0.911243 0.952236 0.921844
0.943609 0.956345 0.923073
0.458569 0.916115 0.902993
0.460877 0.916438 0.903129
0.471888 0.917960 0.903785
0.517839 0.924406 0.906527
0.664616 0.945527 0.914822
0.833786 0.969363 0.923002
0.915202 0.980243 0.926342
0.946231 0.984231 0.927495
0.000000 0.063431 0.632469
0.006521 0.063685 0.635336
0.035253 0.064372 0.648395
0.174307 0.068697 0.692648
0.508611 0.071511 0.763696
0.751684 0.042027 0.792587
0.837971 0.031304 0.801138
0.870976 0.030060 0.804573
0.000000 0.070543 0.635417
0.004682 0.071149 0.638063
0.033414 0.071837 0.651121
0.174285 0.076883 0.694836
0.508701 0.081327 0.765619
0.752924 0.054417 0.794530
0.839142 0.044611 0.802998
0.872944 0.043314 0.806435
0.000000 0.105035 0.649175
0.004682 0.105641 0.651821
0.024621 0.108229 0.663990
0.173299 0.116031 0.705822
0.509104 0.130864 0.774728
0.758926 0.118854 0.803695
0.844840 0.114002 0.811767
0.880808 0.113260 0.815160
0.000000 0.214735 0.698935
0.000032 0.215642 0.700841
0.005658 0.219482 0.710790
0.171433 0.233906 0.743969
0.511897 0.265523 0.805528
0.776192 0.278019 0.834142
0.863285 0.281701 0.840983
0.901338 0.283586 0.843986
0.000000 0.506675 0.818291
0.005492 0.507470 0.819123
0.024888 0.511113 0.822909
0.202085 0.525816 0.838004
0.531648 0.567058 0.875060
0.795371 0.597024 0.897545
0.896283 0.606811 0.903768
0.933231 0.610321 0.905784
0.272005 0.770429 0.897187
0.275877 0.770860 0.897466
0.293564 0.772825 0.898679
0.365568 0.781273 0.903879
0.599884 0.813004 0.921732
0.807996 0.840340 0.934783
0.905708 0.852183 0.939611
0.940004 0.856115 0.941078
0.399448 0.884451 0.923689
0.402258 0.884819 0.923882
0.415063 0.886495 0.924725
0.467592 0.893551 0.928194
0.644418 0.918681 0.939723
0.824175 0.943727 0.949499
0.911416 0.955229 0.953402
0.943797 0.959314 0.954695
0.462898 0.920086 0.932644
0.465193 0.920404 0.932797
0.476165 0.921906 0.933498
0.522029 0.928297 0.936430
0.665771 0.948791 0.945252
0.835026 0.972459 0.954056
0.915309 0.983097 0.957512
0.946362 0.987056 0.958728
