astoria-game/Assets/Environment/Maps/LUTs/Grade3.CUBE
#Created by: Adobe Photoshop Export Color Lookup Plugin
TITLE "Frame2.psd"
#LUT size
LUT_3D_SIZE 32
#data domain
DOMAIN_MIN 0.0 0.0 0.0
DOMAIN_MAX 1.0 1.0 1.0
#LUT data points
0.000000 0.000000 0.000000
0.000000 0.000000 0.000000
0.000000 0.000000 0.000000
0.000000 0.000000 0.000000
0.000000 0.000000 0.000000
0.000000 0.000000 0.000000
0.000000 0.000000 0.000000
0.003714 0.001547 0.000000
0.023536 0.009803 0.000000
0.058712 0.024454 0.000000
0.115327 0.048034 0.000000
0.198019 0.082476 0.000000
0.298229 0.124214 0.000000
0.390212 0.162525 0.000000
0.469181 0.195416 0.000000
0.536870 0.223609 0.000000
0.595565 0.248055 0.000000
0.646616 0.269318 0.000000
0.691649 0.288075 0.000000
0.731948 0.304859 0.000000
0.768045 0.319894 0.000000
0.800325 0.333338 0.000000
0.829591 0.345528 0.000000
0.855748 0.356422 0.000000
0.879373 0.366262 0.000000
0.900790 0.375182 0.000000
0.920301 0.383309 0.000000
0.938264 0.390791 0.000000
0.954756 0.397660 0.000000
0.970281 0.404126 0.000000
0.985422 0.410432 0.000000
1.000000 0.416504 0.000000
0.000000 0.000000 0.000000
0.000000 0.000000 0.000000
0.000000 0.000000 0.000000
0.000000 0.000000 0.000000
0.000000 0.000000 0.000000
0.000000 0.000000 0.000000
0.000000 0.000000 0.000000
0.003714 0.001547 0.000000
0.023536 0.009803 0.000000
0.058712 0.024454 0.000000
0.115327 0.048034 0.000000
0.198019 0.082476 0.000000
0.298229 0.124214 0.000000
0.390212 0.162525 0.000000
0.469181 0.195416 0.000000
0.536870 0.223609 0.000000
0.595565 0.248055 0.000000
0.646616 0.269318 0.000000
0.691649 0.288075 0.000000
0.731948 0.304859 0.000000
0.768045 0.319894 0.000000
0.800325 0.333338 0.000000
0.829591 0.345528 0.000000
0.855748 0.356422 0.000000
0.879373 0.366262 0.000000
0.900790 0.375182 0.000000
0.920301 0.383309 0.000000
0.938264 0.390791 0.000000
0.954756 0.397660 0.000000
0.970281 0.404126 0.000000
0.985422 0.410432 0.000000
1.000000 0.416504 0.000000
0.000000 0.000000 0.000000
0.000000 0.000000 0.000000
0.000000 0.000000 0.000000
0.000000 0.000000 0.000000
0.000000 0.000000 0.000000
0.000000 0.000000 0.000000
0.000000 0.000000 0.000000
0.003714 0.001547 0.000000
0.023536 0.009803 0.000000
0.058712 0.024454 0.000000
0.115327 0.048034 0.000000
0.198019 0.082476 0.000000
0.298229 0.124214 0.000000
0.390212 0.162525 0.000000
0.469181 0.195416 0.000000
0.536870 0.223609 0.000000
0.595565 0.248055 0.000000
0.646616 0.269318 0.000000
0.691649 0.288075 0.000000
0.731948 0.304859 0.000000
0.768045 0.319894 0.000000
0.800325 0.333338 0.000000
0.829591 0.345528 0.000000
0.855748 0.356422 0.000000
0.879373 0.366262 0.000000
0.900790 0.375182 0.000000
0.920301 0.383309 0.000000
0.938264 0.390791 0.000000
0.954756 0.397660 0.000000
0.970281 0.404126 0.000000
0.985422 0.410432 0.000000
1.000000 0.416504 0.000000
0.000000 0.000000 0.000000
0.000000 0.000000 0.000000
0.000000 0.000000 0.000000
0.000000 0.000000 0.000000
0.000000 0.000000 0.000000
0.000000 0.000000 0.000000
0.000000 0.000000 0.000000
0.003714 0.001547 0.000000
0.023536 0.009803 0.000000
0.058712 0.024454 0.000000
0.115327 0.048034 0.000000
0.198019 0.082476 0.000000
0.298229 0.124214 0.000000
0.390212 0.162525 0.000000
0.469181 0.195416 0.000000
0.536870 0.223609 0.000000
0.595565 0.248055 0.000000
0.646616 0.269318 0.000000
0.691649 0.288075 0.000000
0.731948 0.304859 0.000000
0.768045 0.319894 0.000000
0.800325 0.333338 0.000000
0.829591 0.345528 0.000000
0.855748 0.356422 0.000000
0.879373 0.366262 0.000000
0.900790 0.375182 0.000000
0.920301 0.383309 0.000000
0.938264 0.390791 0.000000
0.954756 0.397660 0.000000
0.970281 0.404126 0.000000
0.985422 0.410432 0.000000
1.000000 0.416504 0.000000
0.000000 0.000000 0.000000
0.000000 0.000000 0.000000
0.000000 0.000000 0.000000
0.000000 0.000000 0.000000
0.000000 0.000000 0.000000
0.000000 0.000000 0.000000
0.000000 0.000000 0.000000
0.003714 0.001547 0.000000
0.023536 0.009803 0.000000
0.058712 0.024454 0.000000
0.115327 0.048034 0.000000
0.198019 0.082476 0.000000
0.298229 0.124214 0.000000
0.390212 0.162525 0.000000
0.469181 0.195416 0.000000
0.536870 0.223609 0.000000
0.595565 0.248055 0.000000
0.646616 0.269318 0.000000
0.691649 0.288075 0.000000
0.731948 0.304859 0.000000
0.768045 0.319894 0.000000
0.800325 0.333338 0.000000
0.829591 0.345528 0.000000
0.855748 0.356422 0.000000
0.879373 0.366262 0.000000
0.900790 0.375182 0.000000
0.920301 0.383309 0.000000
0.938264 0.390791 0.000000
0.954756 0.397660 0.000000
0.970281 0.404126 0.000000
0.985422 0.410432 0.000000
1.000000 0.416504 0.000000
0.000000 0.000000 0.000000
0.000000 0.000000 0.000000
0.000000 0.000000 0.000000
0.000000 0.000000 0.000000
0.000000 0.000000 0.000000
0.000000 0.000000 0.000000
0.000000 0.000000 0.000000
0.003714 0.001547 0.000000
0.023536 0.009803 0.000000
0.058712 0.024454 0.000000
0.115327 0.048034 0.000000
0.198019 0.082476 0.000000
0.298229 0.124214 0.000000
0.390212 0.162525 0.000000
0.469181 0.195416 0.000000
0.536870 0.223609 0.000000
0.595565 0.248055 0.000000
0.646616 0.269318 0.000000
0.691649 0.288075 0.000000
0.731948 0.304859 0.000000
0.768045 0.319894 0.000000
0.800325 0.333338 0.000000
0.829591 0.345528 0.000000
0.855748 0.356422 0.000000
0.879373 0.366262 0.000000
0.900790 0.375182 0.000000
0.920301 0.383309 0.000000
0.938264 0.390791 0.000000
0.954756 0.397660 0.000000
0.970281 0.404126 0.000000
0.985422 0.410432 0.000000
1.000000 0.416504 0.000000
0.000000 0.000000 0.000000
0.000000 0.000000 0.000000
0.000000 0.000000 0.000000
0.000000 0.000000 0.000000
0.000000 0.000000 0.000000
0.000000 0.000000 0.000000
0.000000 0.000000 0.000000
0.003714 0.001547 0.000000
0.023536 0.009803 0.000000
0.058712 0.024454 0.000000
0.115327 0.048034 0.000000
0.198019 0.082476 0.000000
0.298229 0.124214 0.000000
0.390212 0.162525 0.000000
0.469181 0.195416 0.000000
0.536870 0.223609 0.000000
0.595565 0.248055 0.000000
0.646616 0.269318 0.000000
0.691649 0.288075 0.000000
0.731948 0.304859 0.000000
0.768045 0.319894 0.000000
0.800325 0.333338 0.000000
0.829591 0.345528 0.000000
0.855748 0.356422 0.000000
0.879373 0.366262 0.000000
0.900790 0.375182 0.000000
0.920301 0.383309 0.000000
0.938264 0.390791 0.000000
0.954756 0.397660 0.000000
0.970281 0.404126 0.000000
0.985422 0.410432 0.000000
1.000000 0.416504 0.000000
0.000000 0.002034 0.000847
0.000000 0.002034 0.000847
0.000000 0.002034 0.000847
0.000000 0.002034 0.000847
0.000000 0.002034 0.000847
0.000000 0.002034 0.000847
0.000000 0.002034 0.000847
0.003714 0.003581 0.000000
0.023536 0.011837 0.000000
0.058712 0.026488 0.000000
0.115327 0.050068 0.000000
0.198019 0.084510 0.000000
0.298229 0.126248 0.000000
0.390212 0.164559 0.000000
0.469181 0.197450 0.000000
0.536870 0.225643 0.000000
0.595565 0.250089 0.000000
0.646616 0.271352 0.000000
0.691649 0.290109 0.000000
0.731948 0.306893 0.000000
0.768045 0.321928 0.000000
0.800325 0.335372 0.000000
0.829591 0.347562 0.000000
0.855748 0.358457 0.000000
0.879373 0.368296 0.000000
0.900790 0.377217 0.000000
0.920301 0.385343 0.000000
0.938264 0.392825 0.000000
0.954756 0.399694 0.000000
0.970281 0.406160 0.000000
0.985422 0.412466 0.000000
1.000000 0.418538 0.000000
0.000000 0.015647 0.006517
0.000000 0.015647 0.006517
0.000000 0.015647 0.006517
0.000000 0.015647 0.006517
0.000000 0.015647 0.006517
0.000000 0.015647 0.006517
0.000000 0.015647 0.006517
0.000000 0.015647 0.002803
0.021623 0.023536 0.000000
0.058712 0.040101 0.000000
0.115327 0.063681 0.000000
0.198019 0.098123 0.000000
0.298229 0.139861 0.000000
0.390212 0.178172 0.000000
0.469181 0.211063 0.000000
0.536870 0.239256 0.000000
0.595565 0.263702 0.000000
0.646616 0.284965 0.000000
0.691649 0.303721 0.000000
0.731948 0.320506 0.000000
0.768045 0.335541 0.000000
0.800325 0.348985 0.000000
0.829591 0.361175 0.000000
0.855748 0.372069 0.000000
0.879373 0.381909 0.000000
0.900790 0.390829 0.000000
0.920301 0.398956 0.000000
0.938264 0.406438 0.000000
0.954756 0.413307 0.000000
0.970281 0.419773 0.000000
0.985422 0.426079 0.000000
1.000000 0.432151 0.000000
0.000000 0.043112 0.017956
0.000000 0.043112 0.017956
0.000000 0.043112 0.017956
0.000000 0.043112 0.017956
0.000000 0.043112 0.017956
0.000000 0.043112 0.017956
0.000000 0.043112 0.017956
0.000000 0.043112 0.014243
0.005580 0.043112 0.000000
0.049858 0.058712 0.000000
0.115327 0.091146 0.000000
0.198019 0.125588 0.000000
0.298229 0.167326 0.000000
0.390212 0.205637 0.000000
0.469181 0.238528 0.000000
0.536870 0.266721 0.000000
0.595565 0.291167 0.000000
0.646616 0.312430 0.000000
0.691649 0.331187 0.000000
0.731948 0.347971 0.000000
0.768045 0.363006 0.000000
0.800325 0.376450 0.000000
0.829591 0.388640 0.000000
0.855748 0.399535 0.000000
0.879373 0.409374 0.000000
0.900790 0.418294 0.000000
0.920301 0.426421 0.000000
0.938264 0.433903 0.000000
0.954756 0.440772 0.000000
0.970281 0.447238 0.000000
0.985422 0.453544 0.000000
1.000000 0.459616 0.000000
0.000000 0.090991 0.037898
0.000000 0.090991 0.037898
0.000000 0.090991 0.037898
0.000000 0.090991 0.037898
0.000000 0.090991 0.037898
0.000000 0.090991 0.037898
0.000000 0.090991 0.037898
0.000000 0.090991 0.034184
0.000000 0.090991 0.014362
0.020814 0.090991 0.000000
0.091629 0.115327 0.000000
0.198019 0.173466 0.000000
0.298229 0.215204 0.000000
0.390212 0.253515 0.000000
0.469181 0.286406 0.000000
0.536870 0.314599 0.000000
0.595565 0.339046 0.000000
0.646616 0.360309 0.000000
0.691649 0.379065 0.000000
0.731948 0.395850 0.000000
0.768045 0.410884 0.000000
0.800325 0.424329 0.000000
0.829591 0.436518 0.000000
0.855748 0.447413 0.000000
0.879373 0.457253 0.000000
0.900790 0.466173 0.000000
0.920301 0.474299 0.000000
0.938264 0.481781 0.000000
0.954756 0.488650 0.000000
0.970281 0.495116 0.000000
0.985422 0.501423 0.000000
1.000000 0.507494 0.000000
0.000000 0.165770 0.069044
0.000000 0.165770 0.069044
0.000000 0.165770 0.069044
0.000000 0.165770 0.069044
0.000000 0.165770 0.069044
0.000000 0.165770 0.069044
0.000000 0.165770 0.069044
0.000000 0.165770 0.065330
0.000000 0.165770 0.045507
0.000000 0.165770 0.010332
0.046283 0.165770 0.000000
0.147793 0.198019 0.000000
0.298229 0.289983 0.000000
0.390212 0.328295 0.000000
0.469181 0.361186 0.000000
0.536870 0.389378 0.000000
0.595565 0.413825 0.000000
0.646616 0.435088 0.000000
0.691649 0.453844 0.000000
0.731948 0.470629 0.000000
0.768045 0.485664 0.000000
0.800325 0.499108 0.000000
0.829591 0.511298 0.000000
0.855748 0.522192 0.000000
0.879373 0.532032 0.000000
0.900790 0.540952 0.000000
0.920301 0.549079 0.000000
0.938264 0.556560 0.000000
0.954756 0.563430 0.000000
0.970281 0.569895 0.000000
0.985422 0.576202 0.000000
1.000000 0.582274 0.000000
0.000000 0.261028 0.108719
0.000000 0.261028 0.108719
0.000000 0.261028 0.108719
0.000000 0.261028 0.108719
0.000000 0.261028 0.108719
0.000000 0.261028 0.108719
0.000000 0.261028 0.108719
0.000000 0.261028 0.105006
0.000000 0.261028 0.085183
0.000000 0.261028 0.050007
0.006607 0.261028 0.000000
0.089300 0.261028 0.000000
0.211217 0.298229 0.000000
0.356871 0.390212 0.000000
0.469181 0.456444 0.000000
0.536870 0.484637 0.000000
0.595565 0.509083 0.000000
0.646616 0.530347 0.000000
0.691649 0.549103 0.000000
0.731948 0.565888 0.000000
0.768045 0.580922 0.000000
0.800325 0.594367 0.000000
0.829591 0.606556 0.000000
0.855748 0.617451 0.000000
0.879373 0.627291 0.000000
0.900790 0.636211 0.000000
0.920301 0.644337 0.000000
0.938264 0.651819 0.000000
0.954756 0.658688 0.000000
0.970281 0.665154 0.000000
0.985422 0.671461 0.000000
1.000000 0.677532 0.000000
0.000000 0.351882 0.146560
0.000000 0.351882 0.146560
0.000000 0.351882 0.146560
0.000000 0.351882 0.146560
0.000000 0.351882 0.146560
0.000000 0.351882 0.146560
0.000000 0.351882 0.146560
0.000000 0.351882 0.142847
0.000000 0.351882 0.123024
0.000000 0.351882 0.087848
0.000000 0.351882 0.031233
0.051459 0.351882 0.000000
0.151669 0.351882 0.000000
0.266017 0.390212 0.000000
0.391064 0.469181 0.000000
0.498250 0.536870 0.000000
0.591193 0.595565 0.000000
0.646616 0.621200 0.000000
0.691649 0.639957 0.000000
0.731948 0.656741 0.000000
0.768045 0.671776 0.000000
0.800325 0.685220 0.000000
0.829591 0.697410 0.000000
0.855748 0.708304 0.000000
0.879373 0.718144 0.000000
0.900790 0.727064 0.000000
0.920301 0.735191 0.000000
0.938264 0.742673 0.000000
0.954756 0.749542 0.000000
0.970281 0.756008 0.000000
0.985422 0.762314 0.000000
1.000000 0.768386 0.000000
0.000000 0.431583 0.179756
0.000000 0.431583 0.179756
0.000000 0.431583 0.179756
0.000000 0.431583 0.179756
0.000000 0.431583 0.179756
0.000000 0.431583 0.179756
0.000000 0.431583 0.179756
0.000000 0.431583 0.176043
0.000000 0.431583 0.156220
0.000000 0.431583 0.121044
0.000000 0.431583 0.064429
0.018263 0.431583 0.000000
0.118473 0.431583 0.000000
0.210456 0.431583 0.000000
0.311363 0.469181 0.000000
0.418549 0.536870 0.000000
0.511492 0.595565 0.000000
0.592331 0.646616 0.000000
0.663640 0.691649 0.000000
0.727454 0.731948 0.000000
0.768045 0.751477 0.000000
0.800325 0.764922 0.000000
0.829591 0.777111 0.000000
0.855748 0.788006 0.000000
0.879373 0.797846 0.000000
0.900790 0.806766 0.000000
0.920301 0.814892 0.000000
0.938264 0.822374 0.000000
0.954756 0.829243 0.000000
0.970281 0.835709 0.000000
0.985422 0.842016 0.000000
1.000000 0.848087 0.000000
0.000000 0.501397 0.208834
0.000000 0.501397 0.208834
0.000000 0.501397 0.208834
0.000000 0.501397 0.208834
0.000000 0.501397 0.208834
0.000000 0.501397 0.208834
0.000000 0.501397 0.208834
0.000000 0.501397 0.205120
0.000000 0.501397 0.185297
0.000000 0.501397 0.150122
0.000000 0.501397 0.093507
0.000000 0.501397 0.010814
0.089396 0.501397 0.000000
0.181378 0.501397 0.000000
0.260347 0.501397 0.000000
0.348736 0.536870 0.000000
0.441678 0.595565 0.000000
0.522518 0.646616 0.000000
0.593827 0.691649 0.000000
0.657640 0.731948 0.000000
0.714800 0.768045 0.000000
0.765914 0.800325 0.000000
0.812257 0.829591 0.000000
0.853677 0.855748 0.000000
0.879373 0.867659 0.000000
0.900790 0.876579 0.000000
0.920301 0.884706 0.000000
0.938264 0.892187 0.000000
0.954756 0.899056 0.000000
0.970281 0.905522 0.000000
0.985422 0.911829 0.000000
1.000000 0.917901 0.000000
0.000000 0.562576 0.234315
0.000000 0.562576 0.234315
0.000000 0.562576 0.234315
0.000000 0.562576 0.234315
0.000000 0.562576 0.234315
0.000000 0.562576 0.234315
0.000000 0.562576 0.234315
0.000000 0.562576 0.230601
0.000000 0.562576 0.210779
0.000000 0.562576 0.175603
0.000000 0.562576 0.118988
0.000000 0.562576 0.036296
0.063914 0.562576 0.000000
0.155897 0.562576 0.000000
0.234866 0.562576 0.000000
0.302555 0.562576 0.000000
0.380499 0.595565 0.000000
0.461339 0.646616 0.000000
0.532648 0.691649 0.000000
0.596461 0.731948 0.000000
0.653621 0.768045 0.000000
0.704736 0.800325 0.000000
0.751078 0.829591 0.000000
0.792498 0.855748 0.000000
0.829908 0.879373 0.000000
0.863821 0.900790 0.000000
0.894717 0.920301 0.000000
0.923162 0.938264 0.000000
0.949277 0.954756 0.000000
0.970281 0.966701 0.000000
0.985422 0.973008 0.000000
1.000000 0.979079 0.000000
0.000000 0.616420 0.256741
0.000000 0.616420 0.256741
0.000000 0.616420 0.256741
0.000000 0.616420 0.256741
0.000000 0.616420 0.256741
0.000000 0.616420 0.256741
0.000000 0.616420 0.256741
0.000000 0.616420 0.253028
0.000000 0.616420 0.233205
0.000000 0.616420 0.198030
0.000000 0.616420 0.141415
0.000000 0.616420 0.058722
0.041488 0.616420 0.000000
0.133470 0.616420 0.000000
0.212439 0.616420 0.000000
0.280129 0.616420 0.000000
0.338824 0.616420 0.000000
0.407494 0.646616 0.000000
0.478803 0.691649 0.000000
0.542617 0.731948 0.000000
0.599777 0.768045 0.000000
0.650891 0.800325 0.000000
0.697233 0.829591 0.000000
0.738654 0.855748 0.000000
0.776064 0.879373 0.000000
0.809976 0.900790 0.000000
0.840872 0.920301 0.000000
0.869317 0.938264 0.000000
0.895432 0.954756 0.000000
0.920015 0.970281 0.000000
0.943992 0.985422 0.000000
0.967076 1.000000 0.000000
0.000000 0.664196 0.276640
0.000000 0.664196 0.276640
0.000000 0.664196 0.276640
0.000000 0.664196 0.276640
0.000000 0.664196 0.276640
0.000000 0.664196 0.276640
0.000000 0.664196 0.276640
0.000000 0.664196 0.272927
0.000000 0.664196 0.253104
0.000000 0.664196 0.217928
0.000000 0.664196 0.161314
0.000000 0.664196 0.078621
0.021589 0.664196 0.000000
0.113572 0.664196 0.000000
0.192541 0.664196 0.000000
0.260230 0.664196 0.000000
0.318925 0.664196 0.000000
0.369976 0.664196 0.000000
0.431027 0.691649 0.000000
0.494841 0.731948 0.000000
0.552001 0.768045 0.000000
0.603115 0.800325 0.000000
0.649457 0.829591 0.000000
0.690878 0.855748 0.000000
0.728288 0.879373 0.000000
0.762201 0.900790 0.000000
0.793096 0.920301 0.000000
0.821541 0.938264 0.000000
0.847656 0.954756 0.000000
0.872239 0.970281 0.000000
0.896216 0.985422 0.000000
0.919300 1.000000 0.000000
0.000000 0.707163 0.294536
0.000000 0.707163 0.294536
0.000000 0.707163 0.294536
0.000000 0.707163 0.294536
0.000000 0.707163 0.294536
0.000000 0.707163 0.294536
0.000000 0.707163 0.294536
0.000000 0.707163 0.290823
0.000000 0.707163 0.271000
0.000000 0.707163 0.235824
0.000000 0.707163 0.179210
0.000000 0.707163 0.096517
0.003693 0.707163 0.000000
0.095676 0.707163 0.000000
0.174645 0.707163 0.000000
0.242334 0.707163 0.000000
0.301029 0.707163 0.000000
0.352080 0.707163 0.000000
0.397113 0.707163 0.000000
0.451874 0.731948 0.000000
0.509033 0.768045 0.000000
0.560148 0.800325 0.000000
0.606490 0.829591 0.000000
0.647911 0.855748 0.000000
0.685321 0.879373 0.000000
0.719234 0.900790 0.000000
0.750129 0.920301 0.000000
0.778574 0.938264 0.000000
0.804690 0.954756 0.000000
0.829272 0.970281 0.000000
0.853249 0.985422 0.000000
0.876333 1.000000 0.000000
0.000000 0.745978 0.310703
0.000000 0.745978 0.310703
0.000000 0.745978 0.310703
0.000000 0.745978 0.310703
0.000000 0.745978 0.310703
0.000000 0.745978 0.310703
0.000000 0.745978 0.310703
0.000000 0.745978 0.306989
0.000000 0.745978 0.287166
0.000000 0.745978 0.251991
0.000000 0.745978 0.195376
0.000000 0.745978 0.112684
0.000000 0.745978 0.012474
0.079509 0.745978 0.000000
0.158478 0.745978 0.000000
0.226168 0.745978 0.000000
0.284862 0.745978 0.000000
0.335913 0.745978 0.000000
0.380946 0.745978 0.000000
0.421245 0.745978 0.000000
0.470219 0.768045 0.000000
0.521333 0.800325 0.000000
0.567675 0.829591 0.000000
0.609096 0.855748 0.000000
0.646506 0.879373 0.000000
0.680419 0.900790 0.000000
0.711314 0.920301 0.000000
0.739759 0.938264 0.000000
0.765875 0.954756 0.000000
0.790457 0.970281 0.000000
0.814434 0.985422 0.000000
0.837518 1.000000 0.000000
0.000000 0.781068 0.325318
0.000000 0.781068 0.325318
0.000000 0.781068 0.325318
0.000000 0.781068 0.325318
0.000000 0.781068 0.325318
0.000000 0.781068 0.325318
0.000000 0.781068 0.325318
0.000000 0.781068 0.321604
0.000000 0.781068 0.301782
0.000000 0.781068 0.266606
0.000000 0.781068 0.209991
0.000000 0.781068 0.127299
0.000000 0.781068 0.027089
0.064894 0.781068 0.000000
0.143863 0.781068 0.000000
0.211552 0.781068 0.000000
0.270247 0.781068 0.000000
0.321298 0.781068 0.000000
0.366331 0.781068 0.000000
0.406630 0.781068 0.000000
0.442728 0.781068 0.000000
0.486243 0.800325 0.000000
0.532585 0.829591 0.000000
0.574006 0.855748 0.000000
0.611416 0.879373 0.000000
0.645329 0.900790 0.000000
0.676224 0.920301 0.000000
0.704669 0.938264 0.000000
0.730785 0.954756 0.000000
0.755367 0.970281 0.000000
0.779344 0.985422 0.000000
0.802428 1.000000 0.000000
0.000000 0.812710 0.338497
0.000000 0.812710 0.338497
0.000000 0.812710 0.338497
0.000000 0.812710 0.338497
0.000000 0.812710 0.338497
0.000000 0.812710 0.338497
0.000000 0.812710 0.338497
0.000000 0.812710 0.334783
0.000000 0.812710 0.314961
0.000000 0.812710 0.279785
0.000000 0.812710 0.223170
0.000000 0.812710 0.140478
0.000000 0.812710 0.040268
0.051715 0.812710 0.000000
0.130684 0.812710 0.000000
0.198373 0.812710 0.000000
0.257068 0.812710 0.000000
0.308119 0.812710 0.000000
0.353152 0.812710 0.000000
0.393451 0.812710 0.000000
0.429548 0.812710 0.000000
0.461828 0.812710 0.000000
0.500943 0.829591 0.000000
0.542364 0.855748 0.000000
0.579774 0.879373 0.000000
0.613687 0.900790 0.000000
0.644582 0.920301 0.000000
0.673027 0.938264 0.000000
0.699143 0.954756 0.000000
0.723725 0.970281 0.000000
0.747702 0.985422 0.000000
0.770786 1.000000 0.000000
0.000000 0.841270 0.350392
0.000000 0.841270 0.350392
0.000000 0.841270 0.350392
0.000000 0.841270 0.350392
0.000000 0.841270 0.350392
0.000000 0.841270 0.350392
0.000000 0.841270 0.350392
0.000000 0.841270 0.346679
0.000000 0.841270 0.326856
0.000000 0.841270 0.291681
0.000000 0.841270 0.235066
0.000000 0.841270 0.152373
0.000000 0.841270 0.052163
0.039820 0.841270 0.000000
0.118788 0.841270 0.000000
0.186478 0.841270 0.000000
0.245173 0.841270 0.000000
0.296224 0.841270 0.000000
0.341257 0.841270 0.000000
0.381556 0.841270 0.000000
0.417653 0.841270 0.000000
0.449932 0.841270 0.000000
0.479198 0.841270 0.000000
0.513803 0.855748 0.000000
0.551213 0.879373 0.000000
0.585126 0.900790 0.000000
0.616022 0.920301 0.000000
0.644467 0.938264 0.000000
0.670582 0.954756 0.000000
0.695165 0.970281 0.000000
0.719142 0.985422 0.000000
0.742226 1.000000 0.000000
0.000000 0.867115 0.361157
0.000000 0.867115 0.361157
0.000000 0.867115 0.361157
0.000000 0.867115 0.361157
0.000000 0.867115 0.361157
0.000000 0.867115 0.361157
0.000000 0.867115 0.361157
0.000000 0.867115 0.357443
0.000000 0.867115 0.337620
0.000000 0.867115 0.302445
0.000000 0.867115 0.245830
0.000000 0.867115 0.163138
0.000000 0.867115 0.062928
0.029055 0.867115 0.000000
0.108024 0.867115 0.000000
0.175714 0.867115 0.000000
0.234408 0.867115 0.000000
0.285459 0.867115 0.000000
0.330492 0.867115 0.000000
0.370791 0.867115 0.000000
0.406889 0.867115 0.000000
0.439168 0.867115 0.000000
0.468434 0.867115 0.000000
0.494591 0.867115 0.000000
0.525369 0.879373 0.000000
0.559282 0.900790 0.000000
0.590177 0.920301 0.000000
0.618622 0.938264 0.000000
0.644738 0.954756 0.000000
0.669320 0.970281 0.000000
0.693297 0.985422 0.000000
0.716381 1.000000 0.000000
0.000000 0.890549 0.370917
0.000000 0.890549 0.370917
0.000000 0.890549 0.370917
0.000000 0.890549 0.370917
0.000000 0.890549 0.370917
0.000000 0.890549 0.370917
0.000000 0.890549 0.370917
0.000000 0.890549 0.367204
0.000000 0.890549 0.347381
0.000000 0.890549 0.312205
0.000000 0.890549 0.255591
0.000000 0.890549 0.172898
0.000000 0.890549 0.072688
0.019295 0.890549 0.000000
0.098264 0.890549 0.000000
0.165953 0.890549 0.000000
0.224648 0.890549 0.000000
0.275699 0.890549 0.000000
0.320732 0.890549 0.000000
0.361031 0.890549 0.000000
0.397128 0.890549 0.000000
0.429407 0.890549 0.000000
0.458673 0.890549 0.000000
0.484831 0.890549 0.000000
0.508456 0.890549 0.000000
0.535848 0.900790 0.000000
0.566743 0.920301 0.000000
0.595188 0.938264 0.000000
0.621304 0.954756 0.000000
0.645886 0.970281 0.000000
0.669863 0.985422 0.000000
0.692947 1.000000 0.000000
0.000000 0.911939 0.379826
0.000000 0.911939 0.379826
0.000000 0.911939 0.379826
0.000000 0.911939 0.379826
0.000000 0.911939 0.379826
0.000000 0.911939 0.379826
0.000000 0.911939 0.379826
0.000000 0.911939 0.376112
0.000000 0.911939 0.356290
0.000000 0.911939 0.321114
0.000000 0.911939 0.264499
0.000000 0.911939 0.181807
0.000000 0.911939 0.081597
0.010386 0.911939 0.000000
0.089355 0.911939 0.000000
0.157044 0.911939 0.000000
0.215739 0.911939 0.000000
0.266790 0.911939 0.000000
0.311823 0.911939 0.000000
0.352122 0.911939 0.000000
0.388219 0.911939 0.000000
0.420499 0.911939 0.000000
0.449764 0.911939 0.000000
0.475922 0.911939 0.000000
0.499547 0.911939 0.000000
0.520964 0.911939 0.000000
0.545354 0.920301 0.000000
0.573798 0.938264 0.000000
0.599914 0.954756 0.000000
0.624497 0.970281 0.000000
0.648473 0.985422 0.000000
0.671557 1.000000 0.000000
0.000000 0.931589 0.388011
0.000000 0.931589 0.388011
0.000000 0.931589 0.388011
0.000000 0.931589 0.388011
0.000000 0.931589 0.388011
0.000000 0.931589 0.388011
0.000000 0.931589 0.388011
0.000000 0.931589 0.384297
0.000000 0.931589 0.364474
0.000000 0.931589 0.329299
0.000000 0.931589 0.272684
0.000000 0.931589 0.189991
0.000000 0.931589 0.089781
0.002201 0.931589 0.000000
0.081170 0.931589 0.000000
0.148860 0.931589 0.000000
0.207554 0.931589 0.000000
0.258606 0.931589 0.000000
