astoria-game/Assets/Environment/Maps/LUTs/Grade4.CUBE
#Created by: Adobe Photoshop Export Color Lookup Plugin
TITLE "Frame2.psd"
#LUT size
LUT_3D_SIZE 32
#data domain
DOMAIN_MIN 0.0 0.0 0.0
DOMAIN_MAX 1.0 1.0 1.0
#LUT data points
0.000000 0.000000 0.000000
0.000818 0.000000 0.000000
0.001672 0.000000 0.000000
0.002599 0.000000 0.000000
0.003635 0.000000 0.000000
0.004860 0.000000 0.000000
0.006725 0.000000 0.000000
0.009877 0.000000 0.000000
0.014964 0.000000 0.000000
0.022635 0.000000 0.000000
0.034708 0.000000 0.000000
0.077776 0.000000 0.000000
0.201056 0.000000 0.000000
0.390510 0.000000 0.000000
0.542047 0.000000 0.000000
0.634510 0.000000 0.000000
0.694088 0.000000 0.000000
0.742065 0.000000 0.000000
0.782740 0.000000 0.000000
0.817020 0.000000 0.000000
0.845811 0.000000 0.000000
0.870021 0.000000 0.000000
0.890556 0.000000 0.000000
0.908323 0.000000 0.000000
0.924064 0.000000 0.000000
0.938092 0.000000 0.000000
0.950653 0.000000 0.000000
0.961990 0.000000 0.000000
0.972349 0.000000 0.000000
0.981974 0.000000 0.000000
0.991109 0.000000 0.000000
1.000000 0.000000 0.000000
0.000000 0.000818 0.000000
0.000818 0.000818 0.000000
0.001672 0.000818 0.000000
0.002599 0.000818 0.000000
0.003635 0.000818 0.000000
0.004860 0.000818 0.000000
0.006725 0.000818 0.000000
0.009877 0.000818 0.000000
0.014964 0.000818 0.000000
0.022635 0.000818 0.000000
0.034708 0.000818 0.000000
0.077776 0.000818 0.000000
0.201056 0.000818 0.000000
0.390510 0.000818 0.000000
0.542047 0.000818 0.000000
0.634510 0.000818 0.000000
0.694088 0.000818 0.000000
0.742065 0.000818 0.000000
0.782740 0.000818 0.000000
0.817020 0.000818 0.000000
0.845811 0.000818 0.000000
0.870021 0.000818 0.000000
0.890556 0.000818 0.000000
0.908323 0.000818 0.000000
0.924064 0.000818 0.000000
0.938092 0.000818 0.000000
0.950653 0.000818 0.000000
0.961990 0.000818 0.000000
0.972349 0.000818 0.000000
0.981974 0.000818 0.000000
0.991109 0.000818 0.000000
1.000000 0.000818 0.000000
0.000000 0.001672 0.000000
0.000818 0.001672 0.000000
0.001672 0.001672 0.000000
0.002599 0.001672 0.000000
0.003635 0.001672 0.000000
0.004860 0.001672 0.000000
0.006725 0.001672 0.000000
0.009877 0.001672 0.000000
0.014964 0.001672 0.000000
0.022635 0.001672 0.000000
0.034708 0.001672 0.000000
0.077776 0.001672 0.000000
0.201056 0.001672 0.000000
0.390510 0.001672 0.000000
0.542047 0.001672 0.000000
0.634510 0.001672 0.000000
0.694088 0.001672 0.000000
0.742065 0.001672 0.000000
0.782740 0.001672 0.000000
0.817020 0.001672 0.000000
0.845811 0.001672 0.000000
0.870021 0.001672 0.000000
0.890556 0.001672 0.000000
0.908323 0.001672 0.000000
0.924064 0.001672 0.000000
0.938092 0.001672 0.000000
0.950653 0.001672 0.000000
0.961990 0.001672 0.000000
0.972349 0.001672 0.000000
0.981974 0.001672 0.000000
0.991109 0.001672 0.000000
1.000000 0.001672 0.000000
0.000000 0.002599 0.000000
0.000818 0.002599 0.000000
0.001672 0.002599 0.000000
0.002599 0.002599 0.000000
0.003635 0.002599 0.000000
0.004860 0.002599 0.000000
0.006725 0.002599 0.000000
0.009877 0.002599 0.000000
0.014964 0.002599 0.000000
0.022635 0.002599 0.000000
0.034708 0.002599 0.000000
0.077776 0.002599 0.000000
0.201056 0.002599 0.000000
0.390510 0.002599 0.000000
0.542047 0.002599 0.000000
0.634510 0.002599 0.000000
0.694088 0.002599 0.000000
0.742065 0.002599 0.000000
0.782740 0.002599 0.000000
0.817020 0.002599 0.000000
0.845811 0.002599 0.000000
0.870021 0.002599 0.000000
0.890556 0.002599 0.000000
0.908323 0.002599 0.000000
0.924064 0.002599 0.000000
0.938092 0.002599 0.000000
0.950653 0.002599 0.000000
0.961990 0.002599 0.000000
0.972349 0.002599 0.000000
0.981974 0.002599 0.000000
0.991109 0.002599 0.000000
1.000000 0.002599 0.000000
0.000000 0.003635 0.000000
0.000818 0.003635 0.000000
0.001672 0.003635 0.000000
0.002599 0.003635 0.000000
0.003635 0.003635 0.000000
0.004860 0.003635 0.000000
0.006725 0.003635 0.000000
0.009877 0.003635 0.000000
0.014964 0.003635 0.000000
0.022635 0.003635 0.000000
0.034708 0.003635 0.000000
0.077776 0.003635 0.000000
0.201056 0.003635 0.000000
0.390510 0.003635 0.000000
0.542047 0.003635 0.000000
0.634510 0.003635 0.000000
0.694088 0.003635 0.000000
0.742065 0.003635 0.000000
0.782740 0.003635 0.000000
0.817020 0.003635 0.000000
0.845811 0.003635 0.000000
0.870021 0.003635 0.000000
0.890556 0.003635 0.000000
0.908323 0.003635 0.000000
0.924064 0.003635 0.000000
0.938092 0.003635 0.000000
0.950653 0.003635 0.000000
0.961990 0.003635 0.000000
0.972349 0.003635 0.000000
0.981974 0.003635 0.000000
0.991109 0.003635 0.000000
1.000000 0.003635 0.000000
0.000000 0.004860 0.000000
0.000818 0.004860 0.000000
0.001672 0.004860 0.000000
0.002599 0.004860 0.000000
0.003635 0.004860 0.000000
0.004860 0.004860 0.000000
0.006725 0.004860 0.000000
0.009877 0.004860 0.000000
0.014964 0.004860 0.000000
0.022635 0.004860 0.000000
0.034708 0.004860 0.000000
0.077776 0.004860 0.000000
0.201056 0.004860 0.000000
0.390510 0.004860 0.000000
0.542047 0.004860 0.000000
0.634510 0.004860 0.000000
0.694088 0.004860 0.000000
0.742065 0.004860 0.000000
0.782740 0.004860 0.000000
0.817020 0.004860 0.000000
0.845811 0.004860 0.000000
0.870021 0.004860 0.000000
0.890556 0.004860 0.000000
0.908323 0.004860 0.000000
0.924064 0.004860 0.000000
0.938092 0.004860 0.000000
0.950653 0.004860 0.000000
0.961990 0.004860 0.000000
0.972349 0.004860 0.000000
0.981974 0.004860 0.000000
0.991109 0.004860 0.000000
1.000000 0.004860 0.000000
0.000000 0.006725 0.000000
0.000818 0.006725 0.000000
0.001672 0.006725 0.000000
0.002599 0.006725 0.000000
0.003635 0.006725 0.000000
0.004860 0.006725 0.000000
0.006725 0.006725 0.000000
0.009877 0.006725 0.000000
0.014964 0.006725 0.000000
0.022635 0.006725 0.000000
0.034708 0.006725 0.000000
0.077776 0.006725 0.000000
0.201056 0.006725 0.000000
0.390510 0.006725 0.000000
0.542047 0.006725 0.000000
0.634510 0.006725 0.000000
0.694088 0.006725 0.000000
0.742065 0.006725 0.000000
0.782740 0.006725 0.000000
0.817020 0.006725 0.000000
0.845811 0.006725 0.000000
0.870021 0.006725 0.000000
0.890556 0.006725 0.000000
0.908323 0.006725 0.000000
0.924064 0.006725 0.000000
0.938092 0.006725 0.000000
0.950653 0.006725 0.000000
0.961990 0.006725 0.000000
0.972349 0.006725 0.000000
0.981974 0.006725 0.000000
0.991109 0.006725 0.000000
1.000000 0.006725 0.000000
0.000000 0.009877 0.000000
0.000818 0.009877 0.000000
0.001672 0.009877 0.000000
0.002599 0.009877 0.000000
0.003635 0.009877 0.000000
0.004860 0.009877 0.000000
0.006725 0.009877 0.000000
0.009877 0.009877 0.000000
0.014964 0.009877 0.000000
0.022635 0.009877 0.000000
0.034708 0.009877 0.000000
0.077776 0.009877 0.000000
0.201056 0.009877 0.000000
0.390510 0.009877 0.000000
0.542047 0.009877 0.000000
0.634510 0.009877 0.000000
0.694088 0.009877 0.000000
0.742065 0.009877 0.000000
0.782740 0.009877 0.000000
0.817020 0.009877 0.000000
0.845811 0.009877 0.000000
0.870021 0.009877 0.000000
0.890556 0.009877 0.000000
0.908323 0.009877 0.000000
0.924064 0.009877 0.000000
0.938092 0.009877 0.000000
0.950653 0.009877 0.000000
0.961990 0.009877 0.000000
0.972349 0.009877 0.000000
0.981974 0.009877 0.000000
0.991109 0.009877 0.000000
1.000000 0.009877 0.000000
0.000000 0.014964 0.000000
0.000818 0.014964 0.000000
0.001672 0.014964 0.000000
0.002599 0.014964 0.000000
0.003635 0.014964 0.000000
0.004860 0.014964 0.000000
0.006725 0.014964 0.000000
0.009877 0.014964 0.000000
0.014964 0.014964 0.000000
0.022635 0.014964 0.000000
0.034708 0.014964 0.000000
0.077776 0.014964 0.000000
0.201056 0.014964 0.000000
0.390510 0.014964 0.000000
0.542047 0.014964 0.000000
0.634510 0.014964 0.000000
0.694088 0.014964 0.000000
0.742065 0.014964 0.000000
0.782740 0.014964 0.000000
0.817020 0.014964 0.000000
0.845811 0.014964 0.000000
0.870021 0.014964 0.000000
0.890556 0.014964 0.000000
0.908323 0.014964 0.000000
0.924064 0.014964 0.000000
0.938092 0.014964 0.000000
0.950653 0.014964 0.000000
0.961990 0.014964 0.000000
0.972349 0.014964 0.000000
0.981974 0.014964 0.000000
0.991109 0.014964 0.000000
1.000000 0.014964 0.000000
0.000000 0.022635 0.000000
0.000818 0.022635 0.000000
0.001672 0.022635 0.000000
0.002599 0.022635 0.000000
0.003635 0.022635 0.000000
0.004860 0.022635 0.000000
0.006725 0.022635 0.000000
0.009877 0.022635 0.000000
0.014964 0.022635 0.000000
0.022635 0.022635 0.000000
0.034708 0.022635 0.000000
0.077776 0.022635 0.000000
0.201056 0.022635 0.000000
0.390510 0.022635 0.000000
0.542047 0.022635 0.000000
0.634510 0.022635 0.000000
0.694088 0.022635 0.000000
0.742065 0.022635 0.000000
0.782740 0.022635 0.000000
0.817020 0.022635 0.000000
0.845811 0.022635 0.000000
0.870021 0.022635 0.000000
0.890556 0.022635 0.000000
0.908323 0.022635 0.000000
0.924064 0.022635 0.000000
0.938092 0.022635 0.000000
0.950653 0.022635 0.000000
0.961990 0.022635 0.000000
0.972349 0.022635 0.000000
0.981974 0.022635 0.000000
0.991109 0.022635 0.000000
1.000000 0.022635 0.000000
0.000000 0.034708 0.000000
0.000818 0.034708 0.000000
0.001672 0.034708 0.000000
0.002599 0.034708 0.000000
0.003635 0.034708 0.000000
0.004860 0.034708 0.000000
0.006725 0.034708 0.000000
0.009877 0.034708 0.000000
0.014964 0.034708 0.000000
0.022635 0.034708 0.000000
0.034708 0.034708 0.000000
0.077776 0.034708 0.000000
0.201056 0.034708 0.000000
0.390510 0.034708 0.000000
0.542047 0.034708 0.000000
0.634510 0.034708 0.000000
0.694088 0.034708 0.000000
0.742065 0.034708 0.000000
0.782740 0.034708 0.000000
0.817020 0.034708 0.000000
0.845811 0.034708 0.000000
0.870021 0.034708 0.000000
0.890556 0.034708 0.000000
0.908323 0.034708 0.000000
0.924064 0.034708 0.000000
0.938092 0.034708 0.000000
0.950653 0.034708 0.000000
0.961990 0.034708 0.000000
0.972349 0.034708 0.000000
0.981974 0.034708 0.000000
0.991109 0.034708 0.000000
1.000000 0.034708 0.000000
0.000000 0.077776 0.000000
0.000818 0.077776 0.000000
0.001672 0.077776 0.000000
0.002599 0.077776 0.000000
0.003635 0.077776 0.000000
0.004860 0.077776 0.000000
0.006725 0.077776 0.000000
0.009877 0.077776 0.000000
0.014964 0.077776 0.000000
0.022635 0.077776 0.000000
0.034708 0.077776 0.000000
0.077776 0.077776 0.000000
0.201056 0.077776 0.000000
0.390510 0.077776 0.000000
0.542047 0.077776 0.000000
0.634510 0.077776 0.000000
0.694088 0.077776 0.000000
0.742065 0.077776 0.000000
0.782740 0.077776 0.000000
0.817020 0.077776 0.000000
0.845811 0.077776 0.000000
0.870021 0.077776 0.000000
0.890556 0.077776 0.000000
0.908323 0.077776 0.000000
0.924064 0.077776 0.000000
0.938092 0.077776 0.000000
0.950653 0.077776 0.000000
0.961990 0.077776 0.000000
0.972349 0.077776 0.000000
0.981974 0.077776 0.000000
0.991109 0.077776 0.000000
1.000000 0.077776 0.000000
0.000000 0.201056 0.000000
0.000818 0.201056 0.000000
0.001672 0.201056 0.000000
0.002599 0.201056 0.000000
0.003635 0.201056 0.000000
0.004860 0.201056 0.000000
0.006725 0.201056 0.000000
0.009877 0.201056 0.000000
0.014964 0.201056 0.000000
0.022635 0.201056 0.000000
0.034708 0.201056 0.000000
0.077776 0.201056 0.000000
0.201056 0.201056 0.000000
0.390510 0.201056 0.000000
0.542047 0.201056 0.000000
0.634510 0.201056 0.000000
0.694088 0.201056 0.000000
0.742065 0.201056 0.000000
0.782740 0.201056 0.000000
0.817020 0.201056 0.000000
0.845811 0.201056 0.000000
0.870021 0.201056 0.000000
0.890556 0.201056 0.000000
0.908323 0.201056 0.000000
0.924064 0.201056 0.000000
0.938092 0.201056 0.000000
0.950653 0.201056 0.000000
0.961990 0.201056 0.000000
0.972349 0.201056 0.000000
0.981974 0.201056 0.000000
0.991109 0.201056 0.000000
1.000000 0.201056 0.000000
0.000000 0.390510 0.000000
0.000818 0.390510 0.000000
0.001672 0.390510 0.000000
0.002599 0.390510 0.000000
0.003635 0.390510 0.000000
0.004860 0.390510 0.000000
0.006725 0.390510 0.000000
0.009877 0.390510 0.000000
0.014964 0.390510 0.000000
0.022635 0.390510 0.000000
0.034708 0.390510 0.000000
0.077776 0.390510 0.000000
0.201056 0.390510 0.000000
0.390510 0.390510 0.000000
0.542047 0.390510 0.000000
0.634510 0.390510 0.000000
0.694088 0.390510 0.000000
0.742065 0.390510 0.000000
0.782740 0.390510 0.000000
0.817020 0.390510 0.000000
0.845811 0.390510 0.000000
0.870021 0.390510 0.000000
0.890556 0.390510 0.000000
0.908323 0.390510 0.000000
0.924064 0.390510 0.000000
0.938092 0.390510 0.000000
0.950653 0.390510 0.000000
0.961990 0.390510 0.000000
0.972349 0.390510 0.000000
0.981974 0.390510 0.000000
0.991109 0.390510 0.000000
1.000000 0.390510 0.000000
0.000000 0.542047 0.000000
0.000818 0.542047 0.000000
0.001672 0.542047 0.000000
0.002599 0.542047 0.000000
0.003635 0.542047 0.000000
0.004860 0.542047 0.000000
0.006725 0.542047 0.000000
0.009877 0.542047 0.000000
0.014964 0.542047 0.000000
0.022635 0.542047 0.000000
0.034708 0.542047 0.000000
0.077776 0.542047 0.000000
0.201056 0.542047 0.000000
0.390510 0.542047 0.000000
0.542047 0.542047 0.000000
0.634510 0.542047 0.000000
0.694088 0.542047 0.000000
0.742065 0.542047 0.000000
0.782740 0.542047 0.000000
0.817020 0.542047 0.000000
0.845811 0.542047 0.000000
0.870021 0.542047 0.000000
0.890556 0.542047 0.000000
0.908323 0.542047 0.000000
0.924064 0.542047 0.000000
0.938092 0.542047 0.000000
0.950653 0.542047 0.000000
0.961990 0.542047 0.000000
0.972349 0.542047 0.000000
0.981974 0.542047 0.000000
0.991109 0.542047 0.000000
1.000000 0.542047 0.000000
0.000000 0.634510 0.000000
0.000818 0.634510 0.000000
0.001672 0.634510 0.000000
0.002599 0.634510 0.000000
0.003635 0.634510 0.000000
0.004860 0.634510 0.000000
0.006725 0.634510 0.000000
0.009877 0.634510 0.000000
0.014964 0.634510 0.000000
0.022635 0.634510 0.000000
0.034708 0.634510 0.000000
0.077776 0.634510 0.000000
0.201056 0.634510 0.000000
0.390510 0.634510 0.000000
0.542047 0.634510 0.000000
0.634510 0.634510 0.000000
0.694088 0.634510 0.000000
0.742065 0.634510 0.000000
0.782740 0.634510 0.000000
0.817020 0.634510 0.000000
0.845811 0.634510 0.000000
0.870021 0.634510 0.000000
0.890556 0.634510 0.000000
0.908323 0.634510 0.000000
0.924064 0.634510 0.000000
0.938092 0.634510 0.000000
0.950653 0.634510 0.000000
0.961990 0.634510 0.000000
0.972349 0.634510 0.000000
0.981974 0.634510 0.000000
0.991109 0.634510 0.000000
1.000000 0.634510 0.000000
0.000000 0.694088 0.000000
0.000818 0.694088 0.000000
0.001672 0.694088 0.000000
0.002599 0.694088 0.000000
0.003635 0.694088 0.000000
0.004860 0.694088 0.000000
0.006725 0.694088 0.000000
0.009877 0.694088 0.000000
0.014964 0.694088 0.000000
0.022635 0.694088 0.000000
0.034708 0.694088 0.000000
0.077776 0.694088 0.000000
0.201056 0.694088 0.000000
0.390510 0.694088 0.000000
0.542047 0.694088 0.000000
0.634510 0.694088 0.000000
0.694088 0.694088 0.000000
0.742065 0.694088 0.000000
0.782740 0.694088 0.000000
0.817020 0.694088 0.000000
0.845811 0.694088 0.000000
0.870021 0.694088 0.000000
0.890556 0.694088 0.000000
0.908323 0.694088 0.000000
0.924064 0.694088 0.000000
0.938092 0.694088 0.000000
0.950653 0.694088 0.000000
0.961990 0.694088 0.000000
0.972349 0.694088 0.000000
0.981974 0.694088 0.000000
0.991109 0.694088 0.000000
1.000000 0.694088 0.000000
0.000000 0.742065 0.000000
0.000818 0.742065 0.000000
0.001672 0.742065 0.000000
0.002599 0.742065 0.000000
0.003635 0.742065 0.000000
0.004860 0.742065 0.000000
0.006725 0.742065 0.000000
0.009877 0.742065 0.000000
0.014964 0.742065 0.000000
0.022635 0.742065 0.000000
0.034708 0.742065 0.000000
0.077776 0.742065 0.000000
0.201056 0.742065 0.000000
0.390510 0.742065 0.000000
0.542047 0.742065 0.000000
0.634510 0.742065 0.000000
0.694088 0.742065 0.000000
0.742065 0.742065 0.000000
0.782740 0.742065 0.000000
0.817020 0.742065 0.000000
0.845811 0.742065 0.000000
0.870021 0.742065 0.000000
0.890556 0.742065 0.000000
0.908323 0.742065 0.000000
0.924064 0.742065 0.000000
0.938092 0.742065 0.000000
0.950653 0.742065 0.000000
0.961990 0.742065 0.000000
0.972349 0.742065 0.000000
0.981974 0.742065 0.000000
0.991109 0.742065 0.000000
1.000000 0.742065 0.000000
0.000000 0.782740 0.000000
0.000818 0.782740 0.000000
0.001672 0.782740 0.000000
0.002599 0.782740 0.000000
0.003635 0.782740 0.000000
0.004860 0.782740 0.000000
0.006725 0.782740 0.000000
0.009877 0.782740 0.000000
0.014964 0.782740 0.000000
0.022635 0.782740 0.000000
0.034708 0.782740 0.000000
0.077776 0.782740 0.000000
0.201056 0.782740 0.000000
0.390510 0.782740 0.000000
0.542047 0.782740 0.000000
0.634510 0.782740 0.000000
0.694088 0.782740 0.000000
0.742065 0.782740 0.000000
0.782740 0.782740 0.000000
0.817020 0.782740 0.000000
0.845811 0.782740 0.000000
0.870021 0.782740 0.000000
0.890556 0.782740 0.000000
0.908323 0.782740 0.000000
0.924064 0.782740 0.000000
0.938092 0.782740 0.000000
0.950653 0.782740 0.000000
0.961990 0.782740 0.000000
0.972349 0.782740 0.000000
0.981974 0.782740 0.000000
0.991109 0.782740 0.000000
1.000000 0.782740 0.000000
0.000000 0.817020 0.000000
0.000818 0.817020 0.000000
0.001672 0.817020 0.000000
0.002599 0.817020 0.000000
0.003635 0.817020 0.000000
0.004860 0.817020 0.000000
0.006725 0.817020 0.000000
0.009877 0.817020 0.000000
0.014964 0.817020 0.000000
0.022635 0.817020 0.000000
0.034708 0.817020 0.000000
0.077776 0.817020 0.000000
0.201056 0.817020 0.000000
0.390510 0.817020 0.000000
0.542047 0.817020 0.000000
0.634510 0.817020 0.000000
0.694088 0.817020 0.000000
0.742065 0.817020 0.000000
0.782740 0.817020 0.000000
0.817020 0.817020 0.000000
0.845811 0.817020 0.000000
0.870021 0.817020 0.000000
0.890556 0.817020 0.000000
0.908323 0.817020 0.000000
0.924064 0.817020 0.000000
0.938092 0.817020 0.000000
0.950653 0.817020 0.000000
0.961990 0.817020 0.000000
0.972349 0.817020 0.000000
0.981974 0.817020 0.000000
0.991109 0.817020 0.000000
1.000000 0.817020 0.000000
0.000000 0.845811 0.000000
0.000818 0.845811 0.000000
0.001672 0.845811 0.000000
0.002599 0.845811 0.000000
0.003635 0.845811 0.000000
0.004860 0.845811 0.000000
0.006725 0.845811 0.000000
0.009877 0.845811 0.000000
0.014964 0.845811 0.000000
0.022635 0.845811 0.000000
0.034708 0.845811 0.000000
0.077776 0.845811 0.000000
0.201056 0.845811 0.000000
0.390510 0.845811 0.000000
0.542047 0.845811 0.000000
0.634510 0.845811 0.000000
0.694088 0.845811 0.000000
0.742065 0.845811 0.000000
0.782740 0.845811 0.000000
0.817020 0.845811 0.000000
0.845811 0.845811 0.000000
0.870021 0.845811 0.000000
0.890556 0.845811 0.000000
0.908323 0.845811 0.000000
0.924064 0.845811 0.000000
0.938092 0.845811 0.000000
0.950653 0.845811 0.000000
0.961990 0.845811 0.000000
0.972349 0.845811 0.000000
0.981974 0.845811 0.000000
0.991109 0.845811 0.000000
1.000000 0.845811 0.000000
0.000000 0.870021 0.000000
0.000818 0.870021 0.000000
0.001672 0.870021 0.000000
0.002599 0.870021 0.000000
0.003635 0.870021 0.000000
0.004860 0.870021 0.000000
0.006725 0.870021 0.000000
0.009877 0.870021 0.000000
0.014964 0.870021 0.000000
0.022635 0.870021 0.000000
0.034708 0.870021 0.000000
0.077776 0.870021 0.000000
0.201056 0.870021 0.000000
0.390510 0.870021 0.000000
0.542047 0.870021 0.000000
0.634510 0.870021 0.000000
0.694088 0.870021 0.000000
0.742065 0.870021 0.000000
0.782740 0.870021 0.000000
0.817020 0.870021 0.000000
0.845811 0.870021 0.000000
0.870021 0.870021 0.000000
0.890556 0.870021 0.000000
0.908323 0.870021 0.000000
0.924064 0.870021 0.000000
0.938092 0.870021 0.000000
0.950653 0.870021 0.000000
0.961990 0.870021 0.000000
0.972349 0.870021 0.000000
0.981974 0.870021 0.000000
0.991109 0.870021 0.000000
1.000000 0.870021 0.000000
0.000000 0.890556 0.000000
0.000818 0.890556 0.000000
0.001672 0.890556 0.000000
0.002599 0.890556 0.000000
0.003635 0.890556 0.000000
0.004860 0.890556 0.000000
0.006725 0.890556 0.000000
0.009877 0.890556 0.000000
0.014964 0.890556 0.000000
0.022635 0.890556 0.000000
0.034708 0.890556 0.000000
0.077776 0.890556 0.000000
0.201056 0.890556 0.000000
0.390510 0.890556 0.000000
0.542047 0.890556 0.000000
0.634510 0.890556 0.000000
0.694088 0.890556 0.000000
0.742065 0.890556 0.000000
0.782740 0.890556 0.000000
0.817020 0.890556 0.000000
0.845811 0.890556 0.000000
0.870021 0.890556 0.000000
0.890556 0.890556 0.000000
0.908323 0.890556 0.000000
0.924064 0.890556 0.000000
0.938092 0.890556 0.000000
0.950653 0.890556 0.000000
0.961990 0.890556 0.000000
0.972349 0.890556 0.000000
0.981974 0.890556 0.000000
0.991109 0.890556 0.000000
1.000000 0.890556 0.000000
0.000000 0.908323 0.000000
0.000818 0.908323 0.000000
0.001672 0.908323 0.000000
0.002599 0.908323 0.000000
0.003635 0.908323 0.000000
0.004860 0.908323 0.000000
0.006725 0.908323 0.000000
0.009877 0.908323 0.000000
0.014964 0.908323 0.000000
0.022635 0.908323 0.000000
0.034708 0.908323 0.000000
0.077776 0.908323 0.000000
0.201056 0.908323 0.000000
0.390510 0.908323 0.000000
0.542047 0.908323 0.000000
0.634510 0.908323 0.000000
0.694088 0.908323 0.000000
0.742065 0.908323 0.000000
0.782740 0.908323 0.000000
0.817020 0.908323 0.000000
0.845811 0.908323 0.000000
0.870021 0.908323 0.000000
0.890556 0.908323 0.000000
0.908323 0.908323 0.000000
0.924064 0.908323 0.000000
0.938092 0.908323 0.000000
0.950653 0.908323 0.000000
0.961990 0.908323 0.000000
0.972349 0.908323 0.000000
0.981974 0.908323 0.000000
0.991109 0.908323 0.000000
1.000000 0.908323 0.000000
0.000000 0.924064 0.000000
0.000818 0.924064 0.000000
0.001672 0.924064 0.000000
0.002599 0.924064 0.000000
0.003635 0.924064 0.000000
0.004860 0.924064 0.000000
0.006725 0.924064 0.000000
0.009877 0.924064 0.000000
0.014964 0.924064 0.000000
0.022635 0.924064 0.000000
0.034708 0.924064 0.000000
0.077776 0.924064 0.000000
0.201056 0.924064 0.000000
0.390510 0.924064 0.000000
0.542047 0.924064 0.000000
0.634510 0.924064 0.000000
0.694088 0.924064 0.000000
0.742065 0.924064 0.000000
0.782740 0.924064 0.000000
0.817020 0.924064 0.000000
0.845811 0.924064 0.000000
0.870021 0.924064 0.000000
0.890556 0.924064 0.000000
0.908323 0.924064 0.000000
0.924064 0.924064 0.000000
0.938092 0.924064 0.000000
0.950653 0.924064 0.000000
0.961990 0.924064 0.000000
0.972349 0.924064 0.000000
0.981974 0.924064 0.000000
0.991109 0.924064 0.000000
1.000000 0.924064 0.000000
0.000000 0.938092 0.000000
0.000818 0.938092 0.000000
0.001672 0.938092 0.000000
0.002599 0.938092 0.000000
0.003635 0.938092 0.000000
0.004860 0.938092 0.000000
0.006725 0.938092 0.000000
0.009877 0.938092 0.000000
0.014964 0.938092 0.000000
0.022635 0.938092 0.000000
0.034708 0.938092 0.000000
0.077776 0.938092 0.000000
0.201056 0.938092 0.000000
0.390510 0.938092 0.000000
0.542047 0.938092 0.000000
0.634510 0.938092 0.000000
0.694088 0.938092 0.000000
0.742065 0.938092 0.000000
0.782740 0.938092 0.000000
0.817020 0.938092 0.000000
0.845811 0.938092 0.000000
0.870021 0.938092 0.000000
0.890556 0.938092 0.000000
0.908323 0.938092 0.000000
0.924064 0.938092 0.000000
0.938092 0.938092 0.000000
0.950653 0.938092 0.000000
0.961990 0.938092 0.000000
0.972349 0.938092 0.000000
0.981974 0.938092 0.000000
0.991109 0.938092 0.000000
1.000000 0.938092 0.000000
0.000000 0.950653 0.000000
0.000818 0.950653 0.000000
0.001672 0.950653 0.000000
0.002599 0.950653 0.000000
0.003635 0.950653 0.000000
0.004860 0.950653 0.000000
0.006725 0.950653 0.000000
0.009877 0.950653 0.000000
0.014964 0.950653 0.000000
0.022635 0.950653 0.000000
0.034708 0.950653 0.000000
0.077776 0.950653 0.000000
0.201056 0.950653 0.000000
0.390510 0.950653 0.000000
0.542047 0.950653 0.000000
0.634510 0.950653 0.000000
0.694088 0.950653 0.000000
0.742065 0.950653 0.000000
0.782740 0.950653 0.000000
0.817020 0.950653 0.000000
0.845811 0.950653 0.000000
0.870021 0.950653 0.000000
0.890556 0.950653 0.000000
0.908323 0.950653 0.000000
0.924064 0.950653 0.000000
0.938092 0.950653 0.000000
0.950653 0.950653 0.000000
0.961990 0.950653 0.000000
0.972349 0.950653 0.000000
0.981974 0.950653 0.000000
0.991109 0.950653 0.000000
1.000000 0.950653 0.000000
0.000000 0.961990 0.000000
0.000818 0.961990 0.000000
0.001672 0.961990 0.000000
0.002599 0.961990 0.000000
0.003635 0.961990 0.000000
0.004860 0.961990 0.000000
0.006725 0.961990 0.000000
0.009877 0.961990 0.000000
0.014964 0.961990 0.000000
0.022635 0.961990 0.000000
0.034708 0.961990 0.000000
0.077776 0.961990 0.000000
0.201056 0.961990 0.000000
0.390510 0.961990 0.000000
0.542047 0.961990 0.000000
0.634510 0.961990 0.000000
0.694088 0.961990 0.000000
0.742065 0.961990 0.000000
