astoria-game/Assets/Environment/Maps/LUTs/Grade2.CUBE
#Created by: Adobe Photoshop Export Color Lookup Plugin
TITLE "Grade2"
#LUT size
LUT_3D_SIZE 32
#data domain
DOMAIN_MIN 0.0 0.0 0.0
DOMAIN_MAX 1.0 1.0 1.0
#LUT data points
0.000000 0.000000 0.000000
0.000451 0.000000 0.000000
0.001044 0.000000 0.000000
0.001920 0.000000 0.000000
0.003220 0.000000 0.000000
0.005085 0.000000 0.000000
0.007657 0.000000 0.000000
0.011078 0.000000 0.000000
0.022773 0.000000 0.000000
0.082774 0.000000 0.000000
0.179772 0.000000 0.000000
0.288050 0.000000 0.000000
0.399335 0.000000 0.000000
0.509318 0.000000 0.000000
0.613693 0.000000 0.000000
0.708152 0.000000 0.000000
0.788433 0.000000 0.000000
0.853157 0.000000 0.000000
0.905615 0.000000 0.000000
0.949522 0.000000 0.000000
0.988593 0.000000 0.000000
1.000000 0.000000 0.000000
1.000000 0.000000 0.000000
1.000000 0.000000 0.000000
1.000000 0.000000 0.000000
1.000000 0.000000 0.000000
1.000000 0.000000 0.000000
1.000000 0.000000 0.000000
1.000000 0.000000 0.000000
1.000000 0.000000 0.000000
1.000000 0.000000 0.000000
1.000000 0.000000 0.000000
0.000000 0.000451 0.000000
0.000451 0.000451 0.000000
0.001044 0.000451 0.000000
0.001920 0.000451 0.000000
0.003220 0.000451 0.000000
0.005085 0.000451 0.000000
0.007657 0.000451 0.000000
0.011078 0.000451 0.000000
0.022773 0.000451 0.000000
0.082774 0.000451 0.000000
0.179772 0.000451 0.000000
0.288050 0.000451 0.000000
0.399335 0.000451 0.000000
0.509318 0.000451 0.000000
0.613693 0.000451 0.000000
0.708152 0.000451 0.000000
0.788433 0.000451 0.000000
0.853157 0.000451 0.000000
0.905615 0.000451 0.000000
0.949522 0.000451 0.000000
0.988593 0.000451 0.000000
1.000000 0.000451 0.000000
1.000000 0.000451 0.000000
1.000000 0.000451 0.000000
1.000000 0.000451 0.000000
1.000000 0.000451 0.000000
1.000000 0.000451 0.000000
1.000000 0.000451 0.000000
1.000000 0.000451 0.000000
1.000000 0.000451 0.000000
1.000000 0.000451 0.000000
1.000000 0.000451 0.000000
0.000000 0.001044 0.000000
0.000451 0.001044 0.000000
0.001044 0.001044 0.000000
0.001920 0.001044 0.000000
0.003220 0.001044 0.000000
0.005085 0.001044 0.000000
0.007657 0.001044 0.000000
0.011078 0.001044 0.000000
0.022773 0.001044 0.000000
0.082774 0.001044 0.000000
0.179772 0.001044 0.000000
0.288050 0.001044 0.000000
0.399335 0.001044 0.000000
0.509318 0.001044 0.000000
0.613693 0.001044 0.000000
0.708152 0.001044 0.000000
0.788433 0.001044 0.000000
0.853157 0.001044 0.000000
0.905615 0.001044 0.000000
0.949522 0.001044 0.000000
0.988593 0.001044 0.000000
1.000000 0.001044 0.000000
1.000000 0.001044 0.000000
1.000000 0.001044 0.000000
1.000000 0.001044 0.000000
1.000000 0.001044 0.000000
1.000000 0.001044 0.000000
1.000000 0.001044 0.000000
1.000000 0.001044 0.000000
1.000000 0.001044 0.000000
1.000000 0.001044 0.000000
1.000000 0.001044 0.000000
0.000000 0.001920 0.000000
0.000451 0.001920 0.000000
0.001044 0.001920 0.000000
0.001920 0.001920 0.000000
0.003220 0.001920 0.000000
0.005085 0.001920 0.000000
0.007657 0.001920 0.000000
0.011078 0.001920 0.000000
0.022773 0.001920 0.000000
0.082774 0.001920 0.000000
0.179772 0.001920 0.000000
0.288050 0.001920 0.000000
0.399335 0.001920 0.000000
0.509318 0.001920 0.000000
0.613693 0.001920 0.000000
0.708152 0.001920 0.000000
0.788433 0.001920 0.000000
0.853157 0.001920 0.000000
0.905615 0.001920 0.000000
0.949522 0.001920 0.000000
0.988593 0.001920 0.000000
1.000000 0.001920 0.000000
1.000000 0.001920 0.000000
1.000000 0.001920 0.000000
1.000000 0.001920 0.000000
1.000000 0.001920 0.000000
1.000000 0.001920 0.000000
1.000000 0.001920 0.000000
1.000000 0.001920 0.000000
1.000000 0.001920 0.000000
1.000000 0.001920 0.000000
1.000000 0.001920 0.000000
0.000000 0.003220 0.000000
0.000451 0.003220 0.000000
0.001044 0.003220 0.000000
0.001920 0.003220 0.000000
0.003220 0.003220 0.000000
0.005085 0.003220 0.000000
0.007657 0.003220 0.000000
0.011078 0.003220 0.000000
0.022773 0.003220 0.000000
0.082774 0.003220 0.000000
0.179772 0.003220 0.000000
0.288050 0.003220 0.000000
0.399335 0.003220 0.000000
0.509318 0.003220 0.000000
0.613693 0.003220 0.000000
0.708152 0.003220 0.000000
0.788433 0.003220 0.000000
0.853157 0.003220 0.000000
0.905615 0.003220 0.000000
0.949522 0.003220 0.000000
0.988593 0.003220 0.000000
1.000000 0.003220 0.000000
1.000000 0.003220 0.000000
1.000000 0.003220 0.000000
1.000000 0.003220 0.000000
1.000000 0.003220 0.000000
1.000000 0.003220 0.000000
1.000000 0.003220 0.000000
1.000000 0.003220 0.000000
1.000000 0.003220 0.000000
1.000000 0.003220 0.000000
1.000000 0.003220 0.000000
0.000000 0.005085 0.000000
0.000451 0.005085 0.000000
0.001044 0.005085 0.000000
0.001920 0.005085 0.000000
0.003220 0.005085 0.000000
0.005085 0.005085 0.000000
0.007657 0.005085 0.000000
0.011078 0.005085 0.000000
0.022773 0.005085 0.000000
0.082774 0.005085 0.000000
0.179772 0.005085 0.000000
0.288050 0.005085 0.000000
0.399335 0.005085 0.000000
0.509318 0.005085 0.000000
0.613693 0.005085 0.000000
0.708152 0.005085 0.000000
0.788433 0.005085 0.000000
0.853157 0.005085 0.000000
0.905615 0.005085 0.000000
0.949522 0.005085 0.000000
0.988593 0.005085 0.000000
1.000000 0.005085 0.000000
1.000000 0.005085 0.000000
1.000000 0.005085 0.000000
1.000000 0.005085 0.000000
1.000000 0.005085 0.000000
1.000000 0.005085 0.000000
1.000000 0.005085 0.000000
1.000000 0.005085 0.000000
1.000000 0.005085 0.000000
1.000000 0.005085 0.000000
1.000000 0.005085 0.000000
0.000000 0.007657 0.000000
0.000451 0.007657 0.000000
0.001044 0.007657 0.000000
0.001920 0.007657 0.000000
0.003220 0.007657 0.000000
0.005085 0.007657 0.000000
0.007657 0.007657 0.000000
0.011078 0.007657 0.000000
0.022773 0.007657 0.000000
0.082774 0.007657 0.000000
0.179772 0.007657 0.000000
0.288050 0.007657 0.000000
0.399335 0.007657 0.000000
0.509318 0.007657 0.000000
0.613693 0.007657 0.000000
0.708152 0.007657 0.000000
0.788433 0.007657 0.000000
0.853157 0.007657 0.000000
0.905615 0.007657 0.000000
0.949522 0.007657 0.000000
0.988593 0.007657 0.000000
1.000000 0.007657 0.000000
1.000000 0.007657 0.000000
1.000000 0.007657 0.000000
1.000000 0.007657 0.000000
1.000000 0.007657 0.000000
1.000000 0.007657 0.000000
1.000000 0.007657 0.000000
1.000000 0.007657 0.000000
1.000000 0.007657 0.000000
1.000000 0.007657 0.000000
1.000000 0.007657 0.000000
0.000000 0.011078 0.000000
0.000451 0.011078 0.000000
0.001044 0.011078 0.000000
0.001920 0.011078 0.000000
0.003220 0.011078 0.000000
0.005085 0.011078 0.000000
0.007657 0.011078 0.000000
0.011078 0.011078 0.000000
0.022773 0.011078 0.000000
0.082774 0.011078 0.000000
0.179772 0.011078 0.000000
0.288050 0.011078 0.000000
0.399335 0.011078 0.000000
0.509318 0.011078 0.000000
0.613693 0.011078 0.000000
0.708152 0.011078 0.000000
0.788433 0.011078 0.000000
0.853157 0.011078 0.000000
0.905615 0.011078 0.000000
0.949522 0.011078 0.000000
0.988593 0.011078 0.000000
1.000000 0.011078 0.000000
1.000000 0.011078 0.000000
1.000000 0.011078 0.000000
1.000000 0.011078 0.000000
1.000000 0.011078 0.000000
1.000000 0.011078 0.000000
1.000000 0.011078 0.000000
1.000000 0.011078 0.000000
1.000000 0.011078 0.000000
1.000000 0.011078 0.000000
1.000000 0.011078 0.000000
0.000000 0.022773 0.000000
0.000451 0.022773 0.000000
0.001044 0.022773 0.000000
0.001920 0.022773 0.000000
0.003220 0.022773 0.000000
0.005085 0.022773 0.000000
0.007657 0.022773 0.000000
0.011078 0.022773 0.000000
0.022773 0.022773 0.000000
0.082774 0.022773 0.000000
0.179772 0.022773 0.000000
0.288050 0.022773 0.000000
0.399335 0.022773 0.000000
0.509318 0.022773 0.000000
0.613693 0.022773 0.000000
0.708152 0.022773 0.000000
0.788433 0.022773 0.000000
0.853157 0.022773 0.000000
0.905615 0.022773 0.000000
0.949522 0.022773 0.000000
0.988593 0.022773 0.000000
1.000000 0.022773 0.000000
1.000000 0.022773 0.000000
1.000000 0.022773 0.000000
1.000000 0.022773 0.000000
1.000000 0.022773 0.000000
1.000000 0.022773 0.000000
1.000000 0.022773 0.000000
1.000000 0.022773 0.000000
1.000000 0.022773 0.000000
1.000000 0.022773 0.000000
1.000000 0.022773 0.000000
0.000000 0.082774 0.000000
0.000451 0.082774 0.000000
0.001044 0.082774 0.000000
0.001920 0.082774 0.000000
0.003220 0.082774 0.000000
0.005085 0.082774 0.000000
0.007657 0.082774 0.000000
0.011078 0.082774 0.000000
0.022773 0.082774 0.000000
0.082774 0.082774 0.000000
0.179772 0.082774 0.000000
0.288050 0.082774 0.000000
0.399335 0.082774 0.000000
0.509318 0.082774 0.000000
0.613693 0.082774 0.000000
0.708152 0.082774 0.000000
0.788433 0.082774 0.000000
0.853157 0.082774 0.000000
0.905615 0.082774 0.000000
0.949522 0.082774 0.000000
0.988593 0.082774 0.000000
1.000000 0.082774 0.000000
1.000000 0.082774 0.000000
1.000000 0.082774 0.000000
1.000000 0.082774 0.000000
1.000000 0.082774 0.000000
1.000000 0.082774 0.000000
1.000000 0.082774 0.000000
1.000000 0.082774 0.000000
1.000000 0.082774 0.000000
1.000000 0.082774 0.000000
1.000000 0.082774 0.000000
0.000000 0.179772 0.000000
0.000451 0.179772 0.000000
0.001044 0.179772 0.000000
0.001920 0.179772 0.000000
0.003220 0.179772 0.000000
0.005085 0.179772 0.000000
0.007657 0.179772 0.000000
0.011078 0.179772 0.000000
0.022773 0.179772 0.000000
0.082774 0.179772 0.000000
0.179772 0.179772 0.000000
0.288050 0.179772 0.000000
0.399335 0.179772 0.000000
0.509318 0.179772 0.000000
0.613693 0.179772 0.000000
0.708152 0.179772 0.000000
0.788433 0.179772 0.000000
0.853157 0.179772 0.000000
0.905615 0.179772 0.000000
0.949522 0.179772 0.000000
0.988593 0.179772 0.000000
1.000000 0.179772 0.000000
1.000000 0.179772 0.000000
1.000000 0.179772 0.000000
1.000000 0.179772 0.000000
1.000000 0.179772 0.000000
1.000000 0.179772 0.000000
1.000000 0.179772 0.000000
1.000000 0.179772 0.000000
1.000000 0.179772 0.000000
1.000000 0.179772 0.000000
1.000000 0.179772 0.000000
0.000000 0.288050 0.000000
0.000451 0.288050 0.000000
0.001044 0.288050 0.000000
0.001920 0.288050 0.000000
0.003220 0.288050 0.000000
0.005085 0.288050 0.000000
0.007657 0.288050 0.000000
0.011078 0.288050 0.000000
0.022773 0.288050 0.000000
0.082774 0.288050 0.000000
0.179772 0.288050 0.000000
0.288050 0.288050 0.000000
0.399335 0.288050 0.000000
0.509318 0.288050 0.000000
0.613693 0.288050 0.000000
0.708152 0.288050 0.000000
0.788433 0.288050 0.000000
0.853157 0.288050 0.000000
0.905615 0.288050 0.000000
0.949522 0.288050 0.000000
0.988593 0.288050 0.000000
1.000000 0.288050 0.000000
1.000000 0.288050 0.000000
1.000000 0.288050 0.000000
1.000000 0.288050 0.000000
1.000000 0.288050 0.000000
1.000000 0.288050 0.000000
1.000000 0.288050 0.000000
1.000000 0.288050 0.000000
1.000000 0.288050 0.000000
1.000000 0.288050 0.000000
1.000000 0.288050 0.000000
0.000000 0.399335 0.000000
0.000451 0.399335 0.000000
0.001044 0.399335 0.000000
0.001920 0.399335 0.000000
0.003220 0.399335 0.000000
0.005085 0.399335 0.000000
0.007657 0.399335 0.000000
0.011078 0.399335 0.000000
0.022773 0.399335 0.000000
0.082774 0.399335 0.000000
0.179772 0.399335 0.000000
0.288050 0.399335 0.000000
0.399335 0.399335 0.000000
0.509318 0.399335 0.000000
0.613693 0.399335 0.000000
0.708152 0.399335 0.000000
0.788433 0.399335 0.000000
0.853157 0.399335 0.000000
0.905615 0.399335 0.000000
0.949522 0.399335 0.000000
0.988593 0.399335 0.000000
1.000000 0.399335 0.000000
1.000000 0.399335 0.000000
1.000000 0.399335 0.000000
1.000000 0.399335 0.000000
1.000000 0.399335 0.000000
1.000000 0.399335 0.000000
1.000000 0.399335 0.000000
1.000000 0.399335 0.000000
1.000000 0.399335 0.000000
1.000000 0.399335 0.000000
1.000000 0.399335 0.000000
0.000000 0.509318 0.000000
0.000451 0.509318 0.000000
0.001044 0.509318 0.000000
0.001920 0.509318 0.000000
0.003220 0.509318 0.000000
0.005085 0.509318 0.000000
0.007657 0.509318 0.000000
0.011078 0.509318 0.000000
0.022773 0.509318 0.000000
0.082774 0.509318 0.000000
0.179772 0.509318 0.000000
0.288050 0.509318 0.000000
0.399335 0.509318 0.000000
0.509318 0.509318 0.000000
0.613693 0.509318 0.000000
0.708152 0.509318 0.000000
0.788433 0.509318 0.000000
0.853157 0.509318 0.000000
0.905615 0.509318 0.000000
0.949522 0.509318 0.000000
0.988593 0.509318 0.000000
1.000000 0.509318 0.000000
1.000000 0.509318 0.000000
1.000000 0.509318 0.000000
1.000000 0.509318 0.000000
1.000000 0.509318 0.000000
1.000000 0.509318 0.000000
1.000000 0.509318 0.000000
1.000000 0.509318 0.000000
1.000000 0.509318 0.000000
1.000000 0.509318 0.000000
1.000000 0.509318 0.000000
0.000000 0.613693 0.000000
0.000451 0.613693 0.000000
0.001044 0.613693 0.000000
0.001920 0.613693 0.000000
0.003220 0.613693 0.000000
0.005085 0.613693 0.000000
0.007657 0.613693 0.000000
0.011078 0.613693 0.000000
0.022773 0.613693 0.000000
0.082774 0.613693 0.000000
0.179772 0.613693 0.000000
0.288050 0.613693 0.000000
0.399335 0.613693 0.000000
0.509318 0.613693 0.000000
0.613693 0.613693 0.000000
0.708152 0.613693 0.000000
0.788433 0.613693 0.000000
0.853157 0.613693 0.000000
0.905615 0.613693 0.000000
0.949522 0.613693 0.000000
0.988593 0.613693 0.000000
1.000000 0.613693 0.000000
1.000000 0.613693 0.000000
1.000000 0.613693 0.000000
1.000000 0.613693 0.000000
1.000000 0.613693 0.000000
1.000000 0.613693 0.000000
1.000000 0.613693 0.000000
1.000000 0.613693 0.000000
1.000000 0.613693 0.000000
1.000000 0.613693 0.000000
1.000000 0.613693 0.000000
0.000000 0.708152 0.000000
0.000451 0.708152 0.000000
0.001044 0.708152 0.000000
0.001920 0.708152 0.000000
0.003220 0.708152 0.000000
0.005085 0.708152 0.000000
0.007657 0.708152 0.000000
0.011078 0.708152 0.000000
0.022773 0.708152 0.000000
0.082774 0.708152 0.000000
0.179772 0.708152 0.000000
0.288050 0.708152 0.000000
0.399335 0.708152 0.000000
0.509318 0.708152 0.000000
0.613693 0.708152 0.000000
0.708152 0.708152 0.000000
0.788433 0.708152 0.000000
0.853157 0.708152 0.000000
0.905615 0.708152 0.000000
0.949522 0.708152 0.000000
0.988593 0.708152 0.000000
1.000000 0.708152 0.000000
1.000000 0.708152 0.000000
1.000000 0.708152 0.000000
1.000000 0.708152 0.000000
1.000000 0.708152 0.000000
1.000000 0.708152 0.000000
1.000000 0.708152 0.000000
1.000000 0.708152 0.000000
1.000000 0.708152 0.000000
1.000000 0.708152 0.000000
1.000000 0.708152 0.000000
0.000000 0.788433 0.000000
0.000451 0.788433 0.000000
0.001044 0.788433 0.000000
0.001920 0.788433 0.000000
0.003220 0.788433 0.000000
0.005085 0.788433 0.000000
0.007657 0.788433 0.000000
0.011078 0.788433 0.000000
0.022773 0.788433 0.000000
0.082774 0.788433 0.000000
0.179772 0.788433 0.000000
0.288050 0.788433 0.000000
0.399335 0.788433 0.000000
0.509318 0.788433 0.000000
0.613693 0.788433 0.000000
0.708152 0.788433 0.000000
0.788433 0.788433 0.000000
0.853157 0.788433 0.000000
0.905615 0.788433 0.000000
0.949522 0.788433 0.000000
0.988593 0.788433 0.000000
1.000000 0.788433 0.000000
1.000000 0.788433 0.000000
1.000000 0.788433 0.000000
1.000000 0.788433 0.000000
1.000000 0.788433 0.000000
1.000000 0.788433 0.000000
1.000000 0.788433 0.000000
1.000000 0.788433 0.000000
1.000000 0.788433 0.000000
1.000000 0.788433 0.000000
1.000000 0.788433 0.000000
0.000000 0.853157 0.000000
0.000451 0.853157 0.000000
0.001044 0.853157 0.000000
0.001920 0.853157 0.000000
0.003220 0.853157 0.000000
0.005085 0.853157 0.000000
0.007657 0.853157 0.000000
0.011078 0.853157 0.000000
0.022773 0.853157 0.000000
0.082774 0.853157 0.000000
0.179772 0.853157 0.000000
0.288050 0.853157 0.000000
0.399335 0.853157 0.000000
0.509318 0.853157 0.000000
0.613693 0.853157 0.000000
0.708152 0.853157 0.000000
0.788433 0.853157 0.000000
0.853157 0.853157 0.000000
0.905615 0.853157 0.000000
0.949522 0.853157 0.000000
0.988593 0.853157 0.000000
1.000000 0.853157 0.000000
1.000000 0.853157 0.000000
1.000000 0.853157 0.000000
1.000000 0.853157 0.000000
1.000000 0.853157 0.000000
1.000000 0.853157 0.000000
1.000000 0.853157 0.000000
1.000000 0.853157 0.000000
1.000000 0.853157 0.000000
1.000000 0.853157 0.000000
1.000000 0.853157 0.000000
0.000000 0.905615 0.000000
0.000451 0.905615 0.000000
0.001044 0.905615 0.000000
0.001920 0.905615 0.000000
0.003220 0.905615 0.000000
0.005085 0.905615 0.000000
0.007657 0.905615 0.000000
0.011078 0.905615 0.000000
0.022773 0.905615 0.000000
0.082774 0.905615 0.000000
0.179772 0.905615 0.000000
0.288050 0.905615 0.000000
0.399335 0.905615 0.000000
0.509318 0.905615 0.000000
0.613693 0.905615 0.000000
0.708152 0.905615 0.000000
0.788433 0.905615 0.000000
0.853157 0.905615 0.000000
0.905615 0.905615 0.000000
0.949522 0.905615 0.000000
0.988593 0.905615 0.000000
1.000000 0.905615 0.000000
1.000000 0.905615 0.000000
1.000000 0.905615 0.000000
1.000000 0.905615 0.000000
1.000000 0.905615 0.000000
1.000000 0.905615 0.000000
1.000000 0.905615 0.000000
1.000000 0.905615 0.000000
1.000000 0.905615 0.000000
1.000000 0.905615 0.000000
1.000000 0.905615 0.000000
0.000000 0.949522 0.000000
0.000451 0.949522 0.000000
0.001044 0.949522 0.000000
0.001920 0.949522 0.000000
0.003220 0.949522 0.000000
0.005085 0.949522 0.000000
0.007657 0.949522 0.000000
0.011078 0.949522 0.000000
0.022773 0.949522 0.000000
0.082774 0.949522 0.000000
0.179772 0.949522 0.000000
0.288050 0.949522 0.000000
0.399335 0.949522 0.000000
0.509318 0.949522 0.000000
0.613693 0.949522 0.000000
0.708152 0.949522 0.000000
0.788433 0.949522 0.000000
0.853157 0.949522 0.000000
0.905615 0.949522 0.000000
0.949522 0.949522 0.000000
0.988593 0.949522 0.000000
1.000000 0.949522 0.000000
1.000000 0.949522 0.000000
1.000000 0.949522 0.000000
1.000000 0.949522 0.000000
1.000000 0.949522 0.000000
1.000000 0.949522 0.000000
1.000000 0.949522 0.000000
1.000000 0.949522 0.000000
1.000000 0.949522 0.000000
1.000000 0.949522 0.000000
1.000000 0.949522 0.000000
0.000000 0.988593 0.000000
0.000451 0.988593 0.000000
0.001044 0.988593 0.000000
0.001920 0.988593 0.000000
0.003220 0.988593 0.000000
0.005085 0.988593 0.000000
0.007657 0.988593 0.000000
0.011078 0.988593 0.000000
0.022773 0.988593 0.000000
0.082774 0.988593 0.000000
0.179772 0.988593 0.000000
0.288050 0.988593 0.000000
0.399335 0.988593 0.000000
0.509318 0.988593 0.000000
0.613693 0.988593 0.000000
0.708152 0.988593 0.000000
0.788433 0.988593 0.000000
0.853157 0.988593 0.000000
0.905615 0.988593 0.000000
0.949522 0.988593 0.000000
0.988593 0.988593 0.000000
1.000000 0.988593 0.000000
1.000000 0.988593 0.000000
1.000000 0.988593 0.000000
1.000000 0.988593 0.000000
1.000000 0.988593 0.000000
1.000000 0.988593 0.000000
1.000000 0.988593 0.000000
1.000000 0.988593 0.000000
1.000000 0.988593 0.000000
1.000000 0.988593 0.000000
1.000000 0.988593 0.000000
0.000000 1.000000 0.000000
0.000451 1.000000 0.000000
0.001044 1.000000 0.000000
0.001920 1.000000 0.000000
0.003220 1.000000 0.000000
0.005085 1.000000 0.000000
0.007657 1.000000 0.000000
0.011078 1.000000 0.000000
0.022773 1.000000 0.000000
0.082774 1.000000 0.000000
0.179772 1.000000 0.000000
0.288050 1.000000 0.000000
0.399335 1.000000 0.000000
0.509318 1.000000 0.000000
0.613693 1.000000 0.000000
0.708152 1.000000 0.000000
0.788433 1.000000 0.000000
0.853157 1.000000 0.000000
0.905615 1.000000 0.000000
0.949522 1.000000 0.000000
0.988593 1.000000 0.000000
1.000000 1.000000 0.000000
1.000000 1.000000 0.000000
1.000000 1.000000 0.000000
1.000000 1.000000 0.000000
1.000000 1.000000 0.000000
1.000000 1.000000 0.000000
1.000000 1.000000 0.000000
1.000000 1.000000 0.000000
1.000000 1.000000 0.000000
1.000000 1.000000 0.000000
1.000000 1.000000 0.000000
0.000000 1.000000 0.000000
0.000451 1.000000 0.000000
0.001044 1.000000 0.000000
0.001920 1.000000 0.000000
0.003220 1.000000 0.000000
0.005085 1.000000 0.000000
0.007657 1.000000 0.000000
0.011078 1.000000 0.000000
0.022773 1.000000 0.000000
0.082774 1.000000 0.000000
0.179772 1.000000 0.000000
0.288050 1.000000 0.000000
0.399335 1.000000 0.000000
0.509318 1.000000 0.000000
0.613693 1.000000 0.000000
0.708152 1.000000 0.000000
0.788433 1.000000 0.000000
0.853157 1.000000 0.000000
0.905615 1.000000 0.000000
0.949522 1.000000 0.000000
0.988593 1.000000 0.000000
1.000000 1.000000 0.000000
1.000000 1.000000 0.000000
1.000000 1.000000 0.000000
1.000000 1.000000 0.000000
1.000000 1.000000 0.000000
1.000000 1.000000 0.000000
1.000000 1.000000 0.000000
1.000000 1.000000 0.000000
1.000000 1.000000 0.000000
1.000000 1.000000 0.000000
1.000000 1.000000 0.000000
0.000000 1.000000 0.000000
0.000451 1.000000 0.000000
0.001044 1.000000 0.000000
0.001920 1.000000 0.000000
0.003220 1.000000 0.000000
0.005085 1.000000 0.000000
0.007657 1.000000 0.000000
0.011078 1.000000 0.000000
0.022773 1.000000 0.000000
0.082774 1.000000 0.000000
0.179772 1.000000 0.000000
0.288050 1.000000 0.000000
0.399335 1.000000 0.000000
0.509318 1.000000 0.000000
0.613693 1.000000 0.000000
0.708152 1.000000 0.000000
0.788433 1.000000 0.000000
0.853157 1.000000 0.000000
0.905615 1.000000 0.000000
0.949522 1.000000 0.000000
0.988593 1.000000 0.000000
1.000000 1.000000 0.000000
1.000000 1.000000 0.000000
1.000000 1.000000 0.000000
1.000000 1.000000 0.000000
1.000000 1.000000 0.000000
1.000000 1.000000 0.000000
1.000000 1.000000 0.000000
1.000000 1.000000 0.000000
1.000000 1.000000 0.000000
1.000000 1.000000 0.000000
1.000000 1.000000 0.000000
0.000000 1.000000 0.000000
0.000451 1.000000 0.000000
0.001044 1.000000 0.000000
0.001920 1.000000 0.000000
0.003220 1.000000 0.000000
0.005085 1.000000 0.000000
0.007657 1.000000 0.000000
0.011078 1.000000 0.000000
0.022773 1.000000 0.000000
0.082774 1.000000 0.000000
0.179772 1.000000 0.000000
0.288050 1.000000 0.000000
0.399335 1.000000 0.000000
0.509318 1.000000 0.000000
0.613693 1.000000 0.000000
0.708152 1.000000 0.000000
0.788433 1.000000 0.000000
0.853157 1.000000 0.000000
0.905615 1.000000 0.000000
0.949522 1.000000 0.000000
0.988593 1.000000 0.000000
1.000000 1.000000 0.000000
1.000000 1.000000 0.000000
1.000000 1.000000 0.000000
1.000000 1.000000 0.000000
1.000000 1.000000 0.000000
1.000000 1.000000 0.000000
1.000000 1.000000 0.000000
1.000000 1.000000 0.000000
1.000000 1.000000 0.000000
1.000000 1.000000 0.000000
1.000000 1.000000 0.000000
0.000000 1.000000 0.000000
0.000451 1.000000 0.000000
0.001044 1.000000 0.000000
0.001920 1.000000 0.000000
0.003220 1.000000 0.000000
0.005085 1.000000 0.000000
0.007657 1.000000 0.000000
0.011078 1.000000 0.000000
0.022773 1.000000 0.000000
0.082774 1.000000 0.000000
0.179772 1.000000 0.000000
0.288050 1.000000 0.000000
0.399335 1.000000 0.000000
0.509318 1.000000 0.000000
0.613693 1.000000 0.000000
0.708152 1.000000 0.000000
0.788433 1.000000 0.000000
0.853157 1.000000 0.000000
0.905615 1.000000 0.000000
0.949522 1.000000 0.000000
0.988593 1.000000 0.000000
1.000000 1.000000 0.000000
1.000000 1.000000 0.000000
1.000000 1.000000 0.000000
1.000000 1.000000 0.000000
1.000000 1.000000 0.000000
1.000000 1.000000 0.000000
1.000000 1.000000 0.000000
1.000000 1.000000 0.000000
1.000000 1.000000 0.000000
1.000000 1.000000 0.000000
1.000000 1.000000 0.000000
0.000000 1.000000 0.000000
0.000451 1.000000 0.000000
0.001044 1.000000 0.000000
0.001920 1.000000 0.000000
0.003220 1.000000 0.000000
0.005085 1.000000 0.000000
0.007657 1.000000 0.000000
0.011078 1.000000 0.000000
0.022773 1.000000 0.000000
0.082774 1.000000 0.000000
0.179772 1.000000 0.000000
0.288050 1.000000 0.000000
0.399335 1.000000 0.000000
0.509318 1.000000 0.000000
0.613693 1.000000 0.000000
0.708152 1.000000 0.000000
0.788433 1.000000 0.000000
0.853157 1.000000 0.000000
0.905615 1.000000 0.000000
0.949522 1.000000 0.000000
0.988593 1.000000 0.000000
1.000000 1.000000 0.000000
1.000000 1.000000 0.000000
1.000000 1.000000 0.000000
1.000000 1.000000 0.000000
1.000000 1.000000 0.000000
1.000000 1.000000 0.000000
1.000000 1.000000 0.000000
1.000000 1.000000 0.000000
1.000000 1.000000 0.000000
1.000000 1.000000 0.000000
1.000000 1.000000 0.000000
0.000000 1.000000 0.000000
0.000451 1.000000 0.000000
0.001044 1.000000 0.000000
0.001920 1.000000 0.000000
0.003220 1.000000 0.000000
0.005085 1.000000 0.000000
0.007657 1.000000 0.000000
0.011078 1.000000 0.000000
0.022773 1.000000 0.000000
0.082774 1.000000 0.000000
0.179772 1.000000 0.000000
0.288050 1.000000 0.000000
0.399335 1.000000 0.000000
0.509318 1.000000 0.000000
0.613693 1.000000 0.000000
0.708152 1.000000 0.000000
0.788433 1.000000 0.000000
0.853157 1.000000 0.000000
