astoria-game/Assets/Environment/Maps/LUTs/Grade3.CUBE
#Created by: Adobe Photoshop Export Color Lookup Plugin
TITLE "Frame2.psd"
#LUT size
LUT_3D_SIZE 8
#data domain
#LUT data points
DOMAIN_MIN 0.000000 0.000000 0.000000
DOMAIN_MAX 0.903226 0.903226 0.903226
0.000000 0.000000 0.000000
0.000000 0.000000 0.000000
0.023536 0.009803 0.000000
0.298229 0.124214 0.000000
0.595565 0.248055 0.000000
0.768045 0.319894 0.000000
0.879373 0.366262 0.000000
0.954756 0.397660 0.000000
0.000000 0.000000 0.000000
0.000000 0.000000 0.000000
0.023536 0.009803 0.000000
0.298229 0.124214 0.000000
0.595565 0.248055 0.000000
0.768045 0.319894 0.000000
0.879373 0.366262 0.000000
0.954756 0.397660 0.000000
0.000000 0.015647 0.006517
0.000000 0.015647 0.006517
0.021623 0.023536 0.000000
0.298229 0.139861 0.000000
0.595565 0.263702 0.000000
0.768045 0.335541 0.000000
0.879373 0.381909 0.000000
0.954756 0.413307 0.000000
0.000000 0.261028 0.108719
0.000000 0.261028 0.108719
0.000000 0.261028 0.085183
0.211217 0.298229 0.000000
0.595565 0.509083 0.000000
0.768045 0.580922 0.000000
0.879373 0.627291 0.000000
0.954756 0.658688 0.000000
0.000000 0.562576 0.234315
0.000000 0.562576 0.234315
0.000000 0.562576 0.210779
0.063914 0.562576 0.000000
0.380499 0.595565 0.000000
0.653621 0.768045 0.000000
0.829908 0.879373 0.000000
0.949277 0.954756 0.000000
0.000000 0.745978 0.310703
0.000000 0.745978 0.310703
0.000000 0.745978 0.287166
0.000000 0.745978 0.012474
0.284862 0.745978 0.000000
0.470219 0.768045 0.000000
0.646506 0.879373 0.000000
0.765875 0.954756 0.000000
0.000000 0.867115 0.361157
0.000000 0.867115 0.361157
0.000000 0.867115 0.337620
0.000000 0.867115 0.062928
0.234408 0.867115 0.000000
0.406889 0.867115 0.000000
0.525369 0.879373 0.000000
0.644738 0.954756 0.000000
0.000000 0.949897 0.395636
0.000000 0.949897 0.395636
0.000000 0.949897 0.372100
0.000000 0.949897 0.097406
0.199929 0.949897 0.000000
0.372409 0.949897 0.000000
0.483737 0.949897 0.000000
0.561956 0.954756 0.000000
0.002065 0.000000 0.004959
0.002065 0.000000 0.004959
0.023536 0.004844 0.000000
0.298229 0.119255 0.000000
0.595565 0.243096 0.000000
0.768045 0.314935 0.000000
0.879373 0.361303 0.000000
0.954756 0.392701 0.000000
0.002065 0.000000 0.004959
0.002065 0.000000 0.004959
0.023536 0.004844 0.000000
0.298229 0.119255 0.000000
0.595565 0.243096 0.000000
0.768045 0.314935 0.000000
0.879373 0.361303 0.000000
0.954756 0.392701 0.000000
0.000000 0.015647 0.011476
0.000000 0.015647 0.011476
0.023536 0.023385 0.004959
0.298229 0.137795 0.004959
0.595565 0.261637 0.004959
0.768045 0.333476 0.004959
0.879373 0.379844 0.004959
0.954756 0.411241 0.004959
0.000000 0.261028 0.113678
0.000000 0.261028 0.113678
0.004959 0.261028 0.093035
0.213282 0.298229 0.004959
0.595565 0.507018 0.004959
0.768045 0.578857 0.004959
0.879373 0.625225 0.004959
0.954756 0.656623 0.004959
0.000000 0.562576 0.239274
0.000000 0.562576 0.239274
0.004959 0.562576 0.218631
0.065980 0.562576 0.004959
0.382565 0.595565 0.004959
0.655686 0.768045 0.004959
0.831974 0.879373 0.004959
0.951343 0.954756 0.004959
0.000000 0.745978 0.315662
0.000000 0.745978 0.315662
0.004959 0.745978 0.295019
0.004959 0.745978 0.020326
0.286928 0.745978 0.004959
0.472284 0.768045 0.004959
0.648571 0.879373 0.004959
0.767940 0.954756 0.004959
0.000000 0.867115 0.366116
0.000000 0.867115 0.366116
0.004959 0.867115 0.345473
0.004959 0.867115 0.070780
0.236474 0.867115 0.004959
0.408954 0.867115 0.004959
0.527434 0.879373 0.004959
0.646803 0.954756 0.004959
0.000000 0.949897 0.400595
0.000000 0.949897 0.400595
0.004959 0.949897 0.379952
0.004959 0.949897 0.105259
0.201994 0.949897 0.004959
0.374475 0.949897 0.004959
0.485802 0.949897 0.004959
0.564021 0.954756 0.004959
0.010944 0.000000 0.026277
0.010944 0.000000 0.026277
0.026277 0.000000 0.018073
0.298229 0.097937 0.000000
0.595565 0.221778 0.000000
0.768045 0.293617 0.000000
0.879373 0.339985 0.000000
0.954756 0.371383 0.000000
0.010944 0.000000 0.026277
0.010944 0.000000 0.026277
0.026277 0.000000 0.018073
0.298229 0.097937 0.000000
0.595565 0.221778 0.000000
0.768045 0.293617 0.000000
0.879373 0.339985 0.000000
0.954756 0.371383 0.000000
0.000000 0.004703 0.026277
0.000000 0.004703 0.026277
0.026277 0.015647 0.024590
0.298229 0.122714 0.015647
0.595565 0.246555 0.015647
0.768045 0.318394 0.015647
0.879373 0.364762 0.015647
0.954756 0.396160 0.015647
0.000000 0.261028 0.134996
0.000000 0.261028 0.134996
0.023536 0.261028 0.125193
0.222161 0.298229 0.026277
0.595565 0.498139 0.026277
0.768045 0.569978 0.026277
0.879373 0.616346 0.026277
0.954756 0.647744 0.026277
0.000000 0.562576 0.260592
0.000000 0.562576 0.260592
0.023536 0.562576 0.250789
0.074859 0.562576 0.026277
0.391444 0.595565 0.026277
0.664566 0.768045 0.026277
0.840853 0.879373 0.026277
0.954756 0.949291 0.026277
0.000000 0.745978 0.336980
0.000000 0.745978 0.336980
0.023536 0.745978 0.327177
0.026277 0.745978 0.054083
0.295807 0.745978 0.026277
0.481163 0.768045 0.026277
0.657450 0.879373 0.026277
0.776819 0.954756 0.026277
0.000000 0.867115 0.387434
0.000000 0.867115 0.387434
0.023536 0.867115 0.377631
0.026277 0.867115 0.104537
0.245353 0.867115 0.026277
0.417833 0.867115 0.026277
0.536313 0.879373 0.026277
0.655682 0.954756 0.026277
0.000000 0.949897 0.421913
0.000000 0.949897 0.421913
0.023536 0.949897 0.412110
0.026277 0.949897 0.139016
0.210874 0.949897 0.026277
0.383354 0.949897 0.026277
0.494682 0.949897 0.026277
0.572900 0.954756 0.026277
0.108859 0.000000 0.261364
0.108859 0.000000 0.261364
0.132395 0.000000 0.261364
0.298229 0.000000 0.137150
0.595565 0.000000 0.013309
0.768045 0.058530 0.000000
0.879373 0.104898 0.000000
0.954756 0.136296 0.000000
0.108859 0.000000 0.261364
0.108859 0.000000 0.261364
0.132395 0.000000 0.261364
0.298229 0.000000 0.137150
0.595565 0.000000 0.013309
0.768045 0.058530 0.000000
0.879373 0.104898 0.000000
0.954756 0.136296 0.000000
0.093212 0.000000 0.261364
0.093212 0.000000 0.261364
0.125878 0.015647 0.261364
0.298229 0.015647 0.143667
0.595565 0.015647 0.019826
0.768045 0.083307 0.015647
0.879373 0.129675 0.015647
0.954756 0.161072 0.015647
0.000000 0.152169 0.261364
0.000000 0.152169 0.261364
0.023536 0.161972 0.261364
0.298229 0.276187 0.261028
0.595565 0.400029 0.261028
0.768045 0.471867 0.261028
0.879373 0.518236 0.261028
0.954756 0.549633 0.261028
0.000000 0.562576 0.495679
0.000000 0.562576 0.495679
0.023536 0.562576 0.485876
0.261364 0.562576 0.349955
0.489358 0.595565 0.261364
0.762480 0.768045 0.261364
0.879373 0.819979 0.261364
0.954756 0.851376 0.261364
0.000000 0.745978 0.572067
0.000000 0.745978 0.572067
0.023536 0.745978 0.562264
0.261364 0.745978 0.426342
0.393721 0.745978 0.261364
0.579078 0.768045 0.261364
0.755365 0.879373 0.261364
0.874734 0.954756 0.261364
0.000000 0.867115 0.622521
0.000000 0.867115 0.622521
0.023536 0.867115 0.612718
0.261364 0.867115 0.476796
0.343267 0.867115 0.261364
0.515748 0.867115 0.261364
0.634228 0.879373 0.261364
0.753597 0.954756 0.261364
0.000000 0.949897 0.657000
0.000000 0.949897 0.657000
0.023536 0.949897 0.647197
0.261364 0.949897 0.511276
0.308788 0.949897 0.261364
0.481269 0.949897 0.261364
0.592596 0.949897 0.261364
0.670815 0.954756 0.261364
0.244742 0.000000 0.587609
0.244742 0.000000 0.587609
0.268278 0.000000 0.587609
0.542971 0.000000 0.587609
0.595565 0.000000 0.339554
0.768045 0.000000 0.267715
0.879373 0.000000 0.221347
0.954756 0.000000 0.189950
0.244742 0.000000 0.587609
0.244742 0.000000 0.587609
0.268278 0.000000 0.587609
0.542971 0.000000 0.587609
0.595565 0.000000 0.339554
0.768045 0.000000 0.267715
0.879373 0.000000 0.221347
0.954756 0.000000 0.189950
0.229095 0.000000 0.587609
0.229095 0.000000 0.587609
0.261761 0.015647 0.587609
0.536454 0.015647 0.587609
0.595565 0.015647 0.346071
0.768045 0.015647 0.274233
0.879373 0.015647 0.227864
0.954756 0.015647 0.196467
0.000000 0.016286 0.587609
0.000000 0.016286 0.587609
0.023536 0.026090 0.587609
0.434251 0.261028 0.587609
0.595565 0.261028 0.448274
0.768045 0.261028 0.376435
0.879373 0.261028 0.330067
0.954756 0.261028 0.298669
0.000000 0.317834 0.587609
0.000000 0.317834 0.587609
0.023536 0.327637 0.587609
0.298229 0.442047 0.587609
0.595565 0.562576 0.573869
0.768045 0.623121 0.562575
0.879373 0.669489 0.562576
0.954756 0.700886 0.562576
0.000000 0.593644 0.745978
0.000000 0.593644 0.745978
0.023536 0.603447 0.745978
0.298229 0.717858 0.745978
0.587609 0.745978 0.645615
0.714960 0.768045 0.587609
0.879373 0.867499 0.587609
0.954756 0.898896 0.587609
0.000000 0.785464 0.867115
0.000000 0.785464 0.867115
0.023536 0.795267 0.867115
0.298229 0.867115 0.824553
0.587609 0.867115 0.696069
0.651630 0.867115 0.587609
0.770110 0.879373 0.587609
0.889479 0.954756 0.587609
0.000000 0.916549 0.949897
0.000000 0.916549 0.949897
0.023536 0.926352 0.949897
0.298229 0.949897 0.859032
0.587609 0.949897 0.730548
0.617151 0.949897 0.587609
0.728479 0.949897 0.587609
0.806697 0.954756 0.587609
0.331777 0.000000 0.796577
0.331777 0.000000 0.796577
0.355313 0.000000 0.796577
0.630006 0.000000 0.796577
0.796577 0.000000 0.665811
0.796577 0.000000 0.493330
0.879373 0.000000 0.430314
0.954756 0.000000 0.398916
0.331777 0.000000 0.796577
0.331777 0.000000 0.796577
0.355313 0.000000 0.796577
0.630006 0.000000 0.796577
0.796577 0.000000 0.665811
0.796577 0.000000 0.493330
0.879373 0.000000 0.430314
0.954756 0.000000 0.398916
0.316130 0.000000 0.796577
0.316130 0.000000 0.796577
0.348797 0.015647 0.796577
0.623489 0.015647 0.796577
0.796577 0.015647 0.672328
0.796577 0.015647 0.499847
0.879373 0.015647 0.436831
0.954756 0.015647 0.405434
0.070749 0.000000 0.796577
0.070749 0.000000 0.796577
0.108019 0.023536 0.796577
0.521287 0.261028 0.796576
0.796576 0.261028 0.774530
0.796576 0.261028 0.602050
0.879373 0.261028 0.539034
0.954756 0.261028 0.507636
0.000000 0.230798 0.796577
0.000000 0.230798 0.796577
0.023536 0.240601 0.796577
0.298229 0.355012 0.796576
0.693027 0.562576 0.796577
0.796577 0.562576 0.727645
0.879373 0.562576 0.664629
0.954756 0.562576 0.633232
0.000000 0.414201 0.796577
0.000000 0.414201 0.796577
0.023536 0.424004 0.796577
0.298229 0.538414 0.796576
0.595565 0.662256 0.796577
0.789120 0.745978 0.796577
0.879373 0.750939 0.745978
0.954756 0.782336 0.745978
0.000000 0.576497 0.867115
0.000000 0.576497 0.867115
0.023536 0.586300 0.867115
0.298229 0.700710 0.867115
0.595565 0.824552 0.867115
0.768045 0.867115 0.837839
0.857146 0.879373 0.796577
0.954756 0.932997 0.796577
0.000000 0.707582 0.949897
0.000000 0.707582 0.949897
0.023536 0.717385 0.949897
0.298229 0.831795 0.949897
0.595565 0.949897 0.944157
0.768045 0.949897 0.872319
0.815514 0.949897 0.796577
0.893733 0.954756 0.796577
0.390523 0.000000 0.937621
0.390523 0.000000 0.937621
0.414059 0.000000 0.937621
0.688752 0.000000 0.937621
0.937621 0.000000 0.889153
0.937621 0.000000 0.716673
0.937621 0.000000 0.605345
0.954756 0.000000 0.539961
0.390523 0.000000 0.937621
0.390523 0.000000 0.937621
0.414059 0.000000 0.937621
0.688752 0.000000 0.937621
0.937621 0.000000 0.889153
0.937621 0.000000 0.716673
0.937621 0.000000 0.605345
0.954756 0.000000 0.539961
0.374876 0.000000 0.937621
0.374876 0.000000 0.937621
0.407542 0.015647 0.937621
0.682235 0.015647 0.937621
0.937621 0.015647 0.895670
0.937621 0.015647 0.723190
0.937621 0.015647 0.611862
0.954756 0.015647 0.546478
0.129495 0.000000 0.937621
0.129495 0.000000 0.937621
0.166764 0.023536 0.937621
0.580033 0.261028 0.937621
0.877369 0.261028 0.937621
0.937621 0.261028 0.825392
0.937621 0.261028 0.714064
0.954756 0.261028 0.648680
0.000000 0.172053 0.937621
0.000000 0.172053 0.937621
0.023536 0.181856 0.937621
0.300192 0.298229 0.937621
0.751773 0.562576 0.937621
0.924253 0.562576 0.937621
0.937621 0.562576 0.839660
0.954756 0.562576 0.774276
0.000000 0.355456 0.937621
0.000000 0.355456 0.937621
0.023536 0.365258 0.937621
0.298229 0.479669 0.937621
0.595565 0.603510 0.937621
0.847865 0.745978 0.937621
0.937621 0.745978 0.916048
0.954756 0.745978 0.850664
0.000000 0.476592 0.937621
0.000000 0.476592 0.937621
0.023536 0.486395 0.937621
0.298229 0.600806 0.937621
0.595565 0.724648 0.937621
0.768045 0.796486 0.937621
0.908739 0.867115 0.937621
0.954756 0.867115 0.901118
0.000000 0.566538 0.949897
0.000000 0.566538 0.949897
0.023536 0.576341 0.949897
0.298229 0.690752 0.949897
0.595565 0.814593 0.949897
0.768045 0.886432 0.949897
0.879373 0.932800 0.949897
0.952478 0.954756 0.937621
0.416504 0.000000 1.000000
0.416504 0.000000 1.000000
0.440040 0.000000 1.000000
0.714733 0.000000 1.000000
1.000000 0.000000 0.987931
1.000000 0.000000 0.815451
1.000000 0.000000 0.704123
1.000000 0.000000 0.628740
0.416504 0.000000 1.000000
0.416504 0.000000 1.000000
0.440040 0.000000 1.000000
0.714733 0.000000 1.000000
1.000000 0.000000 0.987931
1.000000 0.000000 0.815451
1.000000 0.000000 0.704123
1.000000 0.000000 0.628740
0.400857 0.000000 1.000000
0.400857 0.000000 1.000000
0.433523 0.015647 1.000000
0.708216 0.015647 1.000000
1.000000 0.015647 0.994448
1.000000 0.015647 0.821967
1.000000 0.015647 0.710640
1.000000 0.015647 0.635256
0.155475 0.000000 1.000000
0.155475 0.000000 1.000000
0.192746 0.023536 1.000000
0.606014 0.261028 1.000000
0.903350 0.261028 1.000000
1.000000 0.261028 0.924170
1.000000 0.261028 0.812842
1.000000 0.261028 0.737459
0.000000 0.146071 1.000000
0.000000 0.146071 1.000000
0.023536 0.155874 1.000000
0.326173 0.298229 1.000000
0.777754 0.562576 1.000000
0.950234 0.562576 1.000000
1.000000 0.562576 0.938438
1.000000 0.562576 0.863055
0.000000 0.329474 1.000000
0.000000 0.329474 1.000000
0.023536 0.339277 1.000000
0.298229 0.453688 1.000000
0.613601 0.595565 1.000000
0.873847 0.745978 1.000000
0.985174 0.745978 1.000000
1.000000 0.745978 0.939443
0.000000 0.450611 1.000000
0.000000 0.450611 1.000000
0.023536 0.460414 1.000000
0.298229 0.574825 1.000000
0.595565 0.698666 1.000000
0.768045 0.770505 1.000000
0.934720 0.867115 1.000000
1.000000 0.867115 0.989897
0.000000 0.533393 1.000000
0.000000 0.533393 1.000000
0.023536 0.543196 1.000000
0.298229 0.657607 1.000000
0.595565 0.781448 1.000000
0.768045 0.853287 1.000000
0.879373 0.899656 1.000000
0.975624 0.949897 1.000000
