astoria-game/Assets/Environment/Maps/LUTs/Grade3.CUBE
#Created by: Adobe Photoshop Export Color Lookup Plugin
TITLE "Frame2.psd"
#LUT size
LUT_3D_SIZE 5
#data domain
#LUT data points
DOMAIN_MIN 0.000000 0.000000 0.000000
DOMAIN_MAX 0.903226 0.903226 0.903226
0.000000 0.000000 0.000000
0.003714 0.001547 0.000000
0.469181 0.195416 0.000000
0.800325 0.333338 0.000000
0.954756 0.397660 0.000000
0.000000 0.002034 0.000847
0.003714 0.003581 0.000000
0.469181 0.197450 0.000000
0.800325 0.335372 0.000000
0.954756 0.399694 0.000000
0.000000 0.431583 0.179756
0.000000 0.431583 0.176043
0.311363 0.469181 0.000000
0.800325 0.764922 0.000000
0.954756 0.829243 0.000000
0.000000 0.781068 0.325318
0.000000 0.781068 0.321604
0.143863 0.781068 0.000000
0.486243 0.800325 0.000000
0.730785 0.954756 0.000000
0.000000 0.949897 0.395636
0.000000 0.949897 0.391922
0.073545 0.949897 0.000000
0.404689 0.949897 0.000000
0.561956 0.954756 0.000000
0.006387 0.000000 0.015335
0.010101 0.000000 0.015335
0.469181 0.180081 0.000000
0.800325 0.318004 0.000000
0.954756 0.382326 0.000000
0.004353 0.000000 0.015335
0.009253 0.002034 0.015335
0.469181 0.183302 0.002034
0.800325 0.321225 0.002034
0.954756 0.385546 0.002034
0.000000 0.431583 0.195091
0.003714 0.431583 0.193544
0.317750 0.469181 0.015335
0.800325 0.758535 0.015335
0.954756 0.822856 0.015335
0.000000 0.781068 0.340652
0.003714 0.781068 0.339106
0.150250 0.781068 0.015335
0.492630 0.800325 0.015335
0.737172 0.954756 0.015335
0.000000 0.949897 0.410970
0.003714 0.949897 0.409424
0.079932 0.949897 0.015335
0.411076 0.949897 0.015335
0.568343 0.954756 0.015335
0.184386 0.000000 0.442700
0.188100 0.000000 0.442700
0.469181 0.000000 0.247284
0.800325 0.000000 0.109361
0.954756 0.000000 0.045040
0.182352 0.000000 0.442700
0.187253 0.002034 0.442700
0.469181 0.002034 0.248131
0.800325 0.002034 0.110208
0.954756 0.002034 0.045888
0.000000 0.247197 0.442700
0.003714 0.248744 0.442700
0.469181 0.436126 0.431583
0.800325 0.574049 0.431583
0.954756 0.638371 0.431583
0.000000 0.781068 0.768018
0.003714 0.781068 0.766471
0.442700 0.781068 0.557150
0.670629 0.800325 0.442700
0.915171 0.954756 0.442700
0.000000 0.949897 0.838336
0.003714 0.949897 0.836789
0.442700 0.949897 0.627468
0.589075 0.949897 0.442700
0.746342 0.954756 0.442700
0.348677 0.000000 0.837153
0.352391 0.000000 0.837153
0.817859 0.000000 0.837153
0.837153 0.000000 0.525304
0.954756 0.000000 0.439494
0.346644 0.000000 0.837153
0.351544 0.002034 0.837153
0.817011 0.002034 0.837153
0.837153 0.002034 0.526151
0.954756 0.002034 0.440341
0.000000 0.082906 0.837153
0.003714 0.084452 0.837153
0.638102 0.431583 0.837153
0.837153 0.431583 0.705060
0.954756 0.431583 0.619250
0.000000 0.432390 0.837153
0.003714 0.433937 0.837153
0.469181 0.627806 0.837153
0.823684 0.781068 0.837153
0.954756 0.797325 0.781068
0.000000 0.667005 0.949897
0.003714 0.668552 0.949897
0.469181 0.862421 0.949897
0.800325 0.949897 0.899451
0.910633 0.954756 0.837153
0.416504 0.000000 1.000000
0.420217 0.000000 1.000000
0.885685 0.000000 1.000000
1.000000 0.000000 0.783171
1.000000 0.000000 0.628740
0.414470 0.000000 1.000000
0.419371 0.002034 1.000000
0.884838 0.002034 1.000000
1.000000 0.002034 0.784019
1.000000 0.002034 0.629587
0.000000 0.015079 1.000000
0.003714 0.016626 1.000000
0.705929 0.431583 1.000000
1.000000 0.431583 0.962927
1.000000 0.431583 0.808496
0.000000 0.364564 1.000000
0.003714 0.366111 1.000000
0.469181 0.559980 1.000000
0.891511 0.781068 1.000000
1.000000 0.781068 0.954058
0.000000 0.533393 1.000000
0.003714 0.534940 1.000000
0.469181 0.728809 1.000000
0.800325 0.866732 1.000000
0.975624 0.949897 1.000000
